%
O00001001
(T2  D=3. CR=0. TAPER=118DEG - ZMIN=-8. - DRILL)
G90 G94 G17
G21
G91
G28 Z0.
G90
(DRILL1)
T2 M6
S5000 M3
G54
G0 X-125. Y25.
G43 Z15. H2
G0 Z5.
G98 G81 X-125. Y25. Z-8. R5. F250.
X-135. Y35.
X-145. Y25.
X-135. Y15.
G80
Z15.
G91
G28 Z0.
M5
G28 X0. Y0.
M30
%
