%
O00001002
(T3  D=5.85 CR=0. - ZMIN=-5.5 - FLAT END MILL)
G90 G94 G17
G21
G91
G28 Z0.
G90
(2D POCKET1)
T3 M6
S5000 M3
G54
G0 X-138.917 Y22.5
G43 Z15. H3
G0 Z5.
G1 Z3.083 F1000.
X-138.914 Y22.498 Z3.016 F333.3
G3 X-138.903 Y22.494 Z2.95 I1.21 J2.502
X-138.886 Y22.485 Z2.886 I1.2 J2.506
X-138.863 Y22.475 Z2.825 I1.183 J2.515
X-138.833 Y22.461 Z2.767 I1.159 J2.525
X-138.797 Y22.445 Z2.713 I1.129 J2.539
X-138.755 Y22.428 Z2.664 I1.093 J2.555
X-138.709 Y22.409 Z2.62 I1.052 J2.572
X-138.657 Y22.39 Z2.582 I1.005 J2.591
X-138.602 Y22.37 Z2.551 I0.953 J2.61
X-138.543 Y22.351 Z2.527 I0.898 J2.63
X-138.481 Y22.332 Z2.51 I0.839 J2.649
X-138.417 Y22.314 Z2.5 I0.777 J2.668
X-136.99 Y27.686 Z1.736 I0.713 J2.686
X-138.417 Y22.314 Z0.973 I-0.713 J-2.686
X-136.99 Y27.686 Z0.209 I0.713 J2.686
X-138.417 Y22.314 Z-0.555 I-0.713 J-2.686
X-134.925 Y25. Z-1. I0.713 J2.686
X-135.075 I-0.075 F1000.
X-129.925 I2.575
X-140.075 I-5.075
X-124.925 I7.575
X-145.075 I-10.075
X-124.925 I10.075
X-127.704 Y27.779 Z-1.159 I-2.779 F333.3
G1 X-137.704 Z-1.523
G3 Y22.221 Z-1.841 J-2.779
X-134.925 Y25. Z-2. J2.779
X-135.075 I-0.075 F1000.
X-129.925 I2.575
X-140.075 I-5.075
X-124.925 I7.575
X-145.075 I-10.075
X-124.925 I10.075
X-127.704 Y27.779 Z-2.159 I-2.779 F333.3
G1 X-137.704 Z-2.523
G3 Y22.221 Z-2.841 J-2.779
X-134.925 Y25. Z-3. J2.779
X-135.075 I-0.075 F1000.
X-129.925 I2.575
X-140.075 I-5.075
X-124.925 I7.575
X-145.075 I-10.075
X-124.925 I10.075
X-127.704 Y27.779 Z-3.159 I-2.779 F333.3
G1 X-137.704 Z-3.523
G3 Y22.221 Z-3.841 J-2.779
X-134.925 Y25. Z-4. J2.779
X-135.075 I-0.075 F1000.
X-129.925 I2.575
X-140.075 I-5.075
X-124.925 I7.575
X-145.075 I-10.075
X-124.925 I10.075
X-127.704 Y27.779 Z-4.159 I-2.779 F333.3
G1 X-137.704 Z-4.523
G3 Y22.221 Z-4.841 J-2.779
X-134.925 Y25. Z-5. J2.779
X-135.075 I-0.075 F1000.
X-129.925 I2.575
X-140.075 I-5.075
X-124.925 I7.575
X-145.075 I-10.075
X-124.925 I10.075
X-124.929 Y25.065 Z-4.996 I-0.585
X-124.939 Y25.129 Z-4.985 I-0.581 J-0.065
X-124.957 Y25.19 Z-4.967 I-0.571 J-0.129
X-124.979 Y25.246 Z-4.942 I-0.553 J-0.19
X-125.006 Y25.297 Z-4.91 I-0.531 J-0.246
X-125.035 Y25.342 Z-4.872 I-0.504 J-0.297
X-125.065 Y25.38 Z-4.829 I-0.475 J-0.342
X-125.095 Y25.412 Z-4.78 I-0.445 J-0.38
X-125.122 Y25.438 Z-4.726 I-0.415 J-0.412
X-125.147 Y25.459 Z-4.669 I-0.388 J-0.438
X-125.167 Y25.474 Z-4.608 I-0.363 J-0.459
X-125.182 Y25.484 Z-4.545 I-0.343 J-0.474
X-125.191 Y25.49 Z-4.48 I-0.328 J-0.484
G1 X-125.194 Y25.492 Z-4.415
G0 Z5.
X-31.079 Y27.5
G1 Z3.083 F1000.
X-31.082 Y27.502 Z3.016 F333.3
G3 X-31.092 Y27.506 Z2.95 I-1.21 J-2.502
X-31.109 Y27.515 Z2.886 I-1.2 J-2.506
X-31.133 Y27.525 Z2.825 I-1.183 J-2.515
X-31.163 Y27.539 Z2.767 I-1.159 J-2.525
X-31.199 Y27.555 Z2.713 I-1.129 J-2.539
X-31.24 Y27.572 Z2.664 I-1.093 J-2.555
X-31.287 Y27.591 Z2.62 I-1.052 J-2.572
X-31.338 Y27.61 Z2.582 I-1.005 J-2.591
X-31.394 Y27.63 Z2.551 I-0.953 J-2.61
X-31.453 Y27.649 Z2.527 I-0.898 J-2.63
X-31.515 Y27.668 Z2.51 I-0.839 J-2.649
X-31.578 Y27.686 Z2.5 I-0.777 J-2.668
X-33.005 Y22.314 Z1.736 I-0.713 J-2.686
X-31.578 Y27.686 Z0.973 I0.713 J2.686
X-33.005 Y22.314 Z0.209 I-0.713 J-2.686
X-31.578 Y27.686 Z-0.555 I0.713 J2.686
X-35.071 Y25. Z-1. I-0.713 J-2.686
X-29.925 I2.573
X-30.075 I-0.075 F1000.
X-24.925 I2.575
X-35.075 I-5.075
X-24.925 I5.075
X-27.5 Y27.575 Z-1.191 I-2.575 F333.3
G1 X-32.5 Z-1.427
G3 Y22.425 Z-1.809 J-2.575
X-29.925 Y25. Z-2. J2.575
G1 Z5. F1000.
Z-2.
G3 X-30.075 I-0.075
X-24.925 I2.575
X-35.075 I-5.075
X-24.925 I5.075
X-27.5 Y27.575 Z-2.191 I-2.575 F333.3
G1 X-32.5 Z-2.427
G3 Y22.425 Z-2.809 J-2.575
X-29.925 Y25. Z-3. J2.575
X-30.075 I-0.075 F1000.
X-24.925 I2.575
X-35.075 I-5.075
X-24.925 I5.075
X-27.5 Y27.575 Z-3.191 I-2.575 F333.3
G1 X-32.5 Z-3.427
G3 Y22.425 Z-3.809 J-2.575
X-29.925 Y25. Z-4. J2.575
X-30.075 I-0.075 F1000.
X-24.925 I2.575
X-35.075 I-5.075
X-24.925 I5.075
X-27.5 Y27.575 Z-4.191 I-2.575 F333.3
G1 X-32.5 Z-4.427
G3 Y22.425 Z-4.809 J-2.575
X-29.925 Y25. Z-5. J2.575
X-30.075 I-0.075 F1000.
X-24.925 I2.575
X-35.075 I-5.075
X-24.925 I5.075
X-24.929 Y25.065 Z-4.996 I-0.585
X-24.939 Y25.129 Z-4.985 I-0.581 J-0.065
X-24.957 Y25.19 Z-4.967 I-0.571 J-0.129
X-24.979 Y25.246 Z-4.942 I-0.553 J-0.19
X-25.006 Y25.297 Z-4.91 I-0.531 J-0.246
X-25.035 Y25.342 Z-4.872 I-0.504 J-0.297
X-25.065 Y25.38 Z-4.829 I-0.475 J-0.342
X-25.095 Y25.412 Z-4.78 I-0.445 J-0.38
X-25.122 Y25.438 Z-4.726 I-0.415 J-0.412
X-25.147 Y25.459 Z-4.669 I-0.388 J-0.438
X-25.167 Y25.474 Z-4.608 I-0.363 J-0.459
X-25.182 Y25.484 Z-4.545 I-0.343 J-0.474
X-25.191 Y25.49 Z-4.48 I-0.328 J-0.484
G1 X-25.194 Y25.492 Z-4.415
G0 Z15.
X-83.079 Y27.5
Z5.
G1 Z3.083 F1000.
X-83.082 Y27.502 Z3.016 F333.3
G3 X-83.092 Y27.506 Z2.95 I-1.21 J-2.502
X-83.109 Y27.515 Z2.886 I-1.2 J-2.506
X-83.133 Y27.525 Z2.825 I-1.183 J-2.515
X-83.163 Y27.539 Z2.767 I-1.159 J-2.525
X-83.199 Y27.555 Z2.713 I-1.129 J-2.539
X-83.24 Y27.572 Z2.664 I-1.093 J-2.555
X-83.287 Y27.591 Z2.62 I-1.052 J-2.572
X-83.338 Y27.61 Z2.582 I-1.005 J-2.591
X-83.394 Y27.63 Z2.551 I-0.953 J-2.61
X-83.453 Y27.649 Z2.527 I-0.898 J-2.63
X-83.515 Y27.668 Z2.51 I-0.839 J-2.649
X-83.578 Y27.686 Z2.5 I-0.777 J-2.668
X-85.005 Y22.314 Z1.736 I-0.713 J-2.686
X-83.578 Y27.686 Z0.973 I0.713 J2.686
X-85.005 Y22.314 Z0.209 I-0.713 J-2.686
X-83.578 Y27.686 Z-0.555 I0.713 J2.686
X-87.071 Y25. Z-1. I-0.713 J-2.686
X-81.925 I2.573
X-82.075 I-0.075 F1000.
X-76.925 I2.575
X-87.075 I-5.075
X-76.925 I5.075
X-79.5 Y27.575 Z-1.191 I-2.575 F333.3
G1 X-84.5 Z-1.427
G3 Y22.425 Z-1.809 J-2.575
X-81.925 Y25. Z-2. J2.575
X-82.075 I-0.075 F1000.
X-76.925 I2.575
X-87.075 I-5.075
X-76.925 I5.075
X-79.5 Y27.575 Z-2.191 I-2.575 F333.3
G1 X-84.5 Z-2.427
G3 Y22.425 Z-2.809 J-2.575
X-81.925 Y25. Z-3. J2.575
G1 Z5. F1000.
Z-3.
G3 X-82.075 I-0.075
X-76.925 I2.575
X-87.075 I-5.075
X-76.925 I5.075
X-79.5 Y27.575 Z-3.191 I-2.575 F333.3
G1 X-84.5 Z-3.427
G3 Y22.425 Z-3.809 J-2.575
X-81.925 Y25. Z-4. J2.575
X-82.075 I-0.075 F1000.
X-76.925 I2.575
X-87.075 I-5.075
X-76.925 I5.075
X-79.5 Y27.575 Z-4.191 I-2.575 F333.3
G1 X-84.5 Z-4.427
G3 Y22.425 Z-4.809 J-2.575
X-81.925 Y25. Z-5. J2.575
G1 Z5. F1000.
Z-5.
G3 X-82.075 I-0.075
X-76.925 I2.575
X-87.075 I-5.075
X-76.925 I5.075
X-79.5 Y27.575 Z-5.095 I-2.575 F333.3
G1 X-84.5 Z-5.214
G3 Y22.425 Z-5.405 J-2.575
X-81.925 Y25. Z-5.5 J2.575
X-82.075 I-0.075 F1000.
X-76.925 I2.575
X-87.075 I-5.075
X-76.925 I5.075
X-76.929 Y25.065 Z-5.496 I-0.585
X-76.939 Y25.129 Z-5.485 I-0.581 J-0.065
X-76.957 Y25.19 Z-5.467 I-0.571 J-0.129
X-76.979 Y25.246 Z-5.442 I-0.553 J-0.19
X-77.006 Y25.297 Z-5.41 I-0.531 J-0.246
X-77.035 Y25.342 Z-5.372 I-0.504 J-0.297
X-77.065 Y25.38 Z-5.329 I-0.475 J-0.342
X-77.095 Y25.412 Z-5.28 I-0.445 J-0.38
X-77.122 Y25.438 Z-5.226 I-0.415 J-0.412
X-77.147 Y25.459 Z-5.169 I-0.388 J-0.438
X-77.167 Y25.474 Z-5.108 I-0.363 J-0.459
X-77.182 Y25.484 Z-5.045 I-0.343 J-0.474
X-77.191 Y25.49 Z-4.98 I-0.328 J-0.484
G1 X-77.194 Y25.492 Z-4.915
G0 Z15.
G91
G28 Z0.
M5
G28 X0. Y0.
M30
%
