%
O00001003
(T3  D=5.85 CR=0. - ZMIN=-8.1 - FLAT END MILL)
G90 G94 G17
G21
G91
G28 Z0.
G90
(2D POCKET1 (2))
T3 M6
S5000 M3
G54
G0 X-81.918 Y22.5
G43 Z15. H3
G0 Z-0.5
G1 Z-2.417 F1000.
X-81.915 Y22.498 Z-2.484 F333.3
G3 X-81.905 Y22.494 Z-2.55 I1.21 J2.502
X-81.888 Y22.485 Z-2.614 I1.2 J2.506
X-81.864 Y22.475 Z-2.675 I1.183 J2.515
X-81.834 Y22.461 Z-2.733 I1.159 J2.525
X-81.798 Y22.445 Z-2.787 I1.129 J2.539
X-81.757 Y22.428 Z-2.836 I1.093 J2.555
X-81.71 Y22.409 Z-2.88 I1.052 J2.572
X-81.659 Y22.39 Z-2.918 I1.005 J2.591
X-81.603 Y22.37 Z-2.949 I0.953 J2.61
X-81.544 Y22.351 Z-2.973 I0.898 J2.63
X-81.482 Y22.332 Z-2.99 I0.839 J2.649
X-81.419 Y22.314 Z-3. I0.777 J2.668
X-79.992 Y27.686 Z-3.764 I0.713 J2.686
X-81.419 Y22.314 Z-4.527 I-0.713 J-2.686
X-79.992 Y27.686 Z-5.291 I0.713 J2.686
X-81.419 Y22.314 Z-6.055 I-0.713 J-2.686
X-77.926 Y25. Z-6.5 I0.713 J2.686
X-81.075 I-1.574
X-77.925 I1.575 F1000.
X-86.075 I-4.075
X-77.925 I4.075
X-78.081 Y25.259 I-0.292
G1 X-81.97 Y27.312
G3 X-82.272 Y27.295 I-0.137 J-0.259
X-79.138 Y22.705 Z-7.264 I1.567 J-2.295 F333.3
X-77.926 Y25. Z-7.5 I-1.567 J2.295
X-81.075 I-1.574
X-77.925 I1.575 F1000.
X-86.075 I-4.075
X-77.925 I4.075
X-78.314 Y25.276 I-0.292
G1 X-82.745 Y23.725
G3 X-82.877 Y23.267 I0.097 J-0.276
X-77.926 Y25. Z-8.1 I2.172 J1.733 F333.3
X-81.075 I-1.574
X-77.925 I1.575 F1000.
X-86.075 I-4.075
X-77.925 I4.075
X-77.929 Y25.065 Z-8.096 I-0.585
X-77.939 Y25.129 Z-8.085 I-0.581 J-0.065
X-77.957 Y25.19 Z-8.067 I-0.571 J-0.129
X-77.979 Y25.246 Z-8.042 I-0.553 J-0.19
X-78.006 Y25.297 Z-8.01 I-0.531 J-0.246
X-78.035 Y25.342 Z-7.972 I-0.504 J-0.297
X-78.065 Y25.38 Z-7.929 I-0.475 J-0.342
X-78.095 Y25.412 Z-7.88 I-0.445 J-0.38
X-78.122 Y25.438 Z-7.826 I-0.415 J-0.412
X-78.147 Y25.459 Z-7.769 I-0.388 J-0.438
X-78.167 Y25.474 Z-7.708 I-0.363 J-0.459
X-78.182 Y25.484 Z-7.645 I-0.343 J-0.474
X-78.191 Y25.49 Z-7.58 I-0.328 J-0.484
G1 X-78.194 Y25.492 Z-7.515
G0 Z5.
X-29.918 Y22.5
Z-0.5
G1 Z-2.417 F1000.
X-29.915 Y22.498 Z-2.484 F333.3
G3 X-29.905 Y22.494 Z-2.55 I1.21 J2.502
X-29.888 Y22.485 Z-2.614 I1.2 J2.506
X-29.864 Y22.475 Z-2.675 I1.183 J2.515
X-29.834 Y22.461 Z-2.733 I1.159 J2.525
X-29.798 Y22.445 Z-2.787 I1.129 J2.539
X-29.757 Y22.428 Z-2.836 I1.093 J2.555
X-29.71 Y22.409 Z-2.88 I1.052 J2.572
X-29.659 Y22.39 Z-2.918 I1.005 J2.591
X-29.603 Y22.37 Z-2.949 I0.953 J2.61
X-29.544 Y22.351 Z-2.973 I0.898 J2.63
X-29.482 Y22.332 Z-2.99 I0.839 J2.649
X-29.419 Y22.314 Z-3. I0.777 J2.668
X-27.992 Y27.686 Z-3.764 I0.713 J2.686
X-29.419 Y22.314 Z-4.527 I-0.713 J-2.686
X-27.992 Y27.686 Z-5.291 I0.713 J2.686
X-29.419 Y22.314 Z-6.055 I-0.713 J-2.686
X-25.926 Y25. Z-6.5 I0.713 J2.686
X-29.075 I-1.574
X-25.925 I1.575 F1000.
X-34.075 I-4.075
X-25.925 I4.075
X-26.081 Y25.259 I-0.293
G1 X-29.97 Y27.312
G3 X-30.272 Y27.295 I-0.137 J-0.259
X-27.138 Y22.705 Z-7.264 I1.567 J-2.295 F333.3
X-25.926 Y25. Z-7.5 I-1.567 J2.295
X-29.075 I-1.574
X-25.925 I1.575 F1000.
X-34.075 I-4.075
X-25.925 I4.075
X-26.314 Y25.276 I-0.293
G1 X-30.745 Y23.725
G3 X-30.877 Y23.267 I0.097 J-0.276
X-25.926 Y25. Z-8.1 I2.172 J1.733 F333.3
X-29.075 I-1.574
X-25.925 I1.575 F1000.
X-34.075 I-4.075
X-25.925 I4.075
X-25.929 Y25.065 Z-8.096 I-0.585
X-25.939 Y25.129 Z-8.085 I-0.581 J-0.065
X-25.957 Y25.19 Z-8.067 I-0.571 J-0.129
X-25.979 Y25.246 Z-8.042 I-0.553 J-0.19
X-26.006 Y25.297 Z-8.01 I-0.531 J-0.246
X-26.035 Y25.342 Z-7.972 I-0.504 J-0.297
X-26.065 Y25.38 Z-7.929 I-0.475 J-0.342
X-26.095 Y25.412 Z-7.88 I-0.445 J-0.38
X-26.122 Y25.438 Z-7.826 I-0.415 J-0.412
X-26.147 Y25.459 Z-7.769 I-0.388 J-0.438
X-26.167 Y25.474 Z-7.708 I-0.363 J-0.459
X-26.182 Y25.484 Z-7.645 I-0.343 J-0.474
X-26.191 Y25.49 Z-7.58 I-0.328 J-0.484
G1 X-26.194 Y25.492 Z-7.515
G0 Z5.
X-134.918 Y22.5
Z-0.5
G1 Z-2.417 F1000.
X-134.915 Y22.498 Z-2.484 F333.3
G3 X-134.905 Y22.494 Z-2.55 I1.21 J2.502
X-134.888 Y22.485 Z-2.614 I1.2 J2.506
X-134.864 Y22.475 Z-2.675 I1.183 J2.515
X-134.834 Y22.461 Z-2.733 I1.159 J2.525
X-134.798 Y22.445 Z-2.787 I1.129 J2.539
X-134.757 Y22.428 Z-2.836 I1.093 J2.555
X-134.71 Y22.409 Z-2.88 I1.052 J2.572
X-134.659 Y22.39 Z-2.918 I1.005 J2.591
X-134.603 Y22.37 Z-2.949 I0.953 J2.61
X-134.544 Y22.351 Z-2.973 I0.898 J2.63
X-134.482 Y22.332 Z-2.99 I0.839 J2.649
X-134.419 Y22.314 Z-3. I0.777 J2.668
X-132.992 Y27.686 Z-3.764 I0.713 J2.686
X-134.419 Y22.314 Z-4.528 I-0.713 J-2.686
X-132.992 Y27.686 Z-5.291 I0.713 J2.686
X-134.419 Y22.314 Z-6.055 I-0.713 J-2.686
X-130.926 Y25. Z-6.5 I0.713 J2.686
X-134.075 I-1.574
X-130.925 I1.575 F1000.
X-139.075 I-4.075
X-130.925 I4.075
X-131.081 Y25.259 I-0.292
G1 X-134.97 Y27.312
G3 X-135.272 Y27.295 I-0.137 J-0.259
X-132.138 Y22.705 Z-7.264 I1.567 J-2.295 F333.3
X-130.926 Y25. Z-7.5 I-1.567 J2.295
X-134.075 I-1.574
X-130.925 I1.575 F1000.
X-139.075 I-4.075
X-130.925 I4.075
X-131.314 Y25.276 I-0.292
G1 X-135.745 Y23.725
G3 X-135.877 Y23.267 I0.097 J-0.276
X-135.372 Y22.777 Z-7.562 I2.172 J1.733 F333.3
X-130.926 Y25. Z-8.1 I1.667 J2.223
X-134.075 I-1.574
X-130.925 I1.575 F1000.
X-139.075 I-4.075
X-130.925 I4.075
X-130.929 Y25.065 Z-8.096 I-0.585
X-130.939 Y25.129 Z-8.085 I-0.581 J-0.065
X-130.957 Y25.19 Z-8.067 I-0.571 J-0.129
X-130.979 Y25.246 Z-8.042 I-0.553 J-0.19
X-131.006 Y25.297 Z-8.01 I-0.531 J-0.246
X-131.035 Y25.342 Z-7.972 I-0.504 J-0.297
X-131.065 Y25.38 Z-7.929 I-0.475 J-0.342
X-131.095 Y25.412 Z-7.88 I-0.445 J-0.38
X-131.122 Y25.438 Z-7.826 I-0.415 J-0.412
X-131.147 Y25.459 Z-7.769 I-0.388 J-0.438
X-131.167 Y25.474 Z-7.708 I-0.363 J-0.459
X-131.182 Y25.484 Z-7.645 I-0.343 J-0.474
X-131.191 Y25.49 Z-7.58 I-0.328 J-0.484
G1 X-131.194 Y25.492 Z-7.515
G0 Z15.
G91
G28 Z0.
M5
G28 X0. Y0.
M30
%
