%
O00001004
(T3  D=5.85 CR=0. - ZMIN=-8.1 - FLAT END MILL)
G90 G94 G17
G21
G91
G28 Z0.
G90
(2D POCKET1 (3))
T3 M6
S5000 M3
G54
G0 X-130.917 Y50.5
G43 Z15. H3
G0 Z5.
G1 Z3.083 F1000.
X-130.914 Y50.498 Z3.016 F333.3
G3 X-130.903 Y50.494 Z2.95 I1.21 J2.502
X-130.886 Y50.485 Z2.886 I1.2 J2.506
X-130.863 Y50.475 Z2.825 I1.183 J2.515
X-130.833 Y50.461 Z2.767 I1.159 J2.525
X-130.797 Y50.445 Z2.713 I1.129 J2.539
X-130.755 Y50.428 Z2.664 I1.093 J2.555
X-130.709 Y50.409 Z2.62 I1.052 J2.572
X-130.657 Y50.39 Z2.582 I1.005 J2.591
X-130.602 Y50.37 Z2.551 I0.953 J2.61
X-130.543 Y50.351 Z2.527 I0.898 J2.63
X-130.481 Y50.332 Z2.51 I0.839 J2.649
X-130.417 Y50.314 Z2.5 I0.777 J2.668
X-128.99 Y55.686 Z1.736 I0.713 J2.686
X-130.417 Y50.314 Z0.973 I-0.713 J-2.686
X-128.99 Y55.686 Z0.209 I0.713 J2.686
X-130.417 Y50.314 Z-0.555 I-0.713 J-2.686
X-126.925 Y53. Z-1. I0.713 J2.686
X-127.075 I-0.075 F1000.
X-121.925 I2.575
X-132.075 I-5.075
X-116.925 I7.575
X-137.075 I-10.075
X-116.925 I10.075
X-119.704 Y55.779 Z-1.159 I-2.779 F333.3
G1 X-129.704 Z-1.523
G3 Y50.221 Z-1.841 J-2.779
X-126.925 Y53. Z-2. J2.779
G1 Z5. F1000.
Z-2.
G3 X-127.075 I-0.075
X-121.925 I2.575
X-132.075 I-5.075
X-116.925 I7.575
X-137.075 I-10.075
X-116.925 I10.075
X-119.704 Y55.779 Z-2.159 I-2.779 F333.3
G1 X-129.704 Z-2.523
G3 Y50.221 Z-2.841 J-2.779
X-126.925 Y53. Z-3. J2.779
X-127.075 I-0.075 F1000.
X-121.925 I2.575
X-132.075 I-5.075
X-116.925 I7.575
X-137.075 I-10.075
X-116.925 I10.075
X-119.704 Y55.779 Z-3.159 I-2.779 F333.3
G1 X-129.704 Z-3.523
G3 Y50.221 Z-3.841 J-2.779
X-126.925 Y53. Z-4. J2.779
X-127.075 I-0.075 F1000.
X-121.925 I2.575
X-132.075 I-5.075
X-116.925 I7.575
X-137.075 I-10.075
X-116.925 I10.075
X-119.704 Y55.779 Z-4.159 I-2.779 F333.3
G1 X-129.704 Z-4.523
G3 Y50.221 Z-4.841 J-2.779
X-126.925 Y53. Z-5. J2.779
X-127.075 I-0.075 F1000.
X-121.925 I2.575
X-132.075 I-5.075
X-116.925 I7.575
X-137.075 I-10.075
X-116.925 I10.075
X-119.704 Y55.779 Z-5.159 I-2.779 F333.3
G1 X-129.704 Z-5.523
G3 Y50.221 Z-5.841 J-2.779
X-126.925 Y53. Z-6. J2.779
X-127.075 I-0.075 F1000.
X-121.925 I2.575
X-132.075 I-5.075
X-116.925 I7.575
X-137.075 I-10.075
X-116.925 I10.075
X-119.704 Y55.779 Z-6.159 I-2.779 F333.3
G1 X-129.704 Z-6.523
G3 Y50.221 Z-6.841 J-2.779
X-126.925 Y53. Z-7. J2.779
X-127.075 I-0.075 F1000.
X-121.925 I2.575
X-132.075 I-5.075
X-116.925 I7.575
X-137.075 I-10.075
X-116.925 I10.075
X-119.704 Y55.779 Z-7.087 I-2.779 F333.3
G1 X-129.704 Z-7.288
G3 Y50.221 Z-7.463 J-2.779
X-126.925 Y53. Z-7.55 J2.779
X-127.075 I-0.075 F1000.
X-121.925 I2.575
X-132.075 I-5.075
X-116.925 I7.575
X-137.075 I-10.075
X-116.925 I10.075
X-119.704 Y55.779 Z-7.637 I-2.779 F333.3
G1 X-129.704 Z-7.838
G3 Y50.221 Z-8.013 J-2.779
X-126.925 Y53. Z-8.1 J2.779
X-127.075 I-0.075 F1000.
X-121.925 I2.575
X-132.075 I-5.075
X-116.925 I7.575
X-137.075 I-10.075
X-116.925 I10.075
X-116.929 Y53.065 Z-8.096 I-0.585
X-116.939 Y53.129 Z-8.085 I-0.581 J-0.065
X-116.957 Y53.19 Z-8.067 I-0.571 J-0.129
X-116.979 Y53.246 Z-8.042 I-0.553 J-0.19
X-117.006 Y53.297 Z-8.01 I-0.531 J-0.246
X-117.035 Y53.342 Z-7.972 I-0.504 J-0.297
X-117.065 Y53.38 Z-7.929 I-0.475 J-0.342
X-117.095 Y53.412 Z-7.88 I-0.445 J-0.38
X-117.122 Y53.438 Z-7.826 I-0.415 J-0.412
X-117.147 Y53.459 Z-7.769 I-0.388 J-0.438
X-117.167 Y53.474 Z-7.708 I-0.363 J-0.459
X-117.182 Y53.484 Z-7.645 I-0.343 J-0.474
X-117.191 Y53.49 Z-7.58 I-0.328 J-0.484
G1 X-117.194 Y53.492 Z-7.515
G0 Z15.
G91
G28 Z0.
M5
G28 X0. Y0.
M30
%
