%
O00001005
(T3  D=5.85 CR=0. - ZMIN=-8. - FLAT END MILL)
G90 G94 G17
G21
G91
G28 Z0.
G90
(2D CONTOUR1)
T3 M6
S5000 M3
G54
G0 X-126.68 Y25.585
G43 Z15. H3
G0 Z5.
G1 Z1. F1000.
Z-4.415 F333.3
G18 G2 X-126.095 Z-5. I0.585
G1 X-125.51 F1000.
G17 G2 X-124.925 Y25. J-0.585
X-145.075 I-10.075
X-124.925 I10.075
X-125.51 Y24.415 I-0.585
G1 X-126.095
G18 G3 X-126.68 Z-4.415 K0.585
G0 Z5.
X-26.68 Y25.585
G1 Z1. F1000.
Z-4.415 F333.3
G2 X-26.095 Z-5. I0.585
G1 X-25.51 F1000.
G17 G2 X-24.925 Y25. J-0.585
X-35.075 I-5.075
X-24.925 I5.075
X-25.51 Y24.415 I-0.585
G1 X-26.095
G18 G3 X-26.68 Z-4.415 K0.585
G0 Z15.
X-78.68 Y25.585
Z5.
G1 Z1. F1000.
Z-4.915 F333.3
G2 X-78.095 Z-5.5 I0.585
G1 X-77.51 F1000.
G17 G2 X-76.925 Y25. J-0.585
X-87.075 I-5.075
X-76.925 I5.075
X-77.51 Y24.415 I-0.585
G1 X-78.095
G18 G3 X-78.68 Z-4.915 K0.585
G0 Z15.
X-118.68 Y53.585
Z5.
G1 Z1. F1000.
Z-7.415 F333.3
G2 X-118.095 Z-8. I0.585
G1 X-117.51 F1000.
G17 G2 X-116.925 Y53. J-0.585
X-137.075 I-10.075
X-116.925 I10.075
X-117.51 Y52.415 I-0.585
G1 X-118.095
G18 G3 X-118.68 Z-7.415 K0.585
G0 Z15.
G17
G91
G28 Z0.
M5
G0
G28 X0. Y0.
M30
%
