%
O00001006
(T3  D=5.85 CR=0. - ZMIN=-8. - FLAT END MILL)
G90 G94 G17
G21
G91
G28 Z0.
G90
(2D CONTOUR2)
T3 M6
S5000 M3
G54
G0 X-57.826 Y2.805
G43 Z15. H3
G0 Z5.
G1 Z2. F1000.
Z-0.415 F333.3
X-57.832 Y2.809 Z-0.507
X-57.849 Y2.821 Z-0.596
X-57.878 Y2.841 Z-0.681
X-57.917 Y2.869 Z-0.759
X-57.966 Y2.903 Z-0.829
X-58.024 Y2.943 Z-0.888
X-58.088 Y2.987 Z-0.936
X-58.157 Y3.036 Z-0.971
X-58.231 Y3.087 Z-0.993
X-58.306 Y3.139 Z-1.
X-58.786 Y3.474 F1000.
G3 X-59.6 Y3.328 I-0.334 J-0.48
G2 X-62. Y2.075 I-2.4 J1.672
G1 X-152.
G2 X-154.925 Y5. J2.925
G1 Y70.
G2 X-152. Y72.925 I2.925
G1 X-107.
G2 X-104.075 Y70. J-2.925
G1 Y64.925
X-62.
G2 X-59.075 Y62. J-2.925
G1 Y5.
G2 X-59.6 Y3.328 I-2.925
G3 X-59.454 Y2.514 I0.48 J-0.334
G1 X-58.974 Y2.179
X-58.899 Y2.127 Z-0.993
X-58.826 Y2.076 Z-0.971
X-58.757 Y2.027 Z-0.936
X-58.692 Y1.983 Z-0.888
X-58.635 Y1.943 Z-0.829
X-58.586 Y1.909 Z-0.759
X-58.547 Y1.881 Z-0.681
X-58.518 Y1.861 Z-0.596
X-58.5 Y1.849 Z-0.507
X-58.494 Y1.845 Z-0.415
G0 Z5.
X-58.996 Y64.506
G1 Z2. F1000.
Z-0.415 F333.3
X-58.99 Y64.502 Z-0.507
X-58.973 Y64.488 Z-0.596
X-58.946 Y64.466 Z-0.681
X-58.909 Y64.435 Z-0.759
X-58.863 Y64.398 Z-0.829
X-58.809 Y64.354 Z-0.888
X-58.748 Y64.304 Z-0.936
X-58.682 Y64.25 Z-0.971
X-58.613 Y64.194 Z-0.993
X-58.542 Y64.136 Z-1.
X-58.089 Y63.766 F1000.
G3 X-57.266 Y63.85 I0.37 J0.453
G2 X-55. Y64.925 I2.266 J-1.85
G1 X-5.
G2 X-2.075 Y62. J-2.925
G1 Y5.
G2 X-5. Y2.075 I-2.925
G1 X-55.
G2 X-57.925 Y5. J2.925
G1 Y62.
G2 X-57.266 Y63.85 I2.925
G3 X-57.349 Y64.673 I-0.453 J0.37
G1 X-57.803 Y65.043
X-57.873 Y65.1 Z-0.993
X-57.943 Y65.157 Z-0.971
X-58.008 Y65.211 Z-0.936
X-58.069 Y65.26 Z-0.888
X-58.123 Y65.304 Z-0.829
X-58.169 Y65.342 Z-0.759
X-58.206 Y65.372 Z-0.681
X-58.234 Y65.394 Z-0.596
X-58.25 Y65.408 Z-0.507
X-58.256 Y65.412 Z-0.415
G0 Z5.
X-58.996 Y64.506
G1 Z1. F1000.
Z-1.415 F333.3
X-58.99 Y64.502 Z-1.507
X-58.973 Y64.488 Z-1.596
X-58.946 Y64.466 Z-1.681
X-58.909 Y64.435 Z-1.759
X-58.863 Y64.398 Z-1.829
X-58.809 Y64.354 Z-1.888
X-58.748 Y64.304 Z-1.936
X-58.682 Y64.25 Z-1.971
X-58.613 Y64.194 Z-1.993
X-58.542 Y64.136 Z-2.
X-58.089 Y63.766 F1000.
G3 X-57.266 Y63.85 I0.37 J0.453
G2 X-55. Y64.925 I2.266 J-1.85
G1 X-5.
G2 X-2.075 Y62. J-2.925
G1 Y5.
G2 X-5. Y2.075 I-2.925
G1 X-55.
G2 X-57.925 Y5. J2.925
G1 Y62.
G2 X-57.266 Y63.85 I2.925
G3 X-57.349 Y64.673 I-0.453 J0.37
G1 X-57.803 Y65.043
X-57.873 Y65.1 Z-1.993
X-57.943 Y65.157 Z-1.971
X-58.008 Y65.211 Z-1.936
X-58.069 Y65.26 Z-1.888
X-58.123 Y65.304 Z-1.829
X-58.169 Y65.342 Z-1.759
X-58.206 Y65.372 Z-1.681
X-58.234 Y65.394 Z-1.596
X-58.25 Y65.408 Z-1.507
X-58.256 Y65.412 Z-1.415
G0 Z5.
X-57.826 Y2.805
G1 Z1. F1000.
Z-1.415 F333.3
X-57.832 Y2.809 Z-1.507
X-57.849 Y2.821 Z-1.596
X-57.878 Y2.841 Z-1.681
X-57.917 Y2.869 Z-1.759
X-57.966 Y2.903 Z-1.829
X-58.024 Y2.943 Z-1.888
X-58.088 Y2.987 Z-1.936
X-58.157 Y3.036 Z-1.971
X-58.231 Y3.087 Z-1.993
X-58.306 Y3.139 Z-2.
X-58.786 Y3.474 F1000.
G3 X-59.6 Y3.328 I-0.334 J-0.48
G2 X-62. Y2.075 I-2.4 J1.672
G1 X-152.
G2 X-154.925 Y5. J2.925
G1 Y70.
G2 X-152. Y72.925 I2.925
G1 X-107.
G2 X-104.075 Y70. J-2.925
G1 Y64.925
X-62.
G2 X-59.075 Y62. J-2.925
G1 Y5.
G2 X-59.6 Y3.328 I-2.925
G3 X-59.454 Y2.514 I0.48 J-0.334
G1 X-58.974 Y2.179
X-58.899 Y2.127 Z-1.993
X-58.826 Y2.076 Z-1.971
X-58.757 Y2.027 Z-1.936
X-58.692 Y1.983 Z-1.888
X-58.635 Y1.943 Z-1.829
X-58.586 Y1.909 Z-1.759
X-58.547 Y1.881 Z-1.681
X-58.518 Y1.861 Z-1.596
X-58.5 Y1.849 Z-1.507
X-58.494 Y1.845 Z-1.415
G0 Z5.
X-58.996 Y64.506
G1 Z0. F1000.
Z-2.415 F333.3
X-58.99 Y64.502 Z-2.507
X-58.973 Y64.488 Z-2.596
X-58.946 Y64.466 Z-2.681
X-58.909 Y64.435 Z-2.759
X-58.863 Y64.398 Z-2.829
X-58.809 Y64.354 Z-2.888
X-58.748 Y64.304 Z-2.936
X-58.682 Y64.25 Z-2.971
X-58.613 Y64.194 Z-2.993
X-58.542 Y64.136 Z-3.
X-58.089 Y63.766 F1000.
G3 X-57.266 Y63.85 I0.37 J0.453
G2 X-55. Y64.925 I2.266 J-1.85
G1 X-5.
G2 X-2.075 Y62. J-2.925
G1 Y5.
G2 X-5. Y2.075 I-2.925
G1 X-55.
G2 X-57.925 Y5. J2.925
G1 Y62.
G2 X-57.266 Y63.85 I2.925
G3 X-57.349 Y64.673 I-0.453 J0.37
G1 X-57.803 Y65.043
X-57.873 Y65.1 Z-2.993
X-57.943 Y65.157 Z-2.971
X-58.008 Y65.211 Z-2.936
X-58.069 Y65.26 Z-2.888
X-58.123 Y65.304 Z-2.829
X-58.169 Y65.342 Z-2.759
X-58.206 Y65.372 Z-2.681
X-58.234 Y65.394 Z-2.596
X-58.25 Y65.408 Z-2.507
X-58.256 Y65.412 Z-2.415
G0 Z5.
X-57.826 Y2.805
G1 Z0. F1000.
Z-2.415 F333.3
X-57.832 Y2.809 Z-2.507
X-57.849 Y2.821 Z-2.596
X-57.878 Y2.841 Z-2.681
X-57.917 Y2.869 Z-2.759
X-57.966 Y2.903 Z-2.829
X-58.024 Y2.943 Z-2.888
X-58.088 Y2.987 Z-2.936
X-58.157 Y3.036 Z-2.971
X-58.231 Y3.087 Z-2.993
X-58.306 Y3.139 Z-3.
X-58.786 Y3.474 F1000.
G3 X-59.6 Y3.328 I-0.334 J-0.48
G2 X-62. Y2.075 I-2.4 J1.672
G1 X-152.
G2 X-154.925 Y5. J2.925
G1 Y70.
G2 X-152. Y72.925 I2.925
G1 X-107.
G2 X-104.075 Y70. J-2.925
G1 Y64.925
X-62.
G2 X-59.075 Y62. J-2.925
G1 Y5.
G2 X-59.6 Y3.328 I-2.925
G3 X-59.454 Y2.514 I0.48 J-0.334
G1 X-58.974 Y2.179
X-58.899 Y2.127 Z-2.993
X-58.826 Y2.076 Z-2.971
X-58.757 Y2.027 Z-2.936
X-58.692 Y1.983 Z-2.888
X-58.635 Y1.943 Z-2.829
X-58.586 Y1.909 Z-2.759
X-58.547 Y1.881 Z-2.681
X-58.518 Y1.861 Z-2.596
X-58.5 Y1.849 Z-2.507
X-58.494 Y1.845 Z-2.415
G0 Z5.
X-58.996 Y64.506
G1 Z-1. F1000.
Z-3.415 F333.3
X-58.99 Y64.502 Z-3.507
X-58.973 Y64.488 Z-3.596
X-58.946 Y64.466 Z-3.681
X-58.909 Y64.435 Z-3.759
X-58.863 Y64.398 Z-3.829
X-58.809 Y64.354 Z-3.888
X-58.748 Y64.304 Z-3.936
X-58.682 Y64.25 Z-3.971
X-58.613 Y64.194 Z-3.993
X-58.542 Y64.136 Z-4.
X-58.089 Y63.766 F1000.
G3 X-57.266 Y63.85 I0.37 J0.453
G2 X-55. Y64.925 I2.266 J-1.85
G1 X-5.
G2 X-2.075 Y62. J-2.925
G1 Y5.
G2 X-5. Y2.075 I-2.925
G1 X-55.
G2 X-57.925 Y5. J2.925
G1 Y62.
G2 X-57.266 Y63.85 I2.925
G3 X-57.349 Y64.673 I-0.453 J0.37
G1 X-57.803 Y65.043
X-57.873 Y65.1 Z-3.993
X-57.943 Y65.157 Z-3.971
X-58.008 Y65.211 Z-3.936
X-58.069 Y65.26 Z-3.888
X-58.123 Y65.304 Z-3.829
X-58.169 Y65.342 Z-3.759
X-58.206 Y65.372 Z-3.681
X-58.234 Y65.394 Z-3.596
X-58.25 Y65.408 Z-3.507
X-58.256 Y65.412 Z-3.415
G0 Z5.
X-57.826 Y2.805
G1 Z-1. F1000.
Z-3.415 F333.3
X-57.832 Y2.809 Z-3.507
X-57.849 Y2.821 Z-3.596
X-57.878 Y2.841 Z-3.681
X-57.917 Y2.869 Z-3.759
X-57.966 Y2.903 Z-3.829
X-58.024 Y2.943 Z-3.888
X-58.088 Y2.987 Z-3.936
X-58.157 Y3.036 Z-3.971
X-58.231 Y3.087 Z-3.993
X-58.306 Y3.139 Z-4.
X-58.786 Y3.474 F1000.
G3 X-59.6 Y3.328 I-0.334 J-0.48
G2 X-62. Y2.075 I-2.4 J1.672
G1 X-152.
G2 X-154.925 Y5. J2.925
G1 Y70.
G2 X-152. Y72.925 I2.925
G1 X-107.
G2 X-104.075 Y70. J-2.925
G1 Y64.925
X-62.
G2 X-59.075 Y62. J-2.925
G1 Y5.
G2 X-59.6 Y3.328 I-2.925
G3 X-59.454 Y2.514 I0.48 J-0.334
G1 X-58.974 Y2.179
X-58.899 Y2.127 Z-3.993
X-58.826 Y2.076 Z-3.971
X-58.757 Y2.027 Z-3.936
X-58.692 Y1.983 Z-3.888
X-58.635 Y1.943 Z-3.829
X-58.586 Y1.909 Z-3.759
X-58.547 Y1.881 Z-3.681
X-58.518 Y1.861 Z-3.596
X-58.5 Y1.849 Z-3.507
X-58.494 Y1.845 Z-3.415
G0 Z5.
X-58.996 Y64.506
G1 Z-2. F1000.
Z-4.415 F333.3
X-58.99 Y64.502 Z-4.507
X-58.973 Y64.488 Z-4.596
X-58.946 Y64.466 Z-4.681
X-58.909 Y64.435 Z-4.759
X-58.863 Y64.398 Z-4.829
X-58.809 Y64.354 Z-4.888
X-58.748 Y64.304 Z-4.936
X-58.682 Y64.25 Z-4.971
X-58.613 Y64.194 Z-4.993
X-58.542 Y64.136 Z-5.
X-58.089 Y63.766 F1000.
G3 X-57.266 Y63.85 I0.37 J0.453
G2 X-55. Y64.925 I2.266 J-1.85
G1 X-5.
G2 X-2.075 Y62. J-2.925
G1 Y5.
G2 X-5. Y2.075 I-2.925
G1 X-55.
G2 X-57.925 Y5. J2.925
G1 Y62.
G2 X-57.266 Y63.85 I2.925
G3 X-57.349 Y64.673 I-0.453 J0.37
G1 X-57.803 Y65.043
X-57.873 Y65.1 Z-4.993
X-57.943 Y65.157 Z-4.971
X-58.008 Y65.211 Z-4.936
X-58.069 Y65.26 Z-4.888
X-58.123 Y65.304 Z-4.829
X-58.169 Y65.342 Z-4.759
X-58.206 Y65.372 Z-4.681
X-58.234 Y65.394 Z-4.596
X-58.25 Y65.408 Z-4.507
X-58.256 Y65.412 Z-4.415
G0 Z5.
X-57.826 Y2.805
G1 Z-2. F1000.
Z-4.415 F333.3
X-57.832 Y2.809 Z-4.507
X-57.849 Y2.821 Z-4.596
X-57.878 Y2.841 Z-4.681
X-57.917 Y2.869 Z-4.759
X-57.966 Y2.903 Z-4.829
X-58.024 Y2.943 Z-4.888
X-58.088 Y2.987 Z-4.936
X-58.157 Y3.036 Z-4.971
X-58.231 Y3.087 Z-4.993
X-58.306 Y3.139 Z-5.
X-58.786 Y3.474 F1000.
G3 X-59.6 Y3.328 I-0.334 J-0.48
G2 X-62. Y2.075 I-2.4 J1.672
G1 X-152.
G2 X-154.925 Y5. J2.925
G1 Y70.
G2 X-152. Y72.925 I2.925
G1 X-107.
G2 X-104.075 Y70. J-2.925
G1 Y64.925
X-62.
G2 X-59.075 Y62. J-2.925
G1 Y5.
G2 X-59.6 Y3.328 I-2.925
G3 X-59.454 Y2.514 I0.48 J-0.334
G1 X-58.974 Y2.179
X-58.899 Y2.127 Z-4.993
X-58.826 Y2.076 Z-4.971
X-58.757 Y2.027 Z-4.936
X-58.692 Y1.983 Z-4.888
X-58.635 Y1.943 Z-4.829
X-58.586 Y1.909 Z-4.759
X-58.547 Y1.881 Z-4.681
X-58.518 Y1.861 Z-4.596
X-58.5 Y1.849 Z-4.507
X-58.494 Y1.845 Z-4.415
G0 Z5.
X-58.996 Y64.506
G1 Z-3. F1000.
Z-5.415 F333.3
X-58.99 Y64.502 Z-5.507
X-58.973 Y64.488 Z-5.596
X-58.946 Y64.466 Z-5.681
X-58.909 Y64.435 Z-5.759
X-58.863 Y64.398 Z-5.829
X-58.809 Y64.354 Z-5.888
X-58.748 Y64.304 Z-5.936
X-58.682 Y64.25 Z-5.971
X-58.613 Y64.194 Z-5.993
X-58.542 Y64.136 Z-6.
X-58.089 Y63.766 F1000.
G3 X-57.266 Y63.85 I0.37 J0.453
G2 X-55. Y64.925 I2.266 J-1.85
G1 X-5.
G2 X-2.075 Y62. J-2.925
G1 Y5.
G2 X-5. Y2.075 I-2.925
G1 X-55.
G2 X-57.925 Y5. J2.925
G1 Y62.
G2 X-57.266 Y63.85 I2.925
G3 X-57.349 Y64.673 I-0.453 J0.37
G1 X-57.803 Y65.043
X-57.873 Y65.1 Z-5.993
X-57.943 Y65.157 Z-5.971
X-58.008 Y65.211 Z-5.936
X-58.069 Y65.26 Z-5.888
X-58.123 Y65.304 Z-5.829
X-58.169 Y65.342 Z-5.759
X-58.206 Y65.372 Z-5.681
X-58.234 Y65.394 Z-5.596
X-58.25 Y65.408 Z-5.507
X-58.256 Y65.412 Z-5.415
G0 Z5.
X-57.826 Y2.805
G1 Z-3. F1000.
Z-5.415 F333.3
X-57.832 Y2.809 Z-5.507
X-57.849 Y2.821 Z-5.596
X-57.878 Y2.841 Z-5.681
X-57.917 Y2.869 Z-5.759
X-57.966 Y2.903 Z-5.829
X-58.024 Y2.943 Z-5.888
X-58.088 Y2.987 Z-5.936
X-58.157 Y3.036 Z-5.971
X-58.231 Y3.087 Z-5.993
X-58.306 Y3.139 Z-6.
X-58.786 Y3.474 F1000.
G3 X-59.6 Y3.328 I-0.334 J-0.48
G2 X-62. Y2.075 I-2.4 J1.672
G1 X-152.
G2 X-154.925 Y5. J2.925
G1 Y70.
G2 X-152. Y72.925 I2.925
G1 X-107.
G2 X-104.075 Y70. J-2.925
G1 Y64.925
X-62.
G2 X-59.075 Y62. J-2.925
G1 Y5.
G2 X-59.6 Y3.328 I-2.925
G3 X-59.454 Y2.514 I0.48 J-0.334
G1 X-58.974 Y2.179
X-58.899 Y2.127 Z-5.993
X-58.826 Y2.076 Z-5.971
X-58.757 Y2.027 Z-5.936
X-58.692 Y1.983 Z-5.888
X-58.635 Y1.943 Z-5.829
X-58.586 Y1.909 Z-5.759
X-58.547 Y1.881 Z-5.681
X-58.518 Y1.861 Z-5.596
X-58.5 Y1.849 Z-5.507
X-58.494 Y1.845 Z-5.415
G0 Z5.
X-58.996 Y64.506
G1 Z-4. F1000.
Z-6.415 F333.3
X-58.99 Y64.502 Z-6.507
X-58.973 Y64.488 Z-6.596
X-58.946 Y64.466 Z-6.681
X-58.909 Y64.435 Z-6.759
X-58.863 Y64.398 Z-6.829
X-58.809 Y64.354 Z-6.888
X-58.748 Y64.304 Z-6.936
X-58.682 Y64.25 Z-6.971
X-58.613 Y64.194 Z-6.993
X-58.542 Y64.136 Z-7.
X-58.089 Y63.766 F1000.
G3 X-57.266 Y63.85 I0.37 J0.453
G2 X-55. Y64.925 I2.266 J-1.85
G1 X-5.
G2 X-2.075 Y62. J-2.925
G1 Y5.
G2 X-5. Y2.075 I-2.925
G1 X-55.
G2 X-57.925 Y5. J2.925
G1 Y62.
G2 X-57.266 Y63.85 I2.925
G3 X-57.349 Y64.673 I-0.453 J0.37
G1 X-57.803 Y65.043
X-57.873 Y65.1 Z-6.993
X-57.943 Y65.157 Z-6.971
X-58.008 Y65.211 Z-6.936
X-58.069 Y65.26 Z-6.888
X-58.123 Y65.304 Z-6.829
X-58.169 Y65.342 Z-6.759
X-58.206 Y65.372 Z-6.681
X-58.234 Y65.394 Z-6.596
X-58.25 Y65.408 Z-6.507
X-58.256 Y65.412 Z-6.415
G0 Z5.
X-57.826 Y2.805
G1 Z-4. F1000.
Z-6.415 F333.3
X-57.832 Y2.809 Z-6.507
X-57.849 Y2.821 Z-6.596
X-57.878 Y2.841 Z-6.681
X-57.917 Y2.869 Z-6.759
X-57.966 Y2.903 Z-6.829
X-58.024 Y2.943 Z-6.888
X-58.088 Y2.987 Z-6.936
X-58.157 Y3.036 Z-6.971
X-58.231 Y3.087 Z-6.993
X-58.306 Y3.139 Z-7.
X-58.786 Y3.474 F1000.
G3 X-59.6 Y3.328 I-0.334 J-0.48
G2 X-62. Y2.075 I-2.4 J1.672
G1 X-152.
G2 X-154.925 Y5. J2.925
G1 Y70.
G2 X-152. Y72.925 I2.925
G1 X-107.
G2 X-104.075 Y70. J-2.925
G1 Y64.925
X-62.
G2 X-59.075 Y62. J-2.925
G1 Y5.
G2 X-59.6 Y3.328 I-2.925
G3 X-59.454 Y2.514 I0.48 J-0.334
G1 X-58.974 Y2.179
X-58.899 Y2.127 Z-6.993
X-58.826 Y2.076 Z-6.971
X-58.757 Y2.027 Z-6.936
X-58.692 Y1.983 Z-6.888
X-58.635 Y1.943 Z-6.829
X-58.586 Y1.909 Z-6.759
X-58.547 Y1.881 Z-6.681
X-58.518 Y1.861 Z-6.596
X-58.5 Y1.849 Z-6.507
X-58.494 Y1.845 Z-6.415
G0 Z5.
X-58.996 Y64.506
G1 Z-5. F1000.
Z-7.415 F333.3
X-58.99 Y64.502 Z-7.507
X-58.973 Y64.488 Z-7.596
X-58.946 Y64.466 Z-7.681
X-58.909 Y64.435 Z-7.759
X-58.863 Y64.398 Z-7.829
X-58.809 Y64.354 Z-7.888
X-58.748 Y64.304 Z-7.936
X-58.682 Y64.25 Z-7.971
X-58.613 Y64.194 Z-7.993
X-58.542 Y64.136 Z-8.
X-58.089 Y63.766 F1000.
G3 X-57.266 Y63.85 I0.37 J0.453
G2 X-55. Y64.925 I2.266 J-1.85
G1 X-5.
G2 X-2.075 Y62. J-2.925
G1 Y5.
G2 X-5. Y2.075 I-2.925
G1 X-55.
G2 X-57.925 Y5. J2.925
G1 Y62.
G2 X-57.266 Y63.85 I2.925
G3 X-57.349 Y64.673 I-0.453 J0.37
G1 X-57.803 Y65.043
X-57.873 Y65.1 Z-7.993
X-57.943 Y65.157 Z-7.971
X-58.008 Y65.211 Z-7.936
X-58.069 Y65.26 Z-7.888
X-58.123 Y65.304 Z-7.829
X-58.169 Y65.342 Z-7.759
X-58.206 Y65.372 Z-7.681
X-58.234 Y65.394 Z-7.596
X-58.25 Y65.408 Z-7.507
X-58.256 Y65.412 Z-7.415
G0 Z5.
X-57.826 Y2.805
G1 Z-5. F1000.
Z-7.415 F333.3
X-57.832 Y2.809 Z-7.507
X-57.849 Y2.821 Z-7.596
X-57.878 Y2.841 Z-7.681
X-57.917 Y2.869 Z-7.759
X-57.966 Y2.903 Z-7.829
X-58.024 Y2.943 Z-7.888
X-58.088 Y2.987 Z-7.936
X-58.157 Y3.036 Z-7.971
X-58.231 Y3.087 Z-7.993
X-58.306 Y3.139 Z-8.
X-58.786 Y3.474 F1000.
G3 X-59.6 Y3.328 I-0.334 J-0.48
G2 X-62. Y2.075 I-2.4 J1.672
G1 X-152.
G2 X-154.925 Y5. J2.925
G1 Y70.
G2 X-152. Y72.925 I2.925
G1 X-107.
G2 X-104.075 Y70. J-2.925
G1 Y64.925
X-62.
G2 X-59.075 Y62. J-2.925
G1 Y5.
G2 X-59.6 Y3.328 I-2.925
G3 X-59.454 Y2.514 I0.48 J-0.334
G1 X-58.974 Y2.179
X-58.899 Y2.127 Z-7.993
X-58.826 Y2.076 Z-7.971
X-58.757 Y2.027 Z-7.936
X-58.692 Y1.983 Z-7.888
X-58.635 Y1.943 Z-7.829
X-58.586 Y1.909 Z-7.759
X-58.547 Y1.881 Z-7.681
X-58.518 Y1.861 Z-7.596
X-58.5 Y1.849 Z-7.507
X-58.494 Y1.845 Z-7.415
G0 Z15.
G91
G28 Z0.
M5
G28 X0. Y0.
M30
%
