%
O00001007
(T3  D=5.85 CR=0. - ZMIN=-0.1 - FLAT END MILL)
G90 G94 G17
G21
G91
G28 Z0.
G90
(2D CONTOUR3)
T3 M6
S5000 M3
G54
G0 X-6.18 Y4.694
G43 Z15. H3
G0 Z5.
G1 Z1. F1000.
Z0.485 F333.3
G18 G2 X-5.595 Z-0.1 I0.585
G1 X-5.01 F1000.
G17 G3 X-4.425 Y5.279 J0.585
G1 Y6.075
X-152.575
Y4.483
X-4.425
Y5.279
G3 X-5.01 Y5.864 I-0.585
G1 X-5.595
G18 G3 X-6.18 Z0.485 K0.585
G0 Z15.
G17
G91
G28 Z0.
M5
G0
G28 X0. Y0.
M30
%
