%
O00001030
(T2  D=3. CR=0. TAPER=118DEG - ZMIN=-4.001 - DRILL)
G90 G94 G17
G21
G91
G28 Z0.
G90
(DRILL1)
T2 M6
S5000 M3
G54
G0 X-52. Y0.
G43 Z20. H2
G0 Z10.
G98 G81 X-52. Y0. Z-4.001 R10. F80.
X18. Y-45.
X28. Y-35.
X38. Y-45.
X28. Y-55.
X15. Y-80.
X35.
Y-100.
X40. Y-108.
Y-120.
X25. Y-114.
X10. Y-120.
Y-108.
X15. Y-100.
X-9.5 Y-167.5
Y-157.5
X40.5
Y-167.5
G80
Z20.
G91
G28 Z0.
M5
G28 X0. Y0.
M30
%
