%
O00001031
(T3  D=5.85 CR=0. - ZMIN=-8.1 - FLAT END MILL)
G90 G94 G17
G21
G91
G28 Z0.
G90
(2D POCKET1)
T3 M6
S5000 M3
G54
G0 X2.02 Y-50.882
G43 Z15. H3
G0 Z5.
G1 Z3.085 F1000.
X2.017 Y-50.885 Z3.017 F333.3
G3 X2.008 Y-50.893 Z2.95 I1.802 J-2.115
X1.993 Y-50.905 Z2.885 I1.811 J-2.107
X1.973 Y-50.923 Z2.822 I1.826 J-2.095
X1.947 Y-50.946 Z2.764 I1.846 J-2.077
X1.918 Y-50.973 Z2.709 I1.871 J-2.054
X1.884 Y-51.006 Z2.659 I1.901 J-2.027
X1.847 Y-51.042 Z2.616 I1.935 J-1.994
X1.807 Y-51.083 Z2.578 I1.972 J-1.958
X1.766 Y-51.128 Z2.548 I2.012 J-1.917
X1.723 Y-51.175 Z2.525 I2.053 J-1.872
X1.68 Y-51.226 Z2.509 I2.096 J-1.825
X5.957 Y-54.774 Z0.97 I2.139 J-1.774
X1.68 Y-51.226 Z-0.57 I-2.139 J1.774
X1.042 Y-52.898 Z-0.891 I2.139 J-1.774
X1.04 Y-52.949 Z-0.898 I2.777 J-0.102
Y-53. Z-0.9 I2.778 J-0.051
X4.517 I1.739 F1000.
X-4.517 I-4.517
X10.075 I7.296
X-10.075 I-10.075
X10.075 I10.075
X9.904 Y-52.734 I-0.292
G1 X4.681 Y-50.361
G3 X4.648 Y-50.348 I-0.121 J-0.266
X4.599 Y-50.333 Z-0.902 I-0.829 J-2.652 F333.3
X4.55 Y-50.319 Z-0.909 I-0.78 J-2.667
X1.042 Y-52.898 Z-1.791 I-0.731 J-2.681
X1.04 Y-52.949 Z-1.798 I2.777 J-0.102
Y-53. Z-1.8 I2.778 J-0.051
X4.517 I1.739 F1000.
X-4.517 I-4.517
X10.075 I7.296
X-10.075 I-10.075
X10.075 I10.075
X9.904 Y-52.734 I-0.292
G1 X4.681 Y-50.361
G3 X4.648 Y-50.348 I-0.121 J-0.266
X4.599 Y-50.333 Z-1.802 I-0.829 J-2.652 F333.3
X4.55 Y-50.319 Z-1.809 I-0.78 J-2.667
X1.042 Y-52.898 Z-2.691 I-0.731 J-2.681
X1.04 Y-52.949 Z-2.698 I2.777 J-0.102
Y-53. Z-2.7 I2.778 J-0.051
X4.517 I1.739 F1000.
X-4.517 I-4.517
X10.075 I7.296
X-10.075 I-10.075
X10.075 I10.075
X9.904 Y-52.734 I-0.292
G1 X4.681 Y-50.361
G3 X4.648 Y-50.348 I-0.121 J-0.266
X4.599 Y-50.333 Z-2.702 I-0.829 J-2.652 F333.3
X4.55 Y-50.319 Z-2.709 I-0.78 J-2.667
X1.042 Y-52.898 Z-3.591 I-0.731 J-2.681
X1.04 Y-52.949 Z-3.598 I2.777 J-0.102
Y-53. Z-3.6 I2.778 J-0.051
X4.517 I1.739 F1000.
X-4.517 I-4.517
X10.075 I7.296
X-10.075 I-10.075
X10.075 I10.075
X9.904 Y-52.734 I-0.292
G1 X4.681 Y-50.361
G3 X4.648 Y-50.348 I-0.121 J-0.266
X4.599 Y-50.333 Z-3.602 I-0.829 J-2.652 F333.3
X4.55 Y-50.319 Z-3.609 I-0.78 J-2.667
X1.042 Y-52.898 Z-4.491 I-0.731 J-2.681
X1.04 Y-52.949 Z-4.498 I2.777 J-0.102
Y-53. Z-4.5 I2.778 J-0.051
X4.517 I1.739 F1000.
X-4.517 I-4.517
X10.075 I7.296
X-10.075 I-10.075
X10.075 I10.075
X9.904 Y-52.734 I-0.292
G1 X4.681 Y-50.361
G3 X4.648 Y-50.348 I-0.121 J-0.266
X4.599 Y-50.333 Z-4.502 I-0.829 J-2.652 F333.3
X4.55 Y-50.319 Z-4.509 I-0.78 J-2.667
X1.042 Y-52.898 Z-5.391 I-0.731 J-2.681
X1.04 Y-52.949 Z-5.398 I2.777 J-0.102
Y-53. Z-5.4 I2.778 J-0.051
X4.517 I1.739 F1000.
X-4.517 I-4.517
X10.075 I7.296
X-10.075 I-10.075
X10.075 I10.075
X9.904 Y-52.734 I-0.292
G1 X4.681 Y-50.361
G3 X4.648 Y-50.348 I-0.121 J-0.266
X4.599 Y-50.333 Z-5.402 I-0.829 J-2.652 F333.3
X4.55 Y-50.319 Z-5.409 I-0.78 J-2.667
X1.042 Y-52.898 Z-6.291 I-0.731 J-2.681
X1.04 Y-52.949 Z-6.298 I2.777 J-0.102
Y-53. Z-6.3 I2.778 J-0.051
X4.517 I1.739 F1000.
X-4.517 I-4.517
X10.075 I7.296
X-10.075 I-10.075
X10.075 I10.075
X9.904 Y-52.734 I-0.292
G1 X4.681 Y-50.361
G3 X4.648 Y-50.348 I-0.121 J-0.266
X4.599 Y-50.333 Z-6.302 I-0.829 J-2.652 F333.3
X4.55 Y-50.319 Z-6.309 I-0.78 J-2.667
X1.042 Y-52.898 Z-7.191 I-0.731 J-2.681
X1.04 Y-52.949 Z-7.198 I2.777 J-0.102
Y-53. Z-7.2 I2.778 J-0.051
X4.517 I1.739 F1000.
X-4.517 I-4.517
X10.075 I7.296
X-10.075 I-10.075
X10.075 I10.075
X9.904 Y-52.734 I-0.292
G1 X4.681 Y-50.361
G3 X4.648 Y-50.348 I-0.121 J-0.266
X4.599 Y-50.333 Z-7.202 I-0.829 J-2.652 F333.3
X4.55 Y-50.319 Z-7.209 I-0.78 J-2.667
X1.042 Y-52.898 Z-8.091 I-0.731 J-2.681
X1.04 Y-52.949 Z-8.098 I2.777 J-0.102
Y-53. Z-8.1 I2.778 J-0.051
X4.517 I1.739 F1000.
X-4.517 I-4.517
X10.075 I7.296
X-10.075 I-10.075
X10.075 I10.075
X10.071 Y-52.935 Z-8.096 I-0.585
X10.061 Y-52.871 Z-8.085 I-0.581 J-0.065
X10.043 Y-52.81 Z-8.067 I-0.571 J-0.129
X10.021 Y-52.754 Z-8.042 I-0.553 J-0.19
X9.994 Y-52.703 Z-8.01 I-0.531 J-0.246
X9.965 Y-52.658 Z-7.972 I-0.504 J-0.297
X9.935 Y-52.62 Z-7.929 I-0.475 J-0.342
X9.905 Y-52.588 Z-7.88 I-0.445 J-0.38
X9.878 Y-52.562 Z-7.826 I-0.415 J-0.412
X9.853 Y-52.541 Z-7.769 I-0.388 J-0.438
X9.833 Y-52.526 Z-7.708 I-0.363 J-0.459
X9.818 Y-52.516 Z-7.645 I-0.343 J-0.474
X9.809 Y-52.51 Z-7.58 I-0.328 J-0.484
G1 X9.806 Y-52.508 Z-7.515
G0 Z5.
X31.089 Y-47.118
G1 Z3.085 F1000.
X31.092 Y-47.115 Z3.017 F333.3
G3 X31.101 Y-47.107 Z2.95 I-1.802 J2.115
X31.116 Y-47.095 Z2.885 I-1.811 J2.107
X31.136 Y-47.077 Z2.822 I-1.826 J2.095
X31.161 Y-47.054 Z2.764 I-1.846 J2.077
X31.191 Y-47.027 Z2.709 I-1.871 J2.054
X31.225 Y-46.994 Z2.659 I-1.901 J2.027
X31.262 Y-46.958 Z2.616 I-1.935 J1.994
X31.302 Y-46.917 Z2.578 I-1.972 J1.958
X31.343 Y-46.872 Z2.548 I-2.012 J1.917
X31.386 Y-46.825 Z2.525 I-2.053 J1.872
X31.429 Y-46.774 Z2.509 I-2.096 J1.825
X27.152 Y-43.226 Z0.97 I-2.139 J1.774
X31.429 Y-46.774 Z-0.57 I2.139 J-1.774
X32.067 Y-45.102 Z-0.891 I-2.139 J1.774
X32.068 Y-45.051 Z-0.898 I-2.777 J0.102
X32.069 Y-45. Z-0.9 I-2.778 J0.051
X29.483 I-1.293
X32.075 I1.296 F1000.
X23.925 I-4.075
X32.075 I4.075
X31.609 Y-44.764 I-0.293
G1 X28.375 Y-47.137
G3 X28.461 Y-47.652 I0.173 J-0.236
X28.51 Y-47.667 Z-0.902 I0.829 J2.652 F333.3
X28.559 Y-47.681 Z-0.909 I0.78 J2.667
X32.067 Y-45.102 Z-1.791 I0.731 J2.681
X32.068 Y-45.051 Z-1.798 I-2.777 J0.102
X32.069 Y-45. Z-1.8 I-2.778 J0.051
X29.483 I-1.293
X32.075 I1.296 F1000.
X23.925 I-4.075
X32.075 I4.075
X31.609 Y-44.764 I-0.293
G1 X28.375 Y-47.137
G3 X28.461 Y-47.652 I0.173 J-0.236
X28.51 Y-47.667 Z-1.802 I0.829 J2.652 F333.3
X28.559 Y-47.681 Z-1.809 I0.78 J2.667
X32.067 Y-45.102 Z-2.691 I0.731 J2.681
X32.068 Y-45.051 Z-2.698 I-2.777 J0.102
X32.069 Y-45. Z-2.7 I-2.778 J0.051
X29.483 I-1.293
X32.075 I1.296 F1000.
X23.925 I-4.075
X32.075 I4.075
X31.609 Y-44.764 I-0.293
G1 X28.375 Y-47.137
G3 X28.461 Y-47.652 I0.173 J-0.236
X28.51 Y-47.667 Z-2.702 I0.829 J2.652 F333.3
X28.559 Y-47.681 Z-2.709 I0.78 J2.667
X32.067 Y-45.102 Z-3.591 I0.731 J2.681
X32.068 Y-45.051 Z-3.598 I-2.777 J0.102
X32.069 Y-45. Z-3.6 I-2.778 J0.051
X29.483 I-1.293
X32.075 I1.296 F1000.
X23.925 I-4.075
X32.075 I4.075
X31.609 Y-44.764 I-0.293
G1 X28.375 Y-47.137
G3 X28.461 Y-47.652 I0.173 J-0.236
X28.51 Y-47.667 Z-3.602 I0.829 J2.652 F333.3
X28.559 Y-47.681 Z-3.609 I0.78 J2.667
X32.067 Y-45.102 Z-4.491 I0.731 J2.681
X32.068 Y-45.051 Z-4.498 I-2.777 J0.102
X32.069 Y-45. Z-4.5 I-2.778 J0.051
X29.483 I-1.293
X32.075 I1.296 F1000.
X23.925 I-4.075
X32.075 I4.075
X31.609 Y-44.764 I-0.293
G1 X28.375 Y-47.137
G3 X28.461 Y-47.652 I0.173 J-0.236
X28.51 Y-47.667 Z-4.502 I0.829 J2.652 F333.3
X28.559 Y-47.681 Z-4.509 I0.78 J2.667
X32.067 Y-45.102 Z-5.391 I0.731 J2.681
X32.068 Y-45.051 Z-5.398 I-2.777 J0.102
X32.069 Y-45. Z-5.4 I-2.778 J0.051
X29.483 I-1.293
X32.075 I1.296 F1000.
X23.925 I-4.075
X32.075 I4.075
X31.609 Y-44.764 I-0.293
G1 X28.375 Y-47.137
G3 X28.461 Y-47.652 I0.173 J-0.236
X28.51 Y-47.667 Z-5.402 I0.829 J2.652 F333.3
X28.559 Y-47.681 Z-5.409 I0.78 J2.667
X32.067 Y-45.102 Z-6.291 I0.731 J2.681
X32.068 Y-45.051 Z-6.298 I-2.777 J0.102
X32.069 Y-45. Z-6.3 I-2.778 J0.051
X29.483 I-1.293
X32.075 I1.296 F1000.
X23.925 I-4.075
X32.075 I4.075
X31.609 Y-44.764 I-0.293
G1 X28.375 Y-47.137
G3 X28.461 Y-47.652 I0.173 J-0.236
X28.51 Y-47.667 Z-6.302 I0.829 J2.652 F333.3
X28.559 Y-47.681 Z-6.309 I0.78 J2.667
X32.067 Y-45.102 Z-7.191 I0.731 J2.681
X32.068 Y-45.051 Z-7.198 I-2.777 J0.102
X32.069 Y-45. Z-7.2 I-2.778 J0.051
X29.483 I-1.293
X32.075 I1.296 F1000.
X23.925 I-4.075
X32.075 I4.075
X31.609 Y-44.764 I-0.293
G1 X28.375 Y-47.137
G3 X28.461 Y-47.652 I0.173 J-0.236
X28.51 Y-47.667 Z-7.202 I0.829 J2.652 F333.3
X28.559 Y-47.681 Z-7.209 I0.78 J2.667
X32.067 Y-45.102 Z-8.091 I0.731 J2.681
X32.068 Y-45.051 Z-8.098 I-2.777 J0.102
X32.069 Y-45. Z-8.1 I-2.778 J0.051
X29.483 I-1.293
X32.075 I1.296 F1000.
X23.925 I-4.075
X32.075 I4.075
X32.071 Y-44.935 Z-8.096 I-0.585
X32.061 Y-44.871 Z-8.085 I-0.581 J-0.065
X32.043 Y-44.81 Z-8.067 I-0.571 J-0.129
X32.021 Y-44.754 Z-8.042 I-0.553 J-0.19
X31.994 Y-44.703 Z-8.01 I-0.531 J-0.246
X31.965 Y-44.658 Z-7.972 I-0.504 J-0.297
X31.935 Y-44.62 Z-7.929 I-0.475 J-0.342
X31.905 Y-44.588 Z-7.88 I-0.445 J-0.38
X31.878 Y-44.562 Z-7.826 I-0.415 J-0.412
X31.853 Y-44.541 Z-7.769 I-0.388 J-0.438
X31.833 Y-44.526 Z-7.708 I-0.363 J-0.459
X31.818 Y-44.516 Z-7.645 I-0.343 J-0.474
X31.809 Y-44.51 Z-7.58 I-0.328 J-0.484
G1 X31.806 Y-44.508 Z-7.515
G0 Z5.
X3.089 Y-2.118
G1 Z3.085 F1000.
X3.092 Y-2.115 Z3.017 F333.3
G3 X3.101 Y-2.107 Z2.95 I-1.802 J2.115
X3.116 Y-2.095 Z2.885 I-1.811 J2.107
X3.136 Y-2.077 Z2.822 I-1.826 J2.095
X3.161 Y-2.054 Z2.764 I-1.846 J2.077
X3.191 Y-2.027 Z2.709 I-1.871 J2.054
X3.225 Y-1.994 Z2.659 I-1.901 J2.027
X3.262 Y-1.958 Z2.616 I-1.935 J1.994
X3.302 Y-1.917 Z2.578 I-1.972 J1.958
X3.343 Y-1.872 Z2.548 I-2.012 J1.917
X3.386 Y-1.825 Z2.525 I-2.053 J1.872
X3.429 Y-1.774 Z2.509 I-2.096 J1.825
X-0.848 Y1.774 Z0.97 I-2.139 J1.774
X3.429 Y-1.774 Z-0.57 I2.139 J-1.774
X4.067 Y-0.102 Z-0.891 I-2.139 J1.774
X4.068 Y-0.051 Z-0.898 I-2.777 J0.102
X4.069 Y0. Z-0.9 I-2.778 J0.051
X1.482 I-1.293
X4.075 I1.296 F1000.
X-4.075 I-4.075
X4.075 I4.075
X3.609 Y0.236 I-0.292
G1 X0.375 Y-2.137
G3 X0.461 Y-2.652 I0.173 J-0.236
X0.51 Y-2.667 Z-0.902 I0.829 J2.652 F333.3
X0.559 Y-2.681 Z-0.909 I0.78 J2.667
X4.067 Y-0.102 Z-1.791 I0.731 J2.681
X4.068 Y-0.051 Z-1.798 I-2.777 J0.102
X4.069 Y0. Z-1.8 I-2.778 J0.051
X1.482 I-1.293
X4.075 I1.296 F1000.
X-4.075 I-4.075
X4.075 I4.075
X3.609 Y0.236 I-0.292
G1 X0.375 Y-2.137
G3 X0.461 Y-2.652 I0.173 J-0.236
X0.51 Y-2.667 Z-1.802 I0.829 J2.652 F333.3
X0.559 Y-2.681 Z-1.809 I0.78 J2.667
X4.067 Y-0.102 Z-2.691 I0.731 J2.681
X4.068 Y-0.051 Z-2.698 I-2.777 J0.102
X4.069 Y0. Z-2.7 I-2.778 J0.051
X1.482 I-1.293
X4.075 I1.296 F1000.
X-4.075 I-4.075
X4.075 I4.075
X3.609 Y0.236 I-0.292
G1 X0.375 Y-2.137
G3 X0.461 Y-2.652 I0.173 J-0.236
X0.51 Y-2.667 Z-2.702 I0.829 J2.652 F333.3
X0.559 Y-2.681 Z-2.709 I0.78 J2.667
X4.067 Y-0.102 Z-3.591 I0.731 J2.681
X4.068 Y-0.051 Z-3.598 I-2.777 J0.102
X4.069 Y0. Z-3.6 I-2.778 J0.051
X1.482 I-1.293
X4.075 I1.296 F1000.
X-4.075 I-4.075
X4.075 I4.075
X3.609 Y0.236 I-0.292
G1 X0.375 Y-2.137
G3 X0.461 Y-2.652 I0.173 J-0.236
X0.51 Y-2.667 Z-3.602 I0.829 J2.652 F333.3
X0.559 Y-2.681 Z-3.609 I0.78 J2.667
X4.067 Y-0.102 Z-4.491 I0.731 J2.681
X4.068 Y-0.051 Z-4.498 I-2.777 J0.102
X4.069 Y0. Z-4.5 I-2.778 J0.051
X1.482 I-1.293
X4.075 I1.296 F1000.
X-4.075 I-4.075
X4.075 I4.075
X3.609 Y0.236 I-0.292
G1 X0.375 Y-2.137
G3 X0.461 Y-2.652 I0.173 J-0.236
X0.51 Y-2.667 Z-4.502 I0.829 J2.652 F333.3
X0.559 Y-2.681 Z-4.509 I0.78 J2.667
X4.067 Y-0.102 Z-5.391 I0.731 J2.681
X4.068 Y-0.051 Z-5.398 I-2.777 J0.102
X4.069 Y0. Z-5.4 I-2.778 J0.051
X1.482 I-1.293
X4.075 I1.296 F1000.
X-4.075 I-4.075
X4.075 I4.075
X3.609 Y0.236 I-0.292
G1 X0.375 Y-2.137
G3 X0.461 Y-2.652 I0.173 J-0.236
X0.51 Y-2.667 Z-5.402 I0.829 J2.652 F333.3
X0.559 Y-2.681 Z-5.409 I0.78 J2.667
X4.067 Y-0.102 Z-6.291 I0.731 J2.681
X4.068 Y-0.051 Z-6.298 I-2.777 J0.102
X4.069 Y0. Z-6.3 I-2.778 J0.051
X1.482 I-1.293
X4.075 I1.296 F1000.
X-4.075 I-4.075
X4.075 I4.075
X3.609 Y0.236 I-0.292
G1 X0.375 Y-2.137
G3 X0.461 Y-2.652 I0.173 J-0.236
X0.51 Y-2.667 Z-6.302 I0.829 J2.652 F333.3
X0.559 Y-2.681 Z-6.309 I0.78 J2.667
X4.067 Y-0.102 Z-7.191 I0.731 J2.681
X4.068 Y-0.051 Z-7.198 I-2.777 J0.102
X4.069 Y0. Z-7.2 I-2.778 J0.051
X1.482 I-1.293
X4.075 I1.296 F1000.
X-4.075 I-4.075
X4.075 I4.075
X3.609 Y0.236 I-0.292
G1 X0.375 Y-2.137
G3 X0.461 Y-2.652 I0.173 J-0.236
X0.51 Y-2.667 Z-7.202 I0.829 J2.652 F333.3
X0.559 Y-2.681 Z-7.209 I0.78 J2.667
X4.067 Y-0.102 Z-8.091 I0.731 J2.681
X4.068 Y-0.051 Z-8.098 I-2.777 J0.102
X4.069 Y0. Z-8.1 I-2.778 J0.051
X1.482 I-1.293
X4.075 I1.296 F1000.
X-4.075 I-4.075
X4.075 I4.075
X4.071 Y0.065 Z-8.096 I-0.585
X4.061 Y0.129 Z-8.085 I-0.581 J-0.065
X4.043 Y0.19 Z-8.067 I-0.571 J-0.129
X4.021 Y0.246 Z-8.042 I-0.553 J-0.19
X3.994 Y0.297 Z-8.01 I-0.531 J-0.246
X3.965 Y0.342 Z-7.972 I-0.504 J-0.297
X3.935 Y0.38 Z-7.929 I-0.475 J-0.342
X3.905 Y0.412 Z-7.88 I-0.445 J-0.38
X3.878 Y0.438 Z-7.826 I-0.415 J-0.412
X3.853 Y0.459 Z-7.769 I-0.388 J-0.438
X3.833 Y0.474 Z-7.708 I-0.363 J-0.459
X3.818 Y0.484 Z-7.645 I-0.343 J-0.474
X3.809 Y0.49 Z-7.58 I-0.328 J-0.484
G1 X3.806 Y0.492 Z-7.515
G0 Z5.
X-48.911 Y-2.118
G1 Z3.085 F1000.
X-48.908 Y-2.115 Z3.017 F333.3
G3 X-48.899 Y-2.107 Z2.95 I-1.802 J2.115
X-48.884 Y-2.095 Z2.885 I-1.811 J2.107
X-48.864 Y-2.077 Z2.822 I-1.826 J2.095
X-48.839 Y-2.054 Z2.764 I-1.846 J2.077
X-48.809 Y-2.027 Z2.709 I-1.871 J2.054
X-48.775 Y-1.994 Z2.659 I-1.901 J2.027
X-48.738 Y-1.958 Z2.616 I-1.935 J1.994
X-48.698 Y-1.917 Z2.578 I-1.972 J1.958
X-48.657 Y-1.872 Z2.548 I-2.012 J1.917
X-48.614 Y-1.825 Z2.525 I-2.053 J1.872
X-48.571 Y-1.774 Z2.509 I-2.096 J1.825
X-52.848 Y1.774 Z0.97 I-2.139 J1.774
X-48.571 Y-1.774 Z-0.57 I2.139 J-1.774
X-47.933 Y-0.102 Z-0.891 I-2.139 J1.774
X-47.932 Y-0.051 Z-0.898 I-2.777 J0.102
X-47.931 Y0. Z-0.9 I-2.778 J0.051
X-50.518 I-1.293
X-47.925 I1.296 F1000.
X-56.075 I-4.075
X-47.925 I4.075
X-48.391 Y0.236 I-0.292
G1 X-51.625 Y-2.137
G3 X-51.539 Y-2.652 I0.173 J-0.236
X-51.49 Y-2.667 Z-0.902 I0.829 J2.652 F333.3
X-51.441 Y-2.681 Z-0.909 I0.78 J2.667
X-47.933 Y-0.102 Z-1.791 I0.731 J2.681
X-47.932 Y-0.051 Z-1.798 I-2.777 J0.102
X-47.931 Y0. Z-1.8 I-2.778 J0.051
X-50.518 I-1.293
X-47.925 I1.296 F1000.
X-56.075 I-4.075
X-47.925 I4.075
X-48.391 Y0.236 I-0.292
G1 X-51.625 Y-2.137
G3 X-51.539 Y-2.652 I0.173 J-0.236
X-51.49 Y-2.667 Z-1.802 I0.829 J2.652 F333.3
X-51.441 Y-2.681 Z-1.809 I0.78 J2.667
X-47.933 Y-0.102 Z-2.691 I0.731 J2.681
X-47.932 Y-0.051 Z-2.698 I-2.777 J0.102
X-47.931 Y0. Z-2.7 I-2.778 J0.051
X-50.518 I-1.293
X-47.925 I1.296 F1000.
X-56.075 I-4.075
X-47.925 I4.075
X-48.391 Y0.236 I-0.292
G1 X-51.625 Y-2.137
G3 X-51.539 Y-2.652 I0.173 J-0.236
X-51.49 Y-2.667 Z-2.702 I0.829 J2.652 F333.3
X-51.441 Y-2.681 Z-2.709 I0.78 J2.667
X-47.933 Y-0.102 Z-3.591 I0.731 J2.681
X-47.932 Y-0.051 Z-3.598 I-2.777 J0.102
X-47.931 Y0. Z-3.6 I-2.778 J0.051
X-50.518 I-1.293
X-47.925 I1.296 F1000.
X-56.075 I-4.075
X-47.925 I4.075
X-48.391 Y0.236 I-0.292
G1 X-51.625 Y-2.137
G3 X-51.539 Y-2.652 I0.173 J-0.236
X-51.49 Y-2.667 Z-3.602 I0.829 J2.652 F333.3
X-51.441 Y-2.681 Z-3.609 I0.78 J2.667
X-47.933 Y-0.102 Z-4.491 I0.731 J2.681
X-47.932 Y-0.051 Z-4.498 I-2.777 J0.102
X-47.931 Y0. Z-4.5 I-2.778 J0.051
X-50.518 I-1.293
X-47.925 I1.296 F1000.
X-56.075 I-4.075
X-47.925 I4.075
X-48.391 Y0.236 I-0.292
G1 X-51.625 Y-2.137
G3 X-51.539 Y-2.652 I0.173 J-0.236
X-51.49 Y-2.667 Z-4.502 I0.829 J2.652 F333.3
X-51.441 Y-2.681 Z-4.509 I0.78 J2.667
X-47.933 Y-0.102 Z-5.391 I0.731 J2.681
X-47.932 Y-0.051 Z-5.398 I-2.777 J0.102
X-47.931 Y0. Z-5.4 I-2.778 J0.051
X-50.518 I-1.293
X-47.925 I1.296 F1000.
X-56.075 I-4.075
X-47.925 I4.075
X-48.391 Y0.236 I-0.292
G1 X-51.625 Y-2.137
G3 X-51.539 Y-2.652 I0.173 J-0.236
X-51.49 Y-2.667 Z-5.402 I0.829 J2.652 F333.3
X-51.441 Y-2.681 Z-5.409 I0.78 J2.667
X-47.933 Y-0.102 Z-6.291 I0.731 J2.681
X-47.932 Y-0.051 Z-6.298 I-2.777 J0.102
X-47.931 Y0. Z-6.3 I-2.778 J0.051
X-50.518 I-1.293
X-47.925 I1.296 F1000.
X-56.075 I-4.075
X-47.925 I4.075
X-48.391 Y0.236 I-0.292
G1 X-51.625 Y-2.137
G3 X-51.539 Y-2.652 I0.173 J-0.236
X-51.49 Y-2.667 Z-6.302 I0.829 J2.652 F333.3
X-51.441 Y-2.681 Z-6.309 I0.78 J2.667
X-47.933 Y-0.102 Z-7.191 I0.731 J2.681
X-47.932 Y-0.051 Z-7.198 I-2.777 J0.102
X-47.931 Y0. Z-7.2 I-2.778 J0.051
X-50.518 I-1.293
X-47.925 I1.296 F1000.
X-56.075 I-4.075
X-47.925 I4.075
X-48.391 Y0.236 I-0.292
G1 X-51.625 Y-2.137
G3 X-51.539 Y-2.652 I0.173 J-0.236
X-51.49 Y-2.667 Z-7.202 I0.829 J2.652 F333.3
X-51.441 Y-2.681 Z-7.209 I0.78 J2.667
X-47.933 Y-0.102 Z-8.091 I0.731 J2.681
X-47.932 Y-0.051 Z-8.098 I-2.777 J0.102
X-47.931 Y0. Z-8.1 I-2.778 J0.051
X-50.518 I-1.293
X-47.925 I1.296 F1000.
X-56.075 I-4.075
X-47.925 I4.075
X-47.929 Y0.065 Z-8.096 I-0.585
X-47.939 Y0.129 Z-8.085 I-0.581 J-0.065
X-47.957 Y0.19 Z-8.067 I-0.571 J-0.129
X-47.979 Y0.246 Z-8.042 I-0.553 J-0.19
X-48.006 Y0.297 Z-8.01 I-0.531 J-0.246
X-48.035 Y0.342 Z-7.972 I-0.504 J-0.297
X-48.065 Y0.38 Z-7.929 I-0.475 J-0.342
X-48.095 Y0.412 Z-7.88 I-0.445 J-0.38
X-48.122 Y0.438 Z-7.826 I-0.415 J-0.412
X-48.147 Y0.459 Z-7.769 I-0.388 J-0.438
X-48.167 Y0.474 Z-7.708 I-0.363 J-0.459
X-48.182 Y0.484 Z-7.645 I-0.343 J-0.474
X-48.191 Y0.49 Z-7.58 I-0.328 J-0.484
G1 X-48.194 Y0.492 Z-7.515
G0 Z5.
X28.089 Y-116.118
G1 Z3.085 F1000.
X28.092 Y-116.115 Z3.017 F333.3
G3 X28.101 Y-116.107 Z2.95 I-1.802 J2.115
X28.116 Y-116.095 Z2.885 I-1.811 J2.107
X28.136 Y-116.077 Z2.822 I-1.826 J2.095
X28.161 Y-116.054 Z2.764 I-1.846 J2.077
X28.191 Y-116.027 Z2.709 I-1.871 J2.054
X28.225 Y-115.994 Z2.659 I-1.901 J2.027
X28.262 Y-115.958 Z2.616 I-1.935 J1.994
X28.302 Y-115.917 Z2.578 I-1.972 J1.958
X28.343 Y-115.872 Z2.548 I-2.012 J1.917
X28.386 Y-115.825 Z2.525 I-2.053 J1.872
X28.429 Y-115.774 Z2.509 I-2.096 J1.825
X24.152 Y-112.226 Z0.97 I-2.139 J1.774
X28.429 Y-115.774 Z-0.57 I2.139 J-1.774
X29.067 Y-114.102 Z-0.891 I-2.139 J1.774
X29.068 Y-114.051 Z-0.898 I-2.777 J0.102
X29.069 Y-114. Z-0.9 I-2.778 J0.051
X26.483 I-1.293
X29.075 I1.296 F1000.
X20.925 I-4.075
X29.075 I4.075
X28.609 Y-113.764 I-0.293
G1 X25.375 Y-116.137
G3 X25.461 Y-116.652 I0.173 J-0.236
X25.51 Y-116.667 Z-0.902 I0.829 J2.652 F333.3
X25.559 Y-116.681 Z-0.909 I0.78 J2.667
X29.067 Y-114.102 Z-1.791 I0.731 J2.681
X29.068 Y-114.051 Z-1.798 I-2.777 J0.102
X29.069 Y-114. Z-1.8 I-2.778 J0.051
X26.483 I-1.293
X29.075 I1.296 F1000.
X20.925 I-4.075
X29.075 I4.075
X28.609 Y-113.764 I-0.293
G1 X25.375 Y-116.137
G3 X25.461 Y-116.652 I0.173 J-0.236
X25.51 Y-116.667 Z-1.802 I0.829 J2.652 F333.3
X25.559 Y-116.681 Z-1.809 I0.78 J2.667
X29.067 Y-114.102 Z-2.691 I0.731 J2.681
X29.068 Y-114.051 Z-2.698 I-2.777 J0.102
X29.069 Y-114. Z-2.7 I-2.778 J0.051
X26.483 I-1.293
X29.075 I1.296 F1000.
X20.925 I-4.075
X29.075 I4.075
X28.609 Y-113.764 I-0.293
G1 X25.375 Y-116.137
G3 X25.461 Y-116.652 I0.173 J-0.236
X25.51 Y-116.667 Z-2.702 I0.829 J2.652 F333.3
X25.559 Y-116.681 Z-2.709 I0.78 J2.667
X29.067 Y-114.102 Z-3.591 I0.731 J2.681
X29.068 Y-114.051 Z-3.598 I-2.777 J0.102
X29.069 Y-114. Z-3.6 I-2.778 J0.051
X26.483 I-1.293
X29.075 I1.296 F1000.
X20.925 I-4.075
X29.075 I4.075
X28.609 Y-113.764 I-0.293
G1 X25.375 Y-116.137
G3 X25.461 Y-116.652 I0.173 J-0.236
X25.51 Y-116.667 Z-3.602 I0.829 J2.652 F333.3
X25.559 Y-116.681 Z-3.609 I0.78 J2.667
X29.067 Y-114.102 Z-4.491 I0.731 J2.681
X29.068 Y-114.051 Z-4.498 I-2.777 J0.102
X29.069 Y-114. Z-4.5 I-2.778 J0.051
X26.483 I-1.293
X29.075 I1.296 F1000.
X20.925 I-4.075
X29.075 I4.075
X28.609 Y-113.764 I-0.293
G1 X25.375 Y-116.137
G3 X25.461 Y-116.652 I0.173 J-0.236
X25.51 Y-116.667 Z-4.502 I0.829 J2.652 F333.3
X25.559 Y-116.681 Z-4.509 I0.78 J2.667
X29.067 Y-114.102 Z-5.391 I0.731 J2.681
X29.068 Y-114.051 Z-5.398 I-2.777 J0.102
X29.069 Y-114. Z-5.4 I-2.778 J0.051
X26.483 I-1.293
X29.075 I1.296 F1000.
X20.925 I-4.075
X29.075 I4.075
X28.609 Y-113.764 I-0.293
G1 X25.375 Y-116.137
G3 X25.461 Y-116.652 I0.173 J-0.236
X25.51 Y-116.667 Z-5.402 I0.829 J2.652 F333.3
X25.559 Y-116.681 Z-5.409 I0.78 J2.667
X29.067 Y-114.102 Z-6.291 I0.731 J2.681
X29.068 Y-114.051 Z-6.298 I-2.777 J0.102
X29.069 Y-114. Z-6.3 I-2.778 J0.051
X26.483 I-1.293
X29.075 I1.296 F1000.
X20.925 I-4.075
X29.075 I4.075
X28.609 Y-113.764 I-0.293
G1 X25.375 Y-116.137
G3 X25.461 Y-116.652 I0.173 J-0.236
X25.51 Y-116.667 Z-6.302 I0.829 J2.652 F333.3
X25.559 Y-116.681 Z-6.309 I0.78 J2.667
X29.067 Y-114.102 Z-7.191 I0.731 J2.681
X29.068 Y-114.051 Z-7.198 I-2.777 J0.102
X29.069 Y-114. Z-7.2 I-2.778 J0.051
X26.483 I-1.293
X29.075 I1.296 F1000.
X20.925 I-4.075
X29.075 I4.075
X28.609 Y-113.764 I-0.293
G1 X25.375 Y-116.137
G3 X25.461 Y-116.652 I0.173 J-0.236
X25.51 Y-116.667 Z-7.202 I0.829 J2.652 F333.3
X25.559 Y-116.681 Z-7.209 I0.78 J2.667
X29.067 Y-114.102 Z-8.091 I0.731 J2.681
X29.068 Y-114.051 Z-8.098 I-2.777 J0.102
X29.069 Y-114. Z-8.1 I-2.778 J0.051
X26.483 I-1.293
X29.075 I1.296 F1000.
X20.925 I-4.075
X29.075 I4.075
X29.071 Y-113.935 Z-8.096 I-0.585
X29.061 Y-113.871 Z-8.085 I-0.581 J-0.065
X29.043 Y-113.81 Z-8.067 I-0.571 J-0.129
X29.021 Y-113.754 Z-8.042 I-0.553 J-0.19
X28.994 Y-113.703 Z-8.01 I-0.531 J-0.246
X28.965 Y-113.658 Z-7.972 I-0.504 J-0.297
X28.935 Y-113.62 Z-7.929 I-0.475 J-0.342
X28.905 Y-113.588 Z-7.88 I-0.445 J-0.38
X28.878 Y-113.562 Z-7.826 I-0.415 J-0.412
X28.853 Y-113.541 Z-7.769 I-0.388 J-0.438
X28.833 Y-113.526 Z-7.708 I-0.363 J-0.459
X28.818 Y-113.516 Z-7.645 I-0.343 J-0.474
X28.809 Y-113.51 Z-7.58 I-0.328 J-0.484
G1 X28.806 Y-113.508 Z-7.515
G0 Z15.
G91
G28 Z0.
M5
G28 X0. Y0.
M30
%
