%
O00001032
(T3  D=5.85 CR=0. - ZMIN=-7. - FLAT END MILL)
G90 G94 G17
G21
G91
G28 Z0.
G90
(2D CONTOUR1)
T3 M6
S5000 M3
G54
G0 X2.735 Y0.585
G43 Z15. H3
G0 Z5.
G1 Z2. F1000.
Z-0.415 F333.3
G18 G2 X3.32 Z-1. I0.585
G1 X3.905 F1000.
G17 G2 X4.49 Y0. J-0.585
X-4.49 I-4.49
X4.49 I4.49
X3.905 Y-0.585 I-0.585
G1 X3.32
G18 G3 X2.735 Z-0.415 K0.585
G0 Z5.
Y0.585
G1 Z1. F1000.
Z-1.415 F333.3
G2 X3.32 Z-2. I0.585
G1 X3.905 F1000.
G17 G2 X4.49 Y0. J-0.585
X-4.49 I-4.49
X4.49 I4.49
X3.905 Y-0.585 I-0.585
G1 X3.32
G18 G3 X2.735 Z-1.415 K0.585
G0 Z5.
Y0.585
G1 Z0. F1000.
Z-2.415 F333.3
G2 X3.32 Z-3. I0.585
G1 X3.905 F1000.
G17 G2 X4.49 Y0. J-0.585
X-4.49 I-4.49
X4.49 I4.49
X3.905 Y-0.585 I-0.585
G1 X3.32
G18 G3 X2.735 Z-2.415 K0.585
G0 Z5.
Y0.585
G1 Z-1. F1000.
Z-3.415 F333.3
G2 X3.32 Z-4. I0.585
G1 X3.905 F1000.
G17 G2 X4.49 Y0. J-0.585
X-4.49 I-4.49
X4.49 I4.49
X3.905 Y-0.585 I-0.585
G1 X3.32
G18 G3 X2.735 Z-3.415 K0.585
G0 Z5.
X-2.735
G1 Z-2. F1000.
Z-4.415 F333.3
G3 X-3.32 Z-5. I-0.585
G1 X-3.905 F1000.
G17 G2 X-4.49 Y0. J0.585
X4.49 I4.49
X-4.49 I-4.49
X5.075 I4.782
X-5.075 I-5.075
X5.075 I5.075
X4.49 Y-0.585 I-0.585
G1 X3.905
G18 G3 X3.32 Z-4.415 K0.585
G0 Z5.
X35.735 Y-44.415
G1 Z2. F1000.
Z-0.415 F333.3
G2 X36.32 Z-1. I0.585
G1 X36.905 F1000.
G17 G2 X37.49 Y-45. J-0.585
X18.51 I-9.49
X37.49 I9.49
X36.905 Y-45.585 I-0.585
G1 X36.32
G18 G3 X35.735 Z-0.415 K0.585
G0 Z5.
Y-44.415
G1 Z1. F1000.
Z-1.415 F333.3
G2 X36.32 Z-2. I0.585
G1 X36.905 F1000.
G17 G2 X37.49 Y-45. J-0.585
X18.51 I-9.49
X37.49 I9.49
X36.905 Y-45.585 I-0.585
G1 X36.32
G18 G3 X35.735 Z-1.415 K0.585
G0 Z5.
Y-44.415
G1 Z0. F1000.
Z-2.415 F333.3
G2 X36.32 Z-3. I0.585
G1 X36.905 F1000.
G17 G2 X37.49 Y-45. J-0.585
X18.51 I-9.49
X37.49 I9.49
X36.905 Y-45.585 I-0.585
G1 X36.32
G18 G3 X35.735 Z-2.415 K0.585
G0 Z5.
Y-44.415
G1 Z-1. F1000.
Z-3.415 F333.3
G2 X36.32 Z-4. I0.585
G1 X36.905 F1000.
G17 G2 X37.49 Y-45. J-0.585
X18.51 I-9.49
X37.49 I9.49
X36.905 Y-45.585 I-0.585
G1 X36.32
G18 G3 X35.735 Z-3.415 K0.585
G0 Z5.
X20.265
G1 Z-2. F1000.
Z-4.415 F333.3
G3 X19.68 Z-5. I-0.585
G1 X19.095 F1000.
G17 G2 X18.51 Y-45. J0.585
X37.49 I9.49
X18.51 I-9.49
X38.075 I9.782
X17.925 I-10.075
X38.075 I10.075
X37.49 Y-45.585 I-0.585
G1 X36.905
G18 G3 X36.32 Z-4.415 K0.585
G0 Z5.
X-49.265 Y0.585
G1 Z2. F1000.
Z-0.415 F333.3
G2 X-48.68 Z-1. I0.585
G1 X-48.095 F1000.
G17 G2 X-47.51 Y0. J-0.585
X-56.49 I-4.49
X-47.51 I4.49
X-48.095 Y-0.585 I-0.585
G1 X-48.68
G18 G3 X-49.265 Z-0.415 K0.585
G0 Z5.
Y0.585
G1 Z1. F1000.
Z-1.415 F333.3
G2 X-48.68 Z-2. I0.585
G1 X-48.095 F1000.
G17 G2 X-47.51 Y0. J-0.585
X-56.49 I-4.49
X-47.51 I4.49
X-48.095 Y-0.585 I-0.585
G1 X-48.68
G18 G3 X-49.265 Z-1.415 K0.585
G0 Z5.
Y0.585
G1 Z0. F1000.
Z-2.415 F333.3
G2 X-48.68 Z-3. I0.585
G1 X-48.095 F1000.
G17 G2 X-47.51 Y0. J-0.585
X-56.49 I-4.49
X-47.51 I4.49
X-48.095 Y-0.585 I-0.585
G1 X-48.68
G18 G3 X-49.265 Z-2.415 K0.585
G0 Z5.
Y0.585
G1 Z-1. F1000.
Z-3.415 F333.3
G2 X-48.68 Z-4. I0.585
G1 X-48.095 F1000.
G17 G2 X-47.51 Y0. J-0.585
X-56.49 I-4.49
X-47.51 I4.49
X-48.095 Y-0.585 I-0.585
G1 X-48.68
G18 G3 X-49.265 Z-3.415 K0.585
G0 Z5.
X-54.735
G1 Z-2. F1000.
Z-4.415 F333.3
G3 X-55.32 Z-5. I-0.585
G1 X-55.905 F1000.
G17 G2 X-56.49 Y0. J0.585
X-47.51 I4.49
X-56.49 I-4.49
X-46.925 I4.783
X-57.075 I-5.075
X-46.925 I5.075
X-47.51 Y-0.585 I-0.585
G1 X-48.095
G18 G3 X-48.68 Z-4.415 K0.585
G0 Z15.
X27.735 Y-113.415
Z5.
G1 Z2. F1000.
Z-0.415 F333.3
G2 X28.32 Z-1. I0.585
G1 X28.905 F1000.
G17 G2 X29.49 Y-114. J-0.585
X20.51 I-4.49
X29.49 I4.49
X28.905 Y-114.585 I-0.585
G1 X28.32
G18 G3 X27.735 Z-0.415 K0.585
G0 Z5.
Y-113.415
G1 Z1. F1000.
Z-1.415 F333.3
G2 X28.32 Z-2. I0.585
G1 X28.905 F1000.
G17 G2 X29.49 Y-114. J-0.585
X20.51 I-4.49
X29.49 I4.49
X28.905 Y-114.585 I-0.585
G1 X28.32
G18 G3 X27.735 Z-1.415 K0.585
G0 Z5.
Y-113.415
G1 Z0. F1000.
Z-2.415 F333.3
G2 X28.32 Z-3. I0.585
G1 X28.905 F1000.
G17 G2 X29.49 Y-114. J-0.585
X20.51 I-4.49
X29.49 I4.49
X28.905 Y-114.585 I-0.585
G1 X28.32
G18 G3 X27.735 Z-2.415 K0.585
G0 Z5.
Y-113.415
G1 Z-1. F1000.
Z-3.415 F333.3
G2 X28.32 Z-4. I0.585
G1 X28.905 F1000.
G17 G2 X29.49 Y-114. J-0.585
X20.51 I-4.49
X29.49 I4.49
X28.905 Y-114.585 I-0.585
G1 X28.32
G18 G3 X27.735 Z-3.415 K0.585
G0 Z5.
Y-113.415
G1 Z-2. F1000.
Z-4.415 F333.3
G2 X28.32 Z-5. I0.585
G1 X28.905 F1000.
G17 G2 X29.49 Y-114. J-0.585
X20.51 I-4.49
X29.49 I4.49
X28.905 Y-114.585 I-0.585
G1 X28.32
G18 G3 X27.735 Z-4.415 K0.585
G0 Z5.
Y-113.415
G1 Z-3. F1000.
Z-5.415 F333.3
G2 X28.32 Z-6. I0.585
G1 X28.905 F1000.
G17 G2 X29.49 Y-114. J-0.585
X20.51 I-4.49
X29.49 I4.49
X28.905 Y-114.585 I-0.585
G1 X28.32
G18 G3 X27.735 Z-5.415 K0.585
G0 Z5.
X22.265
G1 Z-4. F1000.
Z-6.415 F333.3
G3 X21.68 Z-7. I-0.585
G1 X21.095 F1000.
G17 G2 X20.51 Y-114. J0.585
X29.49 I4.49
X20.51 I-4.49
X30.075 I4.782
X19.925 I-5.075
X30.075 I5.075
X29.49 Y-114.585 I-0.585
G1 X28.905
G18 G3 X28.32 Z-6.415 K0.585
G0 Z15.
G17
G91
G28 Z0.
M5
G0
G28 X0. Y0.
M30
%
