%
O00001033
(T3  D=5.85 CR=0. - ZMIN=-8.1 - FLAT END MILL)
G90 G94 G17
G21
G91
G28 Z0.
G90
(2D CONTOUR2)
T3 M6
S5000 M3
G54
G0 X-18.66 Y-172.725
G43 Z15. H3
G0 Z5.
G1 Z2. F1000.
Z-0.415 F333.3
X-18.653 Z-0.507
X-18.632 Y-172.724 Z-0.596
X-18.597 Y-172.723 Z-0.681
X-18.549 Y-172.721 Z-0.759
X-18.489 Y-172.72 Z-0.829
X-18.419 Y-172.718 Z-0.888
X-18.341 Y-172.715 Z-0.936
X-18.256 Y-172.713 Z-0.971
X-18.167 Y-172.71 Z-0.993
X-18.076 Y-172.707 Z-1.
X-17.491 Y-172.69 F1000.
G3 X-16.924 Y-172.087 I-0.017 J0.585
G2 X-16.925 Y-172. I2.924 J0.087
G1 Y-144.
G2 X-16.068 Y-141.932 I2.925
G1 X2.075 Y-123.788
Y-77.
G2 X5. Y-74.075 I2.925
G1 X45.
G2 X47.925 Y-77. J-2.925
G1 Y-172.
G2 X45. Y-174.925 I-2.925
G1 X36.
G2 X33.075 Y-172. J2.925
G1 Y-155.
G3 X33. Y-154.925 I-0.075
G1 X-2.
G3 X-2.075 Y-155. J-0.075
G1 Y-172.
G2 X-5. Y-174.925 I-2.925
G1 X-14.
G2 X-16.924 Y-172.087 J2.925
G3 X-17.526 Y-171.52 I-0.585 J-0.018
G1 X-18.111 Y-171.538
X-18.202 Y-171.541 Z-0.993
X-18.291 Y-171.543 Z-0.971
X-18.376 Y-171.546 Z-0.936
X-18.454 Y-171.548 Z-0.888
X-18.524 Y-171.55 Z-0.829
X-18.584 Y-171.552 Z-0.759
X-18.632 Y-171.553 Z-0.681
X-18.667 Y-171.554 Z-0.596
X-18.688 Y-171.555 Z-0.507
X-18.695 Z-0.415
G0 Z5.
X-18.66 Y-172.725
G1 Z1. F1000.
Z-1.415 F333.3
X-18.653 Z-1.507
X-18.632 Y-172.724 Z-1.596
X-18.597 Y-172.723 Z-1.681
X-18.549 Y-172.721 Z-1.759
X-18.489 Y-172.72 Z-1.829
X-18.419 Y-172.718 Z-1.888
X-18.341 Y-172.715 Z-1.936
X-18.256 Y-172.713 Z-1.971
X-18.167 Y-172.71 Z-1.993
X-18.076 Y-172.707 Z-2.
X-17.491 Y-172.69 F1000.
G3 X-16.924 Y-172.087 I-0.017 J0.585
G2 X-16.925 Y-172. I2.924 J0.087
G1 Y-144.
G2 X-16.068 Y-141.932 I2.925
G1 X2.075 Y-123.788
Y-77.
G2 X5. Y-74.075 I2.925
G1 X45.
G2 X47.925 Y-77. J-2.925
G1 Y-172.
G2 X45. Y-174.925 I-2.925
G1 X36.
G2 X33.075 Y-172. J2.925
G1 Y-155.
G3 X33. Y-154.925 I-0.075
G1 X-2.
G3 X-2.075 Y-155. J-0.075
G1 Y-172.
G2 X-5. Y-174.925 I-2.925
G1 X-14.
G2 X-16.924 Y-172.087 J2.925
G3 X-17.526 Y-171.52 I-0.585 J-0.018
G1 X-18.111 Y-171.538
X-18.202 Y-171.541 Z-1.993
X-18.291 Y-171.543 Z-1.971
X-18.376 Y-171.546 Z-1.936
X-18.454 Y-171.548 Z-1.888
X-18.524 Y-171.55 Z-1.829
X-18.584 Y-171.552 Z-1.759
X-18.632 Y-171.553 Z-1.681
X-18.667 Y-171.554 Z-1.596
X-18.688 Y-171.555 Z-1.507
X-18.695 Z-1.415
G0 Z5.
X-18.66 Y-172.725
G1 Z0. F1000.
Z-2.415 F333.3
X-18.653 Z-2.507
X-18.632 Y-172.724 Z-2.596
X-18.597 Y-172.723 Z-2.681
X-18.549 Y-172.721 Z-2.759
X-18.489 Y-172.72 Z-2.829
X-18.419 Y-172.718 Z-2.888
X-18.341 Y-172.715 Z-2.936
X-18.256 Y-172.713 Z-2.971
X-18.167 Y-172.71 Z-2.993
X-18.076 Y-172.707 Z-3.
X-17.491 Y-172.69 F1000.
G3 X-16.924 Y-172.087 I-0.017 J0.585
G2 X-16.925 Y-172. I2.924 J0.087
G1 Y-144.
G2 X-16.068 Y-141.932 I2.925
G1 X2.075 Y-123.788
Y-77.
G2 X5. Y-74.075 I2.925
G1 X45.
G2 X47.925 Y-77. J-2.925
G1 Y-172.
G2 X45. Y-174.925 I-2.925
G1 X36.
G2 X33.075 Y-172. J2.925
G1 Y-155.
G3 X33. Y-154.925 I-0.075
G1 X-2.
G3 X-2.075 Y-155. J-0.075
G1 Y-172.
G2 X-5. Y-174.925 I-2.925
G1 X-14.
G2 X-16.924 Y-172.087 J2.925
G3 X-17.526 Y-171.52 I-0.585 J-0.018
G1 X-18.111 Y-171.538
X-18.202 Y-171.541 Z-2.993
X-18.291 Y-171.543 Z-2.971
X-18.376 Y-171.546 Z-2.936
X-18.454 Y-171.548 Z-2.888
X-18.524 Y-171.55 Z-2.829
X-18.584 Y-171.552 Z-2.759
X-18.632 Y-171.553 Z-2.681
X-18.667 Y-171.554 Z-2.596
X-18.688 Y-171.555 Z-2.507
X-18.695 Z-2.415
G0 Z5.
X-18.66 Y-172.725
G1 Z-1. F1000.
Z-3.415 F333.3
X-18.653 Z-3.507
X-18.632 Y-172.724 Z-3.596
X-18.597 Y-172.723 Z-3.681
X-18.549 Y-172.721 Z-3.759
X-18.489 Y-172.72 Z-3.829
X-18.419 Y-172.718 Z-3.888
X-18.341 Y-172.715 Z-3.936
X-18.256 Y-172.713 Z-3.971
X-18.167 Y-172.71 Z-3.993
X-18.076 Y-172.707 Z-4.
X-17.491 Y-172.69 F1000.
G3 X-16.924 Y-172.087 I-0.017 J0.585
G2 X-16.925 Y-172. I2.924 J0.087
G1 Y-144.
G2 X-16.068 Y-141.932 I2.925
G1 X2.075 Y-123.788
Y-77.
G2 X5. Y-74.075 I2.925
G1 X45.
G2 X47.925 Y-77. J-2.925
G1 Y-172.
G2 X45. Y-174.925 I-2.925
G1 X36.
G2 X33.075 Y-172. J2.925
G1 Y-155.
G3 X33. Y-154.925 I-0.075
G1 X-2.
G3 X-2.075 Y-155. J-0.075
G1 Y-172.
G2 X-5. Y-174.925 I-2.925
G1 X-14.
G2 X-16.924 Y-172.087 J2.925
G3 X-17.526 Y-171.52 I-0.585 J-0.018
G1 X-18.111 Y-171.538
X-18.202 Y-171.541 Z-3.993
X-18.291 Y-171.543 Z-3.971
X-18.376 Y-171.546 Z-3.936
X-18.454 Y-171.548 Z-3.888
X-18.524 Y-171.55 Z-3.829
X-18.584 Y-171.552 Z-3.759
X-18.632 Y-171.553 Z-3.681
X-18.667 Y-171.554 Z-3.596
X-18.688 Y-171.555 Z-3.507
X-18.695 Z-3.415
G0 Z5.
X-18.66 Y-172.725
G1 Z-2. F1000.
Z-4.415 F333.3
X-18.653 Z-4.507
X-18.632 Y-172.724 Z-4.596
X-18.597 Y-172.723 Z-4.681
X-18.549 Y-172.721 Z-4.759
X-18.489 Y-172.72 Z-4.829
X-18.419 Y-172.718 Z-4.888
X-18.341 Y-172.715 Z-4.936
X-18.256 Y-172.713 Z-4.971
X-18.167 Y-172.71 Z-4.993
X-18.076 Y-172.707 Z-5.
X-17.491 Y-172.69 F1000.
G3 X-16.924 Y-172.087 I-0.017 J0.585
G2 X-16.925 Y-172. I2.924 J0.087
G1 Y-144.
G2 X-16.068 Y-141.932 I2.925
G1 X2.075 Y-123.788
Y-77.
G2 X5. Y-74.075 I2.925
G1 X45.
G2 X47.925 Y-77. J-2.925
G1 Y-172.
G2 X45. Y-174.925 I-2.925
G1 X36.
G2 X33.075 Y-172. J2.925
G1 Y-155.
G3 X33. Y-154.925 I-0.075
G1 X-2.
G3 X-2.075 Y-155. J-0.075
G1 Y-172.
G2 X-5. Y-174.925 I-2.925
G1 X-14.
G2 X-16.924 Y-172.087 J2.925
G3 X-17.526 Y-171.52 I-0.585 J-0.018
G1 X-18.111 Y-171.538
X-18.202 Y-171.541 Z-4.993
X-18.291 Y-171.543 Z-4.971
X-18.376 Y-171.546 Z-4.936
X-18.454 Y-171.548 Z-4.888
X-18.524 Y-171.55 Z-4.829
X-18.584 Y-171.552 Z-4.759
X-18.632 Y-171.553 Z-4.681
X-18.667 Y-171.554 Z-4.596
X-18.688 Y-171.555 Z-4.507
X-18.695 Z-4.415
G0 Z5.
X-18.66 Y-172.725
G1 Z-3. F1000.
Z-5.415 F333.3
X-18.653 Z-5.507
X-18.632 Y-172.724 Z-5.596
X-18.597 Y-172.723 Z-5.681
X-18.549 Y-172.721 Z-5.759
X-18.489 Y-172.72 Z-5.829
X-18.419 Y-172.718 Z-5.888
X-18.341 Y-172.715 Z-5.936
X-18.256 Y-172.713 Z-5.971
X-18.167 Y-172.71 Z-5.993
X-18.076 Y-172.707 Z-6.
X-17.491 Y-172.69 F1000.
G3 X-16.924 Y-172.087 I-0.017 J0.585
G2 X-16.925 Y-172. I2.924 J0.087
G1 Y-144.
G2 X-16.068 Y-141.932 I2.925
G1 X2.075 Y-123.788
Y-77.
G2 X5. Y-74.075 I2.925
G1 X45.
G2 X47.925 Y-77. J-2.925
G1 Y-172.
G2 X45. Y-174.925 I-2.925
G1 X36.
G2 X33.075 Y-172. J2.925
G1 Y-155.
G3 X33. Y-154.925 I-0.075
G1 X-2.
G3 X-2.075 Y-155. J-0.075
G1 Y-172.
G2 X-5. Y-174.925 I-2.925
G1 X-14.
G2 X-16.924 Y-172.087 J2.925
G3 X-17.526 Y-171.52 I-0.585 J-0.018
G1 X-18.111 Y-171.538
X-18.202 Y-171.541 Z-5.993
X-18.291 Y-171.543 Z-5.971
X-18.376 Y-171.546 Z-5.936
X-18.454 Y-171.548 Z-5.888
X-18.524 Y-171.55 Z-5.829
X-18.584 Y-171.552 Z-5.759
X-18.632 Y-171.553 Z-5.681
X-18.667 Y-171.554 Z-5.596
X-18.688 Y-171.555 Z-5.507
X-18.695 Z-5.415
G0 Z5.
X-18.66 Y-172.725
G1 Z-4. F1000.
Z-6.415 F333.3
X-18.653 Z-6.507
X-18.632 Y-172.724 Z-6.596
X-18.597 Y-172.723 Z-6.681
X-18.549 Y-172.721 Z-6.759
X-18.489 Y-172.72 Z-6.829
X-18.419 Y-172.718 Z-6.888
X-18.341 Y-172.715 Z-6.936
X-18.256 Y-172.713 Z-6.971
X-18.167 Y-172.71 Z-6.993
X-18.076 Y-172.707 Z-7.
X-17.491 Y-172.69 F1000.
G3 X-16.924 Y-172.087 I-0.017 J0.585
G2 X-16.925 Y-172. I2.924 J0.087
G1 Y-144.
G2 X-16.068 Y-141.932 I2.925
G1 X2.075 Y-123.788
Y-77.
G2 X5. Y-74.075 I2.925
G1 X45.
G2 X47.925 Y-77. J-2.925
G1 Y-172.
G2 X45. Y-174.925 I-2.925
G1 X36.
G2 X33.075 Y-172. J2.925
G1 Y-155.
G3 X33. Y-154.925 I-0.075
G1 X-2.
G3 X-2.075 Y-155. J-0.075
G1 Y-172.
G2 X-5. Y-174.925 I-2.925
G1 X-14.
G2 X-16.924 Y-172.087 J2.925
G3 X-17.526 Y-171.52 I-0.585 J-0.018
G1 X-18.111 Y-171.538
X-18.202 Y-171.541 Z-6.993
X-18.291 Y-171.543 Z-6.971
X-18.376 Y-171.546 Z-6.936
X-18.454 Y-171.548 Z-6.888
X-18.524 Y-171.55 Z-6.829
X-18.584 Y-171.552 Z-6.759
X-18.632 Y-171.553 Z-6.681
X-18.667 Y-171.554 Z-6.596
X-18.688 Y-171.555 Z-6.507
X-18.695 Z-6.415
G0 Z5.
X-18.66 Y-172.725
G1 Z-5. F1000.
Z-6.965 F333.3
X-18.653 Z-7.057
X-18.632 Y-172.724 Z-7.146
X-18.597 Y-172.723 Z-7.231
X-18.549 Y-172.721 Z-7.309
X-18.489 Y-172.72 Z-7.379
X-18.419 Y-172.718 Z-7.438
X-18.341 Y-172.715 Z-7.486
X-18.256 Y-172.713 Z-7.521
X-18.167 Y-172.71 Z-7.543
X-18.076 Y-172.707 Z-7.55
X-17.491 Y-172.69 F1000.
G3 X-16.924 Y-172.087 I-0.017 J0.585
G2 X-16.925 Y-172. I2.924 J0.087
G1 Y-144.
G2 X-16.068 Y-141.932 I2.925
G1 X2.075 Y-123.788
Y-77.
G2 X5. Y-74.075 I2.925
G1 X45.
G2 X47.925 Y-77. J-2.925
G1 Y-172.
G2 X45. Y-174.925 I-2.925
G1 X36.
G2 X33.075 Y-172. J2.925
G1 Y-155.
G3 X33. Y-154.925 I-0.075
G1 X-2.
G3 X-2.075 Y-155. J-0.075
G1 Y-172.
G2 X-5. Y-174.925 I-2.925
G1 X-14.
G2 X-16.924 Y-172.087 J2.925
G3 X-17.526 Y-171.52 I-0.585 J-0.018
G1 X-18.111 Y-171.538
X-18.202 Y-171.541 Z-7.543
X-18.291 Y-171.543 Z-7.521
X-18.376 Y-171.546 Z-7.486
X-18.454 Y-171.548 Z-7.438
X-18.524 Y-171.55 Z-7.379
X-18.584 Y-171.552 Z-7.309
X-18.632 Y-171.553 Z-7.231
X-18.667 Y-171.554 Z-7.146
X-18.688 Y-171.555 Z-7.057
X-18.695 Z-6.965
G0 Z5.
X-18.66 Y-172.725
G1 Z-5.55 F1000.
Z-7.515 F333.3
X-18.653 Z-7.607
X-18.632 Y-172.724 Z-7.696
X-18.597 Y-172.723 Z-7.781
X-18.549 Y-172.721 Z-7.859
X-18.489 Y-172.72 Z-7.929
X-18.419 Y-172.718 Z-7.988
X-18.341 Y-172.715 Z-8.036
X-18.256 Y-172.713 Z-8.071
X-18.167 Y-172.71 Z-8.093
X-18.076 Y-172.707 Z-8.1
X-17.491 Y-172.69 F1000.
G3 X-16.924 Y-172.087 I-0.017 J0.585
G2 X-16.925 Y-172. I2.924 J0.087
G1 Y-144.
G2 X-16.068 Y-141.932 I2.925
G1 X2.075 Y-123.788
Y-77.
G2 X5. Y-74.075 I2.925
G1 X45.
G2 X47.925 Y-77. J-2.925
G1 Y-172.
G2 X45. Y-174.925 I-2.925
G1 X36.
G2 X33.075 Y-172. J2.925
G1 Y-155.
G3 X33. Y-154.925 I-0.075
G1 X-2.
G3 X-2.075 Y-155. J-0.075
G1 Y-172.
G2 X-5. Y-174.925 I-2.925
G1 X-14.
G2 X-16.924 Y-172.087 J2.925
G3 X-17.526 Y-171.52 I-0.585 J-0.018
G1 X-18.111 Y-171.538
X-18.202 Y-171.541 Z-8.093
X-18.291 Y-171.543 Z-8.071
X-18.376 Y-171.546 Z-8.036
X-18.454 Y-171.548 Z-7.988
X-18.524 Y-171.55 Z-7.929
X-18.584 Y-171.552 Z-7.859
X-18.632 Y-171.553 Z-7.781
X-18.667 Y-171.554 Z-7.696
X-18.688 Y-171.555 Z-7.607
X-18.695 Z-7.515
G0 Z5.
X-22.611 Y21.727
G1 Z2. F1000.
Z-0.415 F333.3
X-22.618 Y21.725 Z-0.507
X-22.639 Y21.719 Z-0.596
X-22.673 Y21.711 Z-0.681
X-22.719 Y21.699 Z-0.759
X-22.777 Y21.684 Z-0.829
X-22.845 Y21.667 Z-0.888
X-22.92 Y21.647 Z-0.936
X-23.003 Y21.626 Z-0.971
X-23.089 Y21.604 Z-0.993
X-23.178 Y21.582 Z-1.
X-23.744 Y21.437 F1000.
G3 X-24.166 Y20.725 I0.145 J-0.567
G2 X-24.075 Y20. I-2.834 J-0.725
G1 Y-37.
G2 X-27. Y-39.925 I-2.925
G1 X-77.
G2 X-79.925 Y-37. J2.925
G1 Y20.
G2 X-77. Y22.925 I2.925
G1 X-27.
G2 X-24.166 Y20.725 J-2.925
G3 X-23.455 Y20.303 I0.567 J0.145
G1 X-22.888 Y20.448
X-22.799 Y20.471 Z-0.993
X-22.713 Y20.493 Z-0.971
X-22.63 Y20.514 Z-0.936
X-22.555 Y20.533 Z-0.888
X-22.487 Y20.551 Z-0.829
X-22.429 Y20.565 Z-0.759
X-22.383 Y20.577 Z-0.681
X-22.349 Y20.586 Z-0.596
X-22.328 Y20.591 Z-0.507
X-22.321 Y20.593 Z-0.415
G0 Z5.
X-22.611 Y21.727
G1 Z1. F1000.
Z-1.415 F333.3
X-22.618 Y21.725 Z-1.507
X-22.639 Y21.719 Z-1.596
X-22.673 Y21.711 Z-1.681
X-22.719 Y21.699 Z-1.759
X-22.777 Y21.684 Z-1.829
X-22.845 Y21.667 Z-1.888
X-22.92 Y21.647 Z-1.936
X-23.003 Y21.626 Z-1.971
X-23.089 Y21.604 Z-1.993
X-23.178 Y21.582 Z-2.
X-23.744 Y21.437 F1000.
G3 X-24.166 Y20.725 I0.145 J-0.567
G2 X-24.075 Y20. I-2.834 J-0.725
G1 Y-37.
G2 X-27. Y-39.925 I-2.925
G1 X-77.
G2 X-79.925 Y-37. J2.925
G1 Y20.
G2 X-77. Y22.925 I2.925
G1 X-27.
G2 X-24.166 Y20.725 J-2.925
G3 X-23.455 Y20.303 I0.567 J0.145
G1 X-22.888 Y20.448
X-22.799 Y20.471 Z-1.993
X-22.713 Y20.493 Z-1.971
X-22.63 Y20.514 Z-1.936
X-22.555 Y20.533 Z-1.888
X-22.487 Y20.551 Z-1.829
X-22.429 Y20.565 Z-1.759
X-22.383 Y20.577 Z-1.681
X-22.349 Y20.586 Z-1.596
X-22.328 Y20.591 Z-1.507
X-22.321 Y20.593 Z-1.415
G0 Z5.
X-22.611 Y21.727
G1 Z0. F1000.
Z-2.415 F333.3
X-22.618 Y21.725 Z-2.507
X-22.639 Y21.719 Z-2.596
X-22.673 Y21.711 Z-2.681
X-22.719 Y21.699 Z-2.759
X-22.777 Y21.684 Z-2.829
X-22.845 Y21.667 Z-2.888
X-22.92 Y21.647 Z-2.936
X-23.003 Y21.626 Z-2.971
X-23.089 Y21.604 Z-2.993
X-23.178 Y21.582 Z-3.
X-23.744 Y21.437 F1000.
G3 X-24.166 Y20.725 I0.145 J-0.567
G2 X-24.075 Y20. I-2.834 J-0.725
G1 Y-37.
G2 X-27. Y-39.925 I-2.925
G1 X-77.
G2 X-79.925 Y-37. J2.925
G1 Y20.
G2 X-77. Y22.925 I2.925
G1 X-27.
G2 X-24.166 Y20.725 J-2.925
G3 X-23.455 Y20.303 I0.567 J0.145
G1 X-22.888 Y20.448
X-22.799 Y20.471 Z-2.993
X-22.713 Y20.493 Z-2.971
X-22.63 Y20.514 Z-2.936
X-22.555 Y20.533 Z-2.888
X-22.487 Y20.551 Z-2.829
X-22.429 Y20.565 Z-2.759
X-22.383 Y20.577 Z-2.681
X-22.349 Y20.586 Z-2.596
X-22.328 Y20.591 Z-2.507
X-22.321 Y20.593 Z-2.415
G0 Z5.
X-22.611 Y21.727
G1 Z-1. F1000.
Z-3.415 F333.3
X-22.618 Y21.725 Z-3.507
X-22.639 Y21.719 Z-3.596
X-22.673 Y21.711 Z-3.681
X-22.719 Y21.699 Z-3.759
X-22.777 Y21.684 Z-3.829
X-22.845 Y21.667 Z-3.888
X-22.92 Y21.647 Z-3.936
X-23.003 Y21.626 Z-3.971
X-23.089 Y21.604 Z-3.993
X-23.178 Y21.582 Z-4.
X-23.744 Y21.437 F1000.
G3 X-24.166 Y20.725 I0.145 J-0.567
G2 X-24.075 Y20. I-2.834 J-0.725
G1 Y-37.
G2 X-27. Y-39.925 I-2.925
G1 X-77.
G2 X-79.925 Y-37. J2.925
G1 Y20.
G2 X-77. Y22.925 I2.925
G1 X-27.
G2 X-24.166 Y20.725 J-2.925
G3 X-23.455 Y20.303 I0.567 J0.145
G1 X-22.888 Y20.448
X-22.799 Y20.471 Z-3.993
X-22.713 Y20.493 Z-3.971
X-22.63 Y20.514 Z-3.936
X-22.555 Y20.533 Z-3.888
X-22.487 Y20.551 Z-3.829
X-22.429 Y20.565 Z-3.759
X-22.383 Y20.577 Z-3.681
X-22.349 Y20.586 Z-3.596
X-22.328 Y20.591 Z-3.507
X-22.321 Y20.593 Z-3.415
G0 Z5.
X-22.611 Y21.727
G1 Z-2. F1000.
Z-4.415 F333.3
X-22.618 Y21.725 Z-4.507
X-22.639 Y21.719 Z-4.596
X-22.673 Y21.711 Z-4.681
X-22.719 Y21.699 Z-4.759
X-22.777 Y21.684 Z-4.829
X-22.845 Y21.667 Z-4.888
X-22.92 Y21.647 Z-4.936
X-23.003 Y21.626 Z-4.971
X-23.089 Y21.604 Z-4.993
X-23.178 Y21.582 Z-5.
X-23.744 Y21.437 F1000.
G3 X-24.166 Y20.725 I0.145 J-0.567
G2 X-24.075 Y20. I-2.834 J-0.725
G1 Y-37.
G2 X-27. Y-39.925 I-2.925
G1 X-77.
G2 X-79.925 Y-37. J2.925
G1 Y20.
G2 X-77. Y22.925 I2.925
G1 X-27.
G2 X-24.166 Y20.725 J-2.925
G3 X-23.455 Y20.303 I0.567 J0.145
G1 X-22.888 Y20.448
X-22.799 Y20.471 Z-4.993
X-22.713 Y20.493 Z-4.971
X-22.63 Y20.514 Z-4.936
X-22.555 Y20.533 Z-4.888
X-22.487 Y20.551 Z-4.829
X-22.429 Y20.565 Z-4.759
X-22.383 Y20.577 Z-4.681
X-22.349 Y20.586 Z-4.596
X-22.328 Y20.591 Z-4.507
X-22.321 Y20.593 Z-4.415
G0 Z5.
X-22.611 Y21.727
G1 Z-3. F1000.
Z-5.415 F333.3
X-22.618 Y21.725 Z-5.507
X-22.639 Y21.719 Z-5.596
X-22.673 Y21.711 Z-5.681
X-22.719 Y21.699 Z-5.759
X-22.777 Y21.684 Z-5.829
X-22.845 Y21.667 Z-5.888
X-22.92 Y21.647 Z-5.936
X-23.003 Y21.626 Z-5.971
X-23.089 Y21.604 Z-5.993
X-23.178 Y21.582 Z-6.
X-23.744 Y21.437 F1000.
G3 X-24.166 Y20.725 I0.145 J-0.567
G2 X-24.075 Y20. I-2.834 J-0.725
G1 Y-37.
G2 X-27. Y-39.925 I-2.925
G1 X-77.
G2 X-79.925 Y-37. J2.925
G1 Y20.
G2 X-77. Y22.925 I2.925
G1 X-27.
G2 X-24.166 Y20.725 J-2.925
G3 X-23.455 Y20.303 I0.567 J0.145
G1 X-22.888 Y20.448
X-22.799 Y20.471 Z-5.993
X-22.713 Y20.493 Z-5.971
X-22.63 Y20.514 Z-5.936
X-22.555 Y20.533 Z-5.888
X-22.487 Y20.551 Z-5.829
X-22.429 Y20.565 Z-5.759
X-22.383 Y20.577 Z-5.681
X-22.349 Y20.586 Z-5.596
X-22.328 Y20.591 Z-5.507
X-22.321 Y20.593 Z-5.415
G0 Z5.
X-22.611 Y21.727
G1 Z-4. F1000.
Z-6.415 F333.3
X-22.618 Y21.725 Z-6.507
X-22.639 Y21.719 Z-6.596
X-22.673 Y21.711 Z-6.681
X-22.719 Y21.699 Z-6.759
X-22.777 Y21.684 Z-6.829
X-22.845 Y21.667 Z-6.888
X-22.92 Y21.647 Z-6.936
X-23.003 Y21.626 Z-6.971
X-23.089 Y21.604 Z-6.993
X-23.178 Y21.582 Z-7.
X-23.744 Y21.437 F1000.
G3 X-24.166 Y20.725 I0.145 J-0.567
G2 X-24.075 Y20. I-2.834 J-0.725
G1 Y-37.
G2 X-27. Y-39.925 I-2.925
G1 X-77.
G2 X-79.925 Y-37. J2.925
G1 Y20.
G2 X-77. Y22.925 I2.925
G1 X-27.
G2 X-24.166 Y20.725 J-2.925
G3 X-23.455 Y20.303 I0.567 J0.145
G1 X-22.888 Y20.448
X-22.799 Y20.471 Z-6.993
X-22.713 Y20.493 Z-6.971
X-22.63 Y20.514 Z-6.936
X-22.555 Y20.533 Z-6.888
X-22.487 Y20.551 Z-6.829
X-22.429 Y20.565 Z-6.759
X-22.383 Y20.577 Z-6.681
X-22.349 Y20.586 Z-6.596
X-22.328 Y20.591 Z-6.507
X-22.321 Y20.593 Z-6.415
G0 Z5.
X-22.611 Y21.727
G1 Z-5. F1000.
Z-6.965 F333.3
X-22.618 Y21.725 Z-7.057
X-22.639 Y21.719 Z-7.146
X-22.673 Y21.711 Z-7.231
X-22.719 Y21.699 Z-7.309
X-22.777 Y21.684 Z-7.379
X-22.845 Y21.667 Z-7.438
X-22.92 Y21.647 Z-7.486
X-23.003 Y21.626 Z-7.521
X-23.089 Y21.604 Z-7.543
X-23.178 Y21.582 Z-7.55
X-23.744 Y21.437 F1000.
G3 X-24.166 Y20.725 I0.145 J-0.567
G2 X-24.075 Y20. I-2.834 J-0.725
G1 Y-37.
G2 X-27. Y-39.925 I-2.925
G1 X-77.
G2 X-79.925 Y-37. J2.925
G1 Y20.
G2 X-77. Y22.925 I2.925
G1 X-27.
G2 X-24.166 Y20.725 J-2.925
G3 X-23.455 Y20.303 I0.567 J0.145
G1 X-22.888 Y20.448
X-22.799 Y20.471 Z-7.543
X-22.713 Y20.493 Z-7.521
X-22.63 Y20.514 Z-7.486
X-22.555 Y20.533 Z-7.438
X-22.487 Y20.551 Z-7.379
X-22.429 Y20.565 Z-7.309
X-22.383 Y20.577 Z-7.231
X-22.349 Y20.586 Z-7.146
X-22.328 Y20.591 Z-7.057
X-22.321 Y20.593 Z-6.965
G0 Z5.
X-22.611 Y21.727
G1 Z-5.55 F1000.
Z-7.515 F333.3
X-22.618 Y21.725 Z-7.607
X-22.639 Y21.719 Z-7.696
X-22.673 Y21.711 Z-7.781
X-22.719 Y21.699 Z-7.859
X-22.777 Y21.684 Z-7.929
X-22.845 Y21.667 Z-7.988
X-22.92 Y21.647 Z-8.036
X-23.003 Y21.626 Z-8.071
X-23.089 Y21.604 Z-8.093
X-23.178 Y21.582 Z-8.1
X-23.744 Y21.437 F1000.
G3 X-24.166 Y20.725 I0.145 J-0.567
G2 X-24.075 Y20. I-2.834 J-0.725
G1 Y-37.
G2 X-27. Y-39.925 I-2.925
G1 X-77.
G2 X-79.925 Y-37. J2.925
G1 Y20.
G2 X-77. Y22.925 I2.925
G1 X-27.
G2 X-24.166 Y20.725 J-2.925
G3 X-23.455 Y20.303 I0.567 J0.145
G1 X-22.888 Y20.448
X-22.799 Y20.471 Z-8.093
X-22.713 Y20.493 Z-8.071
X-22.63 Y20.514 Z-8.036
X-22.555 Y20.533 Z-7.988
X-22.487 Y20.551 Z-7.929
X-22.429 Y20.565 Z-7.859
X-22.383 Y20.577 Z-7.781
X-22.349 Y20.586 Z-7.696
X-22.328 Y20.591 Z-7.607
X-22.321 Y20.593 Z-7.515
G0 Z15.
G91
G28 Z0.
M5
G28 X0. Y0.
M30
%
