%
O00001034
(T3  D=5.85 CR=0. - ZMIN=-8.2 - FLAT END MILL)
G90 G94 G17
G21
G91
G28 Z0.
G90
(2D CONTOUR2)
T3 M6
S5000 M3
G54
G0 X43.723 Y-73.775
G43 Z15. H3
G0 Z5.
G1 Z1. F1000.
Z-8.1 F333.3
G19 G2 Y-73.875 Z-8.2 J-0.1
G1 Y-73.975 F1000.
G17 G2 X43.623 Y-74.075 I-0.1
G1 X5.
G3 X2.075 Y-77. J-2.925
G1 Y-123.788
X-16.068 Y-141.932
G3 X-16.925 Y-144. I2.068 J-2.068
G1 Y-172.
G3 X-14. Y-174.925 I2.925
G1 X-5.
G3 X-2.075 Y-172. J2.925
G1 Y-155.
G2 X-2. Y-154.925 I0.075
G1 X33.
G2 X33.075 Y-155. J-0.075
G1 Y-172.
G3 X36. Y-174.925 I2.925
G1 X45.
G3 X47.925 Y-172. J2.925
G1 Y-77.
G3 X45. Y-74.075 I-2.925
G1 X43.623
G2 X43.523 Y-73.975 J0.1
G1 Y-73.875
G19 G3 Y-73.775 Z-8.1 K0.1
G0 Z5.
X34.125 Y-26.465
G1 Z1. F1000.
Z-8.1 F333.3
X34.132 Y-26.461 Z-8.138
X34.151 Y-26.451 Z-8.171
X34.179 Y-26.435 Z-8.192
X34.213 Y-26.417 Z-8.2
X34.3 Y-26.369 F1000.
G17 G2 X34.436 Y-26.408 I0.048 J-0.088
G3 X37. Y-27.925 I2.564 J1.408
G1 X42.075
Y-67.075
X-17.075
Y17.075
X34.075
Y-25.
G3 X34.436 Y-26.408 I2.925
G2 X34.397 Y-26.544 I-0.088 J-0.048
G1 X34.309 Y-26.592
X34.276 Y-26.611 Z-8.192
X34.247 Y-26.626 Z-8.171
X34.228 Y-26.637 Z-8.138
X34.221 Y-26.64 Z-8.1
G0 Z15.
G91
G28 Z0.
M5
G28 X0. Y0.
M30
%
