%
O00001036
(T3  D=5.85 CR=0. - ZMIN=-8. - FLAT END MILL)
G90 G94 G17
G21
G91
G28 Z0.
G90
(2D CONTOUR3)
T3 M6
S5000 M3
G54
G0 X3.32 Y0.585
G43 Z15. H3
G0 Z5.
G1 Z1. F1000.
Z-4.415 F333.3
G18 G2 X3.905 Z-5. I0.585
G1 X4.49 F1000.
G17 G2 X5.075 Y0. J-0.585
X-5.075 I-5.075
X5.075 I5.075
X4.49 Y-0.585 I-0.585
G1 X3.905
G18 G3 X3.32 Z-4.415 K0.585
G0 Z5.
X36.32 Y-44.415
G1 Z1. F1000.
Z-4.415 F333.3
G2 X36.905 Z-5. I0.585
G1 X37.49 F1000.
G17 G2 X38.075 Y-45. J-0.585
X17.925 I-10.075
X38.075 I10.075
X37.49 Y-45.585 I-0.585
G1 X36.905
G18 G3 X36.32 Z-4.415 K0.585
G0 Z5.
X-48.667 Y0.503
G1 Z1. F1000.
Z-4.415 F333.3
X-48.659 Z-4.507
X-48.638 Z-4.596
X-48.603 Y0.502 Z-4.681
X-48.555 Y0.501 Z-4.759
X-48.495 Y0.499 Z-4.829
X-48.426 Y0.497 Z-4.888
X-48.347 Y0.496 Z-4.936
X-48.263 Y0.493 Z-4.971
X-48.173 Y0.491 Z-4.993
X-48.082 Y0.489 Z-5.
X-47.497 Y0.475 F1000.
G17 G2 X-46.927 Y-0.125 I-0.014 J-0.585
X-57.073 Y0.125 I-5.073 J0.125
X-46.925 Y0. I5.073 J-0.125
X-46.927 Y-0.125 I-5.075
X-47.526 Y-0.695 I-0.585 J0.014
G1 X-48.111 Y-0.681
X-48.202 Y-0.678 Z-4.993
X-48.291 Y-0.676 Z-4.971
X-48.376 Y-0.674 Z-4.936
X-48.454 Y-0.672 Z-4.888
X-48.524 Y-0.671 Z-4.829
X-48.584 Y-0.669 Z-4.759
X-48.632 Y-0.668 Z-4.681
X-48.667 Y-0.667 Z-4.596
X-48.688 Y-0.666 Z-4.507
X-48.695 Z-4.415
G0 Z15.
X28.32 Y-113.415
Z5.
G1 Z1. F1000.
Z-6.415 F333.3
G18 G2 X28.905 Z-7. I0.585
G1 X29.49 F1000.
G17 G2 X30.075 Y-114. J-0.585
X19.925 I-5.075
X30.075 I5.075
X29.49 Y-114.585 I-0.585
G1 X28.905
G18 G3 X28.32 Z-6.415 K0.585
G0 Z15.
X8.32 Y-52.415
Z5.
G1 Z1. F1000.
Z-7.415 F333.3
G2 X8.905 Z-8. I0.585
G1 X9.49 F1000.
G17 G2 X10.075 Y-53. J-0.585
X-10.075 I-10.075
X10.075 I10.075
X9.49 Y-53.585 I-0.585
G1 X8.905
G18 G3 X8.32 Z-7.415 K0.585
G0 Z15.
G17
G91
G28 Z0.
M5
G0
G28 X0. Y0.
M30
%
