%
O00001041
(T2  D=4.5 CR=0. TAPER=118DEG - ZMIN=-9.552 - DRILL)
G90 G94 G17
G21
G91
G28 Z0.
G90
(DRILL3)
T2 M6
S5000 M3
G54
G0 X138. Y60.
G43 Z15. H2
G0 Z5.
G98 G81 X138. Y60. Z-9.552 R5. F1000.
Y40.
X100.5 Y20.
Y0.
Y-20.
X138. Y-40.
Y-60.
X95. Y-74.
X54. Y-65.
X40. Y-74.
X54. Y-25.
Y15.
X19.
Y39.
X-19.
Y15.
X-54.
Y-25.
X-40. Y-74.
X-54. Y-65.
X-95. Y-74.
X-138. Y-60.
Y-40.
X-100.5 Y-20.
Y0.
Y20.
X-138. Y40.
Y60.
G80
Z15.
G91
G28 Z0.
M5
G28 X0. Y0.
M30
%
