%
O00001042
(T3  D=3.3 CR=0. TAPER=118DEG - ZMIN=-9.191 - DRILL)
G90 G94 G17
G21
G91
G28 Z0.
G90
(DRILL4)
T3 M6
S8000 M3
G54
G0 X-118.526 Y-70.5
G43 Z15. H3
G0 Z5.
G98 G81 X-118.526 Y-70.5 Z-9.191 R5. F1000.
X-109. Y-65.
X-14. Y-71.
Y-86.
X109. Y-65.
X118.526 Y-70.5
Y70.5
X109. Y65.
X90. Y82.
X30.
X-30.
X-90.
X-109. Y65.
X-118.526 Y70.5
G80
Z15.
G91
G28 Z0.
M5
G28 X0. Y0.
M30
%
