%
O00001043
(T2  D=3.95 CR=0. - ZMIN=-3. - FLAT END MILL)
(T3  D=5.85 CR=0. - ZMIN=-8.2 - FLAT END MILL)
G90 G94 G17
G21
G91
G28 Z0.
G90
(2D CONTOUR1)
T3 M6
S5000 M3
G54
G0 X-54.68 Y15.415
G43 Z15. H3
G0 Z5.
G1 Z2. F1000.
Z-0.415 F333.3
G18 G2 X-54.095 Z-1. I0.585
G1 X-53.51 F1000.
G17 G3 X-52.925 Y16. J0.585
G1 Y17.075
X-55.075
Y-67.075
X-52.925
Y16.
G3 X-53.51 Y16.585 I-0.585
G1 X-54.095
G18 G3 X-54.68 Z-0.415 K0.585
G0 Z5.
Y15.415
G1 Z1. F1000.
Z-1.415 F333.3
G2 X-54.095 Z-2. I0.585
G1 X-53.51 F1000.
G17 G3 X-52.925 Y16. J0.585
G1 Y17.075
X-55.075
Y-67.075
X-52.925
Y16.
G3 X-53.51 Y16.585 I-0.585
G1 X-54.095
G18 G3 X-54.68 Z-1.415 K0.585
G0 Z5.
Y15.415
G1 Z0. F1000.
Z-2.415 F333.3
G2 X-54.095 Z-3. I0.585
G1 X-53.51 F1000.
G17 G3 X-52.925 Y16. J0.585
G1 Y17.075
X-55.075
Y-67.075
X-52.925
Y16.
G3 X-53.51 Y16.585 I-0.585
G1 X-54.095
G18 G3 X-54.68 Z-2.415 K0.585
G0 Z5.
X-101.18 Y-21.585
G1 Z2. F1000.
Z-0.415 F333.3
G2 X-100.595 Z-1. I0.585
G1 X-100.01 F1000.
G17 G3 X-99.425 Y-21. J0.585
G1 Y22.075
X-101.575
Y-22.075
X-99.425
Y-21.
G3 X-100.01 Y-20.415 I-0.585
G1 X-100.595
G18 G3 X-101.18 Z-0.415 K0.585
G0 Z5.
Y-21.585
G1 Z1. F1000.
Z-1.415 F333.3
G2 X-100.595 Z-2. I0.585
G1 X-100.01 F1000.
G17 G3 X-99.425 Y-21. J0.585
G1 Y22.075
X-101.575
Y-22.075
X-99.425
Y-21.
G3 X-100.01 Y-20.415 I-0.585
G1 X-100.595
G18 G3 X-101.18 Z-1.415 K0.585
G0 Z5.
Y-21.585
G1 Z0. F1000.
Z-2.415 F333.3
G2 X-100.595 Z-3. I0.585
G1 X-100.01 F1000.
G17 G3 X-99.425 Y-21. J0.585
G1 Y22.075
X-101.575
Y-22.075
X-99.425
Y-21.
G3 X-100.01 Y-20.415 I-0.585
G1 X-100.595
G18 G3 X-101.18 Z-2.415 K0.585
G0 Z5.
X53.32 Y-66.585
G1 Z2. F1000.
Z-0.415 F333.3
G2 X53.905 Z-1. I0.585
G1 X54.49 F1000.
G17 G3 X55.075 Y-66. J0.585
G1 Y17.075
X52.925
Y-67.075
X55.075
Y-66.
G3 X54.49 Y-65.415 I-0.585
G1 X53.905
G18 G3 X53.32 Z-0.415 K0.585
G0 Z5.
Y-66.585
G1 Z1. F1000.
Z-1.415 F333.3
G2 X53.905 Z-2. I0.585
G1 X54.49 F1000.
G17 G3 X55.075 Y-66. J0.585
G1 Y17.075
X52.925
Y-67.075
X55.075
Y-66.
G3 X54.49 Y-65.415 I-0.585
G1 X53.905
G18 G3 X53.32 Z-1.415 K0.585
G0 Z5.
Y-66.585
G1 Z0. F1000.
Z-2.415 F333.3
G2 X53.905 Z-3. I0.585
G1 X54.49 F1000.
G17 G3 X55.075 Y-66. J0.585
G1 Y17.075
X52.925
Y-67.075
X55.075
Y-66.
G3 X54.49 Y-65.415 I-0.585
G1 X53.905
G18 G3 X53.32 Z-2.415 K0.585
G0 Z5.
X99.82 Y-21.585
G1 Z2. F1000.
Z-0.415 F333.3
G2 X100.405 Z-1. I0.585
G1 X100.99 F1000.
G17 G3 X101.575 Y-21. J0.585
G1 Y22.075
X99.425
Y-22.075
X101.575
Y-21.
G3 X100.99 Y-20.415 I-0.585
G1 X100.405
G18 G3 X99.82 Z-0.415 K0.585
G0 Z5.
Y-21.585
G1 Z1. F1000.
Z-1.415 F333.3
G2 X100.405 Z-2. I0.585
G1 X100.99 F1000.
G17 G3 X101.575 Y-21. J0.585
G1 Y22.075
X99.425
Y-22.075
X101.575
Y-21.
G3 X100.99 Y-20.415 I-0.585
G1 X100.405
G18 G3 X99.82 Z-1.415 K0.585
G0 Z5.
Y-21.585
G1 Z0. F1000.
Z-2.415 F333.3
G2 X100.405 Z-3. I0.585
G1 X100.99 F1000.
G17 G3 X101.575 Y-21. J0.585
G1 Y22.075
X99.425
Y-22.075
X101.575
Y-21.
G3 X100.99 Y-20.415 I-0.585
G1 X100.405
G18 G3 X99.82 Z-2.415 K0.585
G0 Z15.
G17
(2D CONTOUR2)
G0 X90.69 Y15.4
Z15.
Z5.
G1 Z2. F1000.
Z-0.811 F333.3
G18 G2 X90.79 Z-0.911 I0.1
G1 X90.89 F1000.
G17 G3 X90.99 Y15.5 J0.1
G1 Y26.49
X69.01
Y-26.49
X90.99
Y15.5
G3 X90.89 Y15.6 I-0.1
G1 X90.79
G18 G3 X90.69 Z-0.811 K0.1
G0 Z5.
Y15.4
G1 Z1.089 F1000.
Z-1.722 F333.3
G2 X90.79 Z-1.822 I0.1
G1 X90.89 F1000.
G17 G3 X90.99 Y15.5 J0.1
G1 Y26.49
X69.01
Y-26.49
X90.99
Y15.5
G3 X90.89 Y15.6 I-0.1
G1 X90.79
G18 G3 X90.69 Z-1.722 K0.1
G0 Z5.
Y15.4
G1 Z0.178 F1000.
Z-2.633 F333.3
G2 X90.79 Z-2.733 I0.1
G1 X90.89 F1000.
G17 G3 X90.99 Y15.5 J0.1
G1 Y26.49
X69.01
Y-26.49
X90.99
Y15.5
G3 X90.89 Y15.6 I-0.1
G1 X90.79
G18 G3 X90.69 Z-2.633 K0.1
G0 Z5.
Y15.4
G1 Z-0.733 F1000.
Z-3.544 F333.3
G2 X90.79 Z-3.644 I0.1
G1 X90.89 F1000.
G17 G3 X90.99 Y15.5 J0.1
G1 Y26.49
X69.01
Y-26.49
X90.99
Y15.5
G3 X90.89 Y15.6 I-0.1
G1 X90.79
G18 G3 X90.69 Z-3.544 K0.1
G0 Z5.
Y15.4
G1 Z-1.644 F1000.
Z-4.456 F333.3
G2 X90.79 Z-4.556 I0.1
G1 X90.89 F1000.
G17 G3 X90.99 Y15.5 J0.1
G1 Y26.49
X69.01
Y-26.49
X90.99
Y15.5
G3 X90.89 Y15.6 I-0.1
G1 X90.79
G18 G3 X90.69 Z-4.456 K0.1
G0 Z5.
Y15.4
G1 Z-2.556 F1000.
Z-5.367 F333.3
G2 X90.79 Z-5.467 I0.1
G1 X90.89 F1000.
G17 G3 X90.99 Y15.5 J0.1
G1 Y26.49
X69.01
Y-26.49
X90.99
Y15.5
G3 X90.89 Y15.6 I-0.1
G1 X90.79
G18 G3 X90.69 Z-5.367 K0.1
G0 Z5.
Y15.4
G1 Z-3.467 F1000.
Z-6.278 F333.3
G2 X90.79 Z-6.378 I0.1
G1 X90.89 F1000.
G17 G3 X90.99 Y15.5 J0.1
G1 Y26.49
X69.01
Y-26.49
X90.99
Y15.5
G3 X90.89 Y15.6 I-0.1
G1 X90.79
G18 G3 X90.69 Z-6.278 K0.1
G0 Z5.
Y15.4
G1 Z-4.378 F1000.
Z-7.189 F333.3
G2 X90.79 Z-7.289 I0.1
G1 X90.89 F1000.
G17 G3 X90.99 Y15.5 J0.1
G1 Y26.49
X69.01
Y-26.49
X90.99
Y15.5
G3 X90.89 Y15.6 I-0.1
G1 X90.79
G18 G3 X90.69 Z-7.189 K0.1
G0 Z5.
Y-15.6
G1 Z-5.289 F1000.
Z-8.1 F333.3
G2 X90.79 Z-8.2 I0.1
G1 X90.89 F1000.
G17 G3 X90.99 Y-15.5 J0.1
G1 Y26.49
X69.01
Y-26.49
X90.99
Y-15.5
G2 X91.283 Y-15.061 I0.475
G3 X91.575 Y-14.623 I-0.183 J0.439
G1 Y27.
G3 X91.5 Y27.075 I-0.075
G1 X68.5
G3 X68.425 Y27. J-0.075
G1 Y-27.
G3 X68.5 Y-27.075 I0.075
G1 X91.5
G3 X91.575 Y-27. J0.075
G1 Y-14.623
G3 X91.475 Y-14.523 I-0.1
G1 X91.375
G18 G3 X91.275 Z-8.1 K0.1
G0 Z5.
X135.19 Y-26.1
G1 Z2. F1000.
Z-0.811 F333.3
G2 X135.29 Z-0.911 I0.1
G1 X135.39 F1000.
G17 G3 X135.49 Y-26. J0.1
G1 Y26.49
X134.51
Y-26.49
X135.49
Y-26.
G3 X135.39 Y-25.9 I-0.1
G1 X135.29
G18 G3 X135.19 Z-0.811 K0.1
G0 Z5.
Y-26.1
G1 Z1.089 F1000.
Z-1.722 F333.3
G2 X135.29 Z-1.822 I0.1
G1 X135.39 F1000.
G17 G3 X135.49 Y-26. J0.1
G1 Y26.49
X134.51
Y-26.49
X135.49
Y-26.
G3 X135.39 Y-25.9 I-0.1
G1 X135.29
G18 G3 X135.19 Z-1.722 K0.1
G0 Z5.
Y-26.1
G1 Z0.178 F1000.
Z-2.633 F333.3
G2 X135.29 Z-2.733 I0.1
G1 X135.39 F1000.
G17 G3 X135.49 Y-26. J0.1
G1 Y26.49
X134.51
Y-26.49
X135.49
Y-26.
G3 X135.39 Y-25.9 I-0.1
G1 X135.29
G18 G3 X135.19 Z-2.633 K0.1
G0 Z5.
Y-26.1
G1 Z-0.733 F1000.
Z-3.544 F333.3
G2 X135.29 Z-3.644 I0.1
G1 X135.39 F1000.
G17 G3 X135.49 Y-26. J0.1
G1 Y26.49
X134.51
Y-26.49
X135.49
Y-26.
G3 X135.39 Y-25.9 I-0.1
G1 X135.29
G18 G3 X135.19 Z-3.544 K0.1
G0 Z5.
Y-26.1
G1 Z-1.644 F1000.
Z-4.456 F333.3
G2 X135.29 Z-4.556 I0.1
G1 X135.39 F1000.
G17 G3 X135.49 Y-26. J0.1
G1 Y26.49
X134.51
Y-26.49
X135.49
Y-26.
G3 X135.39 Y-25.9 I-0.1
G1 X135.29
G18 G3 X135.19 Z-4.456 K0.1
G0 Z5.
Y-26.1
G1 Z-2.556 F1000.
Z-5.367 F333.3
G2 X135.29 Z-5.467 I0.1
G1 X135.39 F1000.
G17 G3 X135.49 Y-26. J0.1
G1 Y26.49
X134.51
Y-26.49
X135.49
Y-26.
G3 X135.39 Y-25.9 I-0.1
G1 X135.29
G18 G3 X135.19 Z-5.367 K0.1
G0 Z5.
Y-26.1
G1 Z-3.467 F1000.
Z-6.278 F333.3
G2 X135.29 Z-6.378 I0.1
G1 X135.39 F1000.
G17 G3 X135.49 Y-26. J0.1
G1 Y26.49
X134.51
Y-26.49
X135.49
Y-26.
G3 X135.39 Y-25.9 I-0.1
G1 X135.29
G18 G3 X135.19 Z-6.278 K0.1
G0 Z5.
Y-26.1
G1 Z-4.378 F1000.
Z-7.189 F333.3
G2 X135.29 Z-7.289 I0.1
G1 X135.39 F1000.
G17 G3 X135.49 Y-26. J0.1
G1 Y26.49
X134.51
Y-26.49
X135.49
Y-26.
G3 X135.39 Y-25.9 I-0.1
G1 X135.29
G18 G3 X135.19 Z-7.189 K0.1
G0 Z5.
Y-26.1
G1 Z-5.289 F1000.
Z-8.1 F333.3
G2 X135.29 Z-8.2 I0.1
G1 X135.39 F1000.
G17 G3 X135.49 Y-26. J0.1
G1 Y26.49
X134.51
Y-26.49
X135.49
Y-26.
G2 X135.783 Y-25.561 I0.475
G3 X136.075 Y-25.122 I-0.183 J0.439
G1 Y27.
G3 X136. Y27.075 I-0.075
G1 X134.
G3 X133.925 Y27. J-0.075
G1 Y-27.
G3 X134. Y-27.075 I0.075
G1 X136.
G3 X136.075 Y-27. J0.075
G1 Y-25.122
G3 X135.975 Y-25.022 I-0.1
G1 X135.875
G18 G3 X135.775 Z-8.1 K0.1
G0 Z5.
X-69.31 Y15.4
G1 Z2. F1000.
Z-0.811 F333.3
G2 X-69.21 Z-0.911 I0.1
G1 X-69.11 F1000.
G17 G3 X-69.01 Y15.5 J0.1
G1 Y26.49
X-90.99
Y-26.49
X-69.01
Y15.5
G3 X-69.11 Y15.6 I-0.1
G1 X-69.21
G18 G3 X-69.31 Z-0.811 K0.1
G0 Z5.
Y15.4
G1 Z1.089 F1000.
Z-1.722 F333.3
G2 X-69.21 Z-1.822 I0.1
G1 X-69.11 F1000.
G17 G3 X-69.01 Y15.5 J0.1
G1 Y26.49
X-90.99
Y-26.49
X-69.01
Y15.5
G3 X-69.11 Y15.6 I-0.1
G1 X-69.21
G18 G3 X-69.31 Z-1.722 K0.1
G0 Z5.
Y15.4
G1 Z0.178 F1000.
Z-2.633 F333.3
G2 X-69.21 Z-2.733 I0.1
G1 X-69.11 F1000.
G17 G3 X-69.01 Y15.5 J0.1
G1 Y26.49
X-90.99
Y-26.49
X-69.01
Y15.5
G3 X-69.11 Y15.6 I-0.1
G1 X-69.21
G18 G3 X-69.31 Z-2.633 K0.1
G0 Z5.
Y15.4
G1 Z-0.733 F1000.
Z-3.544 F333.3
G2 X-69.21 Z-3.644 I0.1
G1 X-69.11 F1000.
G17 G3 X-69.01 Y15.5 J0.1
G1 Y26.49
X-90.99
Y-26.49
X-69.01
Y15.5
G3 X-69.11 Y15.6 I-0.1
G1 X-69.21
G18 G3 X-69.31 Z-3.544 K0.1
G0 Z5.
Y15.4
G1 Z-1.644 F1000.
Z-4.456 F333.3
G2 X-69.21 Z-4.556 I0.1
G1 X-69.11 F1000.
G17 G3 X-69.01 Y15.5 J0.1
G1 Y26.49
X-90.99
Y-26.49
X-69.01
Y15.5
G3 X-69.11 Y15.6 I-0.1
G1 X-69.21
G18 G3 X-69.31 Z-4.456 K0.1
G0 Z5.
Y15.4
G1 Z-2.556 F1000.
Z-5.367 F333.3
G2 X-69.21 Z-5.467 I0.1
G1 X-69.11 F1000.
G17 G3 X-69.01 Y15.5 J0.1
G1 Y26.49
X-90.99
Y-26.49
X-69.01
Y15.5
G3 X-69.11 Y15.6 I-0.1
G1 X-69.21
G18 G3 X-69.31 Z-5.367 K0.1
G0 Z5.
Y15.4
G1 Z-3.467 F1000.
Z-6.278 F333.3
G2 X-69.21 Z-6.378 I0.1
G1 X-69.11 F1000.
G17 G3 X-69.01 Y15.5 J0.1
G1 Y26.49
X-90.99
Y-26.49
X-69.01
Y15.5
G3 X-69.11 Y15.6 I-0.1
G1 X-69.21
G18 G3 X-69.31 Z-6.278 K0.1
G0 Z5.
Y15.4
G1 Z-4.378 F1000.
Z-7.189 F333.3
G2 X-69.21 Z-7.289 I0.1
G1 X-69.11 F1000.
G17 G3 X-69.01 Y15.5 J0.1
G1 Y26.49
X-90.99
Y-26.49
X-69.01
Y15.5
G3 X-69.11 Y15.6 I-0.1
G1 X-69.21
G18 G3 X-69.31 Z-7.189 K0.1
G0 Z5.
Y-15.6
G1 Z-5.289 F1000.
Z-8.1 F333.3
G2 X-69.21 Z-8.2 I0.1
G1 X-69.11 F1000.
G17 G3 X-69.01 Y-15.5 J0.1
G1 Y26.49
X-90.99
Y-26.49
X-69.01
Y-15.5
G2 X-68.717 Y-15.061 I0.475
G3 X-68.425 Y-14.623 I-0.183 J0.439
G1 Y27.
G3 X-68.5 Y27.075 I-0.075
G1 X-91.5
G3 X-91.575 Y27. J-0.075
G1 Y-27.
G3 X-91.5 Y-27.075 I0.075
G1 X-68.5
G3 X-68.425 Y-27. J0.075
G1 Y-14.623
G3 X-68.525 Y-14.523 I-0.1
G1 X-68.625
G18 G3 X-68.725 Z-8.1 K0.1
G0 Z5.
X-134.81 Y25.9
G1 Z2. F1000.
Z-0.811 F333.3
G2 X-134.71 Z-0.911 I0.1
G1 X-134.61 F1000.
G17 G3 X-134.51 Y26. J0.1
G1 Y26.49
X-135.49
Y-26.49
X-134.51
Y26.
G3 X-134.61 Y26.1 I-0.1
G1 X-134.71
G18 G3 X-134.81 Z-0.811 K0.1
G0 Z5.
Y25.9
G1 Z1.089 F1000.
Z-1.722 F333.3
G2 X-134.71 Z-1.822 I0.1
G1 X-134.61 F1000.
G17 G3 X-134.51 Y26. J0.1
G1 Y26.49
X-135.49
Y-26.49
X-134.51
Y26.
G3 X-134.61 Y26.1 I-0.1
G1 X-134.71
G18 G3 X-134.81 Z-1.722 K0.1
G0 Z5.
Y25.9
G1 Z0.178 F1000.
Z-2.633 F333.3
G2 X-134.71 Z-2.733 I0.1
G1 X-134.61 F1000.
G17 G3 X-134.51 Y26. J0.1
G1 Y26.49
X-135.49
Y-26.49
X-134.51
Y26.
G3 X-134.61 Y26.1 I-0.1
G1 X-134.71
G18 G3 X-134.81 Z-2.633 K0.1
G0 Z5.
Y25.9
G1 Z-0.733 F1000.
Z-3.544 F333.3
G2 X-134.71 Z-3.644 I0.1
G1 X-134.61 F1000.
G17 G3 X-134.51 Y26. J0.1
G1 Y26.49
X-135.49
Y-26.49
X-134.51
Y26.
G3 X-134.61 Y26.1 I-0.1
G1 X-134.71
G18 G3 X-134.81 Z-3.544 K0.1
G0 Z5.
Y25.9
G1 Z-1.644 F1000.
Z-4.456 F333.3
G2 X-134.71 Z-4.556 I0.1
G1 X-134.61 F1000.
G17 G3 X-134.51 Y26. J0.1
G1 Y26.49
X-135.49
Y-26.49
X-134.51
Y26.
G3 X-134.61 Y26.1 I-0.1
G1 X-134.71
G18 G3 X-134.81 Z-4.456 K0.1
G0 Z5.
Y25.9
G1 Z-2.556 F1000.
Z-5.367 F333.3
G2 X-134.71 Z-5.467 I0.1
G1 X-134.61 F1000.
G17 G3 X-134.51 Y26. J0.1
G1 Y26.49
X-135.49
Y-26.49
X-134.51
Y26.
G3 X-134.61 Y26.1 I-0.1
G1 X-134.71
G18 G3 X-134.81 Z-5.367 K0.1
G0 Z5.
Y25.9
G1 Z-3.467 F1000.
Z-6.278 F333.3
G2 X-134.71 Z-6.378 I0.1
G1 X-134.61 F1000.
G17 G3 X-134.51 Y26. J0.1
G1 Y26.49
X-135.49
Y-26.49
X-134.51
Y26.
G3 X-134.61 Y26.1 I-0.1
G1 X-134.71
G18 G3 X-134.81 Z-6.278 K0.1
G0 Z5.
Y25.9
G1 Z-4.378 F1000.
Z-7.189 F333.3
G2 X-134.71 Z-7.289 I0.1
G1 X-134.61 F1000.
G17 G3 X-134.51 Y26. J0.1
G1 Y26.49
X-135.49
Y-26.49
X-134.51
Y26.
G3 X-134.61 Y26.1 I-0.1
G1 X-134.71
G18 G3 X-134.81 Z-7.189 K0.1
G0 Z5.
Y-26.1
G1 Z-5.289 F1000.
Z-8.1 F333.3
G2 X-134.71 Z-8.2 I0.1
G1 X-134.61 F1000.
G17 G3 X-134.51 Y-26. J0.1
G1 Y26.49
X-135.49
Y-26.49
X-134.51
Y-26.
G2 X-134.217 Y-25.561 I0.475
G3 X-133.925 Y-25.122 I-0.183 J0.439
G1 Y27.
G3 X-134. Y27.075 I-0.075
G1 X-136.
G3 X-136.075 Y27. J-0.075
G1 Y-27.
G3 X-136. Y-27.075 I0.075
G1 X-134.
G3 X-133.925 Y-27. J0.075
G1 Y-25.122
G3 X-134.025 Y-25.022 I-0.1
G1 X-134.125
G18 G3 X-134.225 Z-8.1 K0.1
G0 Z15.
G17
(2D CONTOUR3)
G0 X-147.265 Y-0.585
Z15.
Z5.
G1 Z2. F1000.
Z-0.326 F333.3
G18 G2 X-146.68 Z-0.911 I0.585
G1 X-146.095 F1000.
G17 G3 X-145.51 Y0. J0.585
G1 Y64.5
G2 X-139. Y71.01 I6.51
G1 X-133.
G3 X-125.51 Y78.5 J7.49
G1 Y87.
G2 X-119. Y93.51 I6.51
G1 X119.
G2 X125.51 Y87. J-6.51
G1 Y78.5
G3 X133. Y71.01 I7.49
G1 X139.
G2 X145.51 Y64.5 J-6.51
G1 Y-64.5
G2 X139. Y-71.01 I-6.51
G1 X133.
G3 X125.51 Y-78.5 J-7.49
G1 Y-87.
G2 X119. Y-93.51 I-6.51
G1 X-119.
G2 X-125.51 Y-87. J6.51
G1 Y-78.5
G3 X-133. Y-71.01 I-7.49
G1 X-139.
G2 X-145.51 Y-64.5 J6.51
G1 Y0.
G3 X-146.095 Y0.585 I-0.585
G1 X-146.68
G18 G3 X-147.265 Z-0.326 K0.585
G0 Z5.
Y-0.585
G1 Z1.089 F1000.
Z-1.237 F333.3
G2 X-146.68 Z-1.822 I0.585
G1 X-146.095 F1000.
G17 G3 X-145.51 Y0. J0.585
G1 Y64.5
G2 X-139. Y71.01 I6.51
G1 X-133.
G3 X-125.51 Y78.5 J7.49
G1 Y87.
G2 X-119. Y93.51 I6.51
G1 X119.
G2 X125.51 Y87. J-6.51
G1 Y78.5
G3 X133. Y71.01 I7.49
G1 X139.
G2 X145.51 Y64.5 J-6.51
G1 Y-64.5
G2 X139. Y-71.01 I-6.51
G1 X133.
G3 X125.51 Y-78.5 J-7.49
G1 Y-87.
G2 X119. Y-93.51 I-6.51
G1 X-119.
G2 X-125.51 Y-87. J6.51
G1 Y-78.5
G3 X-133. Y-71.01 I-7.49
G1 X-139.
G2 X-145.51 Y-64.5 J6.51
G1 Y0.
G3 X-146.095 Y0.585 I-0.585
G1 X-146.68
G18 G3 X-147.265 Z-1.237 K0.585
G0 Z5.
Y-0.585
G1 Z0.178 F1000.
Z-2.148 F333.3
G2 X-146.68 Z-2.733 I0.585
G1 X-146.095 F1000.
G17 G3 X-145.51 Y0. J0.585
G1 Y64.5
G2 X-139. Y71.01 I6.51
G1 X-133.
G3 X-125.51 Y78.5 J7.49
G1 Y87.
G2 X-119. Y93.51 I6.51
G1 X119.
G2 X125.51 Y87. J-6.51
G1 Y78.5
G3 X133. Y71.01 I7.49
G1 X139.
G2 X145.51 Y64.5 J-6.51
G1 Y-64.5
G2 X139. Y-71.01 I-6.51
G1 X133.
G3 X125.51 Y-78.5 J-7.49
G1 Y-87.
G2 X119. Y-93.51 I-6.51
G1 X-119.
G2 X-125.51 Y-87. J6.51
G1 Y-78.5
G3 X-133. Y-71.01 I-7.49
G1 X-139.
G2 X-145.51 Y-64.5 J6.51
G1 Y0.
G3 X-146.095 Y0.585 I-0.585
G1 X-146.68
G18 G3 X-147.265 Z-2.148 K0.585
G0 Z5.
Y-0.585
G1 Z-0.733 F1000.
Z-3.059 F333.3
G2 X-146.68 Z-3.644 I0.585
G1 X-146.095 F1000.
G17 G3 X-145.51 Y0. J0.585
G1 Y64.5
G2 X-139. Y71.01 I6.51
G1 X-133.
G3 X-125.51 Y78.5 J7.49
G1 Y87.
G2 X-119. Y93.51 I6.51
G1 X119.
G2 X125.51 Y87. J-6.51
G1 Y78.5
G3 X133. Y71.01 I7.49
G1 X139.
G2 X145.51 Y64.5 J-6.51
G1 Y-64.5
G2 X139. Y-71.01 I-6.51
G1 X133.
G3 X125.51 Y-78.5 J-7.49
G1 Y-87.
G2 X119. Y-93.51 I-6.51
G1 X-119.
G2 X-125.51 Y-87. J6.51
G1 Y-78.5
G3 X-133. Y-71.01 I-7.49
G1 X-139.
G2 X-145.51 Y-64.5 J6.51
G1 Y0.
G3 X-146.095 Y0.585 I-0.585
G1 X-146.68
G18 G3 X-147.265 Z-3.059 K0.585
G0 Z5.
Y-0.585
G1 Z-1.644 F1000.
Z-3.971 F333.3
G2 X-146.68 Z-4.556 I0.585
G1 X-146.095 F1000.
G17 G3 X-145.51 Y0. J0.585
G1 Y64.5
G2 X-139. Y71.01 I6.51
G1 X-133.
G3 X-125.51 Y78.5 J7.49
G1 Y87.
G2 X-119. Y93.51 I6.51
G1 X119.
G2 X125.51 Y87. J-6.51
G1 Y78.5
G3 X133. Y71.01 I7.49
G1 X139.
G2 X145.51 Y64.5 J-6.51
G1 Y-64.5
G2 X139. Y-71.01 I-6.51
G1 X133.
G3 X125.51 Y-78.5 J-7.49
G1 Y-87.
G2 X119. Y-93.51 I-6.51
G1 X-119.
G2 X-125.51 Y-87. J6.51
G1 Y-78.5
G3 X-133. Y-71.01 I-7.49
G1 X-139.
G2 X-145.51 Y-64.5 J6.51
G1 Y0.
G3 X-146.095 Y0.585 I-0.585
G1 X-146.68
G18 G3 X-147.265 Z-3.971 K0.585
G0 Z5.
Y-0.585
G1 Z-2.556 F1000.
Z-4.882 F333.3
G2 X-146.68 Z-5.467 I0.585
G1 X-146.095 F1000.
G17 G3 X-145.51 Y0. J0.585
G1 Y64.5
G2 X-139. Y71.01 I6.51
G1 X-133.
G3 X-125.51 Y78.5 J7.49
G1 Y87.
G2 X-119. Y93.51 I6.51
G1 X119.
G2 X125.51 Y87. J-6.51
G1 Y78.5
G3 X133. Y71.01 I7.49
G1 X139.
G2 X145.51 Y64.5 J-6.51
G1 Y-64.5
G2 X139. Y-71.01 I-6.51
G1 X133.
G3 X125.51 Y-78.5 J-7.49
G1 Y-87.
G2 X119. Y-93.51 I-6.51
G1 X-119.
G2 X-125.51 Y-87. J6.51
G1 Y-78.5
G3 X-133. Y-71.01 I-7.49
G1 X-139.
G2 X-145.51 Y-64.5 J6.51
G1 Y0.
G3 X-146.095 Y0.585 I-0.585
G1 X-146.68
G18 G3 X-147.265 Z-4.882 K0.585
G0 Z5.
Y-0.585
G1 Z-3.467 F1000.
Z-5.793 F333.3
G2 X-146.68 Z-6.378 I0.585
G1 X-146.095 F1000.
G17 G3 X-145.51 Y0. J0.585
G1 Y64.5
G2 X-139. Y71.01 I6.51
G1 X-133.
G3 X-125.51 Y78.5 J7.49
G1 Y87.
G2 X-119. Y93.51 I6.51
G1 X119.
G2 X125.51 Y87. J-6.51
G1 Y78.5
G3 X133. Y71.01 I7.49
G1 X139.
G2 X145.51 Y64.5 J-6.51
G1 Y-64.5
G2 X139. Y-71.01 I-6.51
G1 X133.
G3 X125.51 Y-78.5 J-7.49
G1 Y-87.
G2 X119. Y-93.51 I-6.51
G1 X-119.
G2 X-125.51 Y-87. J6.51
G1 Y-78.5
G3 X-133. Y-71.01 I-7.49
G1 X-139.
G2 X-145.51 Y-64.5 J6.51
G1 Y0.
G3 X-146.095 Y0.585 I-0.585
G1 X-146.68
G18 G3 X-147.265 Z-5.793 K0.585
G0 Z5.
Y-0.585
G1 Z-4.378 F1000.
Z-6.704 F333.3
G2 X-146.68 Z-7.289 I0.585
G1 X-146.095 F1000.
G17 G3 X-145.51 Y0. J0.585
G1 Y64.5
G2 X-139. Y71.01 I6.51
G1 X-133.
G3 X-125.51 Y78.5 J7.49
G1 Y87.
G2 X-119. Y93.51 I6.51
G1 X119.
G2 X125.51 Y87. J-6.51
G1 Y78.5
G3 X133. Y71.01 I7.49
G1 X139.
G2 X145.51 Y64.5 J-6.51
G1 Y-64.5
G2 X139. Y-71.01 I-6.51
G1 X133.
G3 X125.51 Y-78.5 J-7.49
G1 Y-87.
G2 X119. Y-93.51 I-6.51
G1 X-119.
G2 X-125.51 Y-87. J6.51
G1 Y-78.5
G3 X-133. Y-71.01 I-7.49
G1 X-139.
G2 X-145.51 Y-64.5 J6.51
G1 Y0.
G3 X-146.095 Y0.585 I-0.585
G1 X-146.68
G18 G3 X-147.265 Z-6.704 K0.585
G0 Z5.
Y-0.585
G1 Z-5.289 F1000.
Z-7.615 F333.3
G2 X-146.68 Z-8.2 I0.585
G1 X-146.095 F1000.
G17 G3 X-145.51 Y0. J0.585
G1 Y64.5
G2 X-139. Y71.01 I6.51
G1 X-133.
G3 X-125.51 Y78.5 J7.49
G1 Y87.
G2 X-119. Y93.51 I6.51
G1 X119.
G2 X125.51 Y87. J-6.51
G1 Y78.5
G3 X133. Y71.01 I7.49
G1 X139.
G2 X145.51 Y64.5 J-6.51
G1 Y-64.5
G2 X139. Y-71.01 I-6.51
G1 X133.
G3 X125.51 Y-78.5 J-7.49
G1 Y-87.
G2 X119. Y-93.51 I-6.51
G1 X-119.
G2 X-125.51 Y-87. J6.51
G1 Y-78.5
G3 X-133. Y-71.01 I-7.49
G1 X-139.
G2 X-145.51 Y-64.5 J6.51
G1 Y0.
G2 X-145.217 Y0.439 I0.475
G3 X-144.925 Y0.877 I-0.183 J0.439
G1 Y64.5
G2 X-139. Y70.425 I5.925
G1 X-133.
G3 X-124.925 Y78.5 J8.075
G1 Y87.
G2 X-119. Y92.925 I5.925
G1 X119.
G2 X124.925 Y87. J-5.925
G1 Y78.5
G3 X133. Y70.425 I8.075
G1 X139.
G2 X144.925 Y64.5 J-5.925
G1 Y-64.5
G2 X139. Y-70.425 I-5.925
G1 X133.
G3 X124.925 Y-78.5 J-8.075
G1 Y-87.
G2 X119. Y-92.925 I-5.925
G1 X-119.
G2 X-124.925 Y-87. J5.925
G1 Y-78.5
G3 X-133. Y-70.425 I-8.075
G1 X-139.
G2 X-144.925 Y-64.5 J5.925
G1 Y0.877
G3 X-145.51 Y1.462 I-0.585
G1 X-146.095
G18 G3 X-146.68 Z-7.615 K0.585
G0 Z15.
G17
G91
G28 Z0.
G90
(2D CONTOUR4)
M1
T2 M6
S6000 M3
G54
G0 X-52.275 Y17.275
G43 Z15. H2
G0 Z5.
G1 Z1. F1500.
Z-2.9 F100.
G18 G2 X-52.175 Z-3. I0.1
G1 X-52.075 F1500.
G17 G2 X-51.975 Y17.175 J-0.1
G1 Y-67.175 F600.
G3 X-51.327 Y-68.638 I1.975
G2 X-51.326 Y-68.674 I-0.017 J-0.019
X-51.362 Y-68.673 I-0.018 J0.018
G3 X-52.825 Y-68.025 I-1.463 J-1.327
G1 X-55.175
G3 X-56.638 Y-68.673 J-1.975
G2 X-56.674 Y-68.674 I-0.019 J0.017
X-56.673 Y-68.638 I0.018 J0.018
G3 X-56.025 Y-67.175 I-1.327 J1.463
G1 Y17.175
G3 X-56.603 Y18.571 I-1.975
X-56.673 Y18.638 I-1.397 J-1.397
G2 X-56.674 Y18.674 I0.017 J0.019
X-56.638 Y18.673 I0.018 J-0.018
G3 X-55.175 Y18.025 I1.463 J1.327
G1 X-52.825
G3 X-51.362 Y18.673 J1.975
G2 X-51.326 Y18.674 I0.019 J-0.017
X-51.327 Y18.638 I-0.018 J-0.018
G3 X-51.975 Y17.175 I1.327 J-1.463
G2 X-52.075 Y17.075 I-0.1 F1500.
G1 X-52.175
G18 G3 X-52.275 Z-2.9 K0.1
G0 Z5.
X-98.775 Y21.857
G1 Z1. F1500.
Z-2.9 F100.
G2 X-98.675 Z-3. I0.1
G1 X-98.575 F1500.
G17 G2 X-98.475 Y21.757 J-0.1
G1 Y-22.175 F600.
G3 X-97.827 Y-23.638 I1.975
G2 X-97.826 Y-23.674 I-0.017 J-0.019
X-97.862 Y-23.673 I-0.018 J0.018
G3 X-99.325 Y-23.025 I-1.463 J-1.327
G1 X-101.675
G3 X-103.138 Y-23.673 J-1.975
G2 X-103.174 Y-23.674 I-0.019 J0.017
X-103.173 Y-23.638 I0.018 J0.018
G3 X-102.525 Y-22.175 I-1.327 J1.463
G1 Y22.175
G3 X-103.173 Y23.638 I-1.975
G2 X-103.174 Y23.674 I0.017 J0.019
X-103.138 Y23.673 I0.018 J-0.018
G3 X-101.675 Y23.025 I1.463 J1.327
G1 X-99.325
G3 X-97.862 Y23.673 J1.975
G2 X-97.826 Y23.674 I0.019 J-0.017
X-97.827 Y23.638 I-0.018 J-0.018
G3 X-98.475 Y22.175 I1.327 J-1.463
G1 Y21.757
G2 X-98.575 Y21.657 I-0.1 F1500.
G1 X-98.675
G18 G3 X-98.775 Z-2.9 K0.1
G0 Z5.
X52.725 Y17.725
G1 Z1. F1500.
Z-2.9 F100.
G19 G3 Y17.825 Z-3. J0.1
G1 Y17.925 F1500.
G17 G2 X52.825 Y18.025 I0.1
G1 X55.175 F600.
G3 X56.638 Y18.673 J1.975
G2 X56.674 Y18.674 I0.019 J-0.017
X56.673 Y18.638 I-0.018 J-0.018
G3 X56.025 Y17.175 I1.327 J-1.463
G1 Y-67.175
G3 X56.673 Y-68.638 I1.975
G2 X56.674 Y-68.674 I-0.017 J-0.019
X56.638 Y-68.673 I-0.018 J0.018
G3 X55.175 Y-68.025 I-1.463 J-1.327
G1 X52.825
G3 X51.362 Y-68.673 J-1.975
G2 X51.326 Y-68.674 I-0.019 J0.017
X51.327 Y-68.638 I0.018 J0.018
G3 X51.975 Y-67.175 I-1.327 J1.463
G1 Y17.175
G3 X51.327 Y18.638 I-1.975
G2 X51.326 Y18.674 I0.017 J0.019
X51.362 Y18.673 I0.018 J-0.018
G3 X52.825 Y18.025 I1.463 J1.327
G2 X52.925 Y17.925 J-0.1 F1500.
G1 Y17.825
G19 G2 Y17.725 Z-2.9 K0.1
G0 Z5.
X99.225 Y22.725
G1 Z1. F1500.
Z-2.9 F100.
G3 Y22.825 Z-3. J0.1
G1 Y22.925 F1500.
G17 G2 X99.325 Y23.025 I0.1
G1 X101.675 F600.
G3 X103.138 Y23.673 J1.975
G2 X103.174 Y23.674 I0.019 J-0.017
X103.173 Y23.638 I-0.018 J-0.018
G3 X102.525 Y22.175 I1.327 J-1.463
G1 Y-22.175
G3 X103.173 Y-23.638 I1.975
G2 X103.174 Y-23.674 I-0.017 J-0.019
X103.138 Y-23.673 I-0.018 J0.018
G3 X101.675 Y-23.025 I-1.463 J-1.327
G1 X99.325
G3 X97.862 Y-23.673 J-1.975
G2 X97.826 Y-23.674 I-0.019 J0.017
X97.827 Y-23.638 I0.018 J0.018
G3 X98.475 Y-22.175 I-1.327 J1.463
G1 Y22.175
G3 X97.827 Y23.638 I-1.975
G2 X97.826 Y23.674 I0.017 J0.019
X97.862 Y23.673 I0.018 J-0.018
G3 X99.325 Y23.025 I1.463 J1.327
G2 X99.425 Y22.925 J-0.1 F1500.
G1 Y22.825
G19 G2 Y22.725 Z-2.9 K0.1
G0 Z15.
G17
G91
G28 Z0.
M5
G0
G28 X0. Y0.
M30
%
