%
O00001044
(T3  D=5.85 CR=0. - ZMIN=-8.3 - FLAT END MILL)
G90 G94 G17
G21
G91
G28 Z0.
G90
(2D CONTOUR5)
T3 M6
S5000 M3
G54
G0 X-68.725 Y15.6
G43 Z15. H3
G0 Z5.
G1 Z1. F1000.
Z-8.2 F333.3
G18 G2 X-68.625 Z-8.3 I0.1
G1 X-68.525 F1000.
G17 G2 X-68.425 Y15.5 J-0.1
G1 Y-27.
G2 X-68.5 Y-27.075 I-0.075
G1 X-91.5
G2 X-91.575 Y-27. J0.075
G1 Y27.
G2 X-91.5 Y27.075 I0.075
G1 X-68.5
G2 X-68.425 Y27. J-0.075
G1 Y15.5
G2 X-68.525 Y15.4 I-0.1
G1 X-68.625
G18 G3 X-68.725 Z-8.2 K0.1
G0 Z5.
X-134.225 Y-25.9
G1 Z1. F1000.
Z-8.2 F333.3
G2 X-134.125 Z-8.3 I0.1
G1 X-134.025 F1000.
G17 G2 X-133.925 Y-26. J-0.1
G1 Y-27.
G2 X-134. Y-27.075 I-0.075
G1 X-136.
G2 X-136.075 Y-27. J0.075
G1 Y27.
G2 X-136. Y27.075 I0.075
G1 X-134.
G2 X-133.925 Y27. J-0.075
G1 Y-26.
G2 X-134.025 Y-26.1 I-0.1
G1 X-134.125
G18 G3 X-134.225 Z-8.2 K0.1
G0 Z5.
X-145.225 Y0.1
G1 Z1. F1000.
Z-8.2 F333.3
G2 X-145.125 Z-8.3 I0.1
G1 X-145.025 F1000.
G17 G2 X-144.925 Y0. J-0.1
G1 Y-64.5
G3 X-139. Y-70.425 I5.925
G1 X-133.
G2 X-124.925 Y-78.5 J-8.075
G1 Y-87.
G3 X-119. Y-92.925 I5.925
G1 X119.
G3 X124.925 Y-87. J5.925
G1 Y-78.5
G2 X133. Y-70.425 I8.075
G1 X139.
G3 X144.925 Y-64.5 J5.925
G1 Y64.5
G3 X143.848 Y67.906 I-5.925
X139. Y70.425 I-4.848 J-3.406
G1 X133.
G2 X124.925 Y78.5 J8.075
G1 Y87.
G3 X119. Y92.925 I-5.925
G1 X-119.
G3 X-124.925 Y87. J-5.925
G1 Y78.5
G2 X-133. Y70.425 I-8.075
G1 X-139.
G3 X-144.925 Y64.5 J-5.925
G1 Y0.
G2 X-145.025 Y-0.1 I-0.1
G1 X-145.125
G18 G3 X-145.225 Z-8.2 K0.1
G0 Z5.
X91.275 Y15.6
G1 Z1. F1000.
Z-8.2 F333.3
G2 X91.375 Z-8.3 I0.1
G1 X91.475 F1000.
G17 G2 X91.575 Y15.5 J-0.1
G1 Y-27.
G2 X91.5 Y-27.075 I-0.075
G1 X68.5
G2 X68.425 Y-27. J0.075
G1 Y27.
G2 X68.5 Y27.075 I0.075
G1 X91.5
G2 X91.575 Y27. J-0.075
G1 Y15.5
G2 X91.475 Y15.4 I-0.1
G1 X91.375
G18 G3 X91.275 Z-8.2 K0.1
G0 Z5.
X135.775 Y26.1
G1 Z1. F1000.
Z-8.2 F333.3
G2 X135.875 Z-8.3 I0.1
G1 X135.975 F1000.
G17 G2 X136.075 Y26. J-0.1
G1 Y-27.
G2 X136. Y-27.075 I-0.075
G1 X134.
G2 X133.925 Y-27. J0.075
G1 Y27.
G2 X134. Y27.075 I0.075
G1 X136.
G2 X136.075 Y27. J-0.075
G1 Y26.
G2 X135.975 Y25.9 I-0.1
G1 X135.875
G18 G3 X135.775 Z-8.2 K0.1
G0 Z15.
G17
G91
G28 Z0.
M5
G0
G28 X0. Y0.
M30
%
