%
O00001045
(T4  D=10. CR=0. TAPER=45DEG - ZMIN=-1.5 - CHAMFER MILL)
G90 G94 G17
G21
G91
G28 Z0.
G90
(2D CHAMFER1)
T4 M6
S5000 M3
G54
G0 X-144. Y0.
G43 Z15. H4
G0 Z5.
G1 Z2. F1250.
Z-1.5 F250.
X-143. F1250.
Y64.5
G2 X-139. Y68.5 I4.
G1 X-133.
G3 X-123. Y78.5 J10.
G1 Y87.
G2 X-119. Y91. I4.
G1 X119.
G2 X123. Y87. J-4.
G1 Y78.5
G3 X133. Y68.5 I10.
G1 X139.
G2 X143. Y64.5 J-4.
G1 Y-64.5
G2 X139. Y-68.5 I-4.
G1 X133.
G3 X123. Y-78.5 J-10.
G1 Y-87.
G2 X119. Y-91. I-4.
G1 X-119.
G2 X-123. Y-87. J4.
G1 Y-78.5
G3 X-133. Y-68.5 I-10.
G1 X-139.
G2 X-143. Y-64.5 J4.
G1 Y0.
X-144.
G0 Z15.
G91
G28 Z0.
M5
G28 X0. Y0.
M30
%
