%
O00001046
(T4  D=10. CR=0. TAPER=45DEG - ZMIN=-1.5 - CHAMFER MILL)
G90 G94 G17
G21
G91
G28 Z0.
G90
(2D CHAMFER1 (2))
T4 M6
S5000 M3
G54
G0 X-67.5 Y-15.5
G43 Z15. H4
G0 Z5.
G1 Z2. F1250.
Z-1.5 F250.
X-66.5 F1250.
Y27.
G3 X-68.5 Y29. I-2.
G1 X-91.5
G3 X-93.5 Y27. J-2.
G1 Y-27.
G3 X-91.5 Y-29. I2.
G1 X-68.5
G3 X-66.5 Y-27. J2.
G1 Y-15.5
X-67.5
G0 Z5.
X-133. Y-26.
G1 Z2. F1250.
Z-1.5 F250.
X-132. F1250.
Y27.
G3 X-134. Y29. I-2.
G1 X-136.
G3 X-138. Y27. J-2.
G1 Y-27.
G3 X-136. Y-29. I2.
G1 X-134.
G3 X-132. Y-27. J2.
G1 Y-26.
X-133.
G0 Z5.
X92.5 Y-15.5
G1 Z2. F1250.
Z-1.5 F250.
X93.5 F1250.
Y27.
G3 X91.5 Y29. I-2.
G1 X68.5
G3 X66.5 Y27. J-2.
G1 Y-27.
G3 X68.5 Y-29. I2.
G1 X91.5
G3 X93.5 Y-27. J2.
G1 Y-15.5
X92.5
G0 Z5.
X137. Y26.
G1 Z2. F1250.
Z-1.5 F250.
X138. F1250.
Y27.
G3 X136. Y29. I-2.
G1 X134.
G3 X132. Y27. J-2.
G1 Y-27.
G3 X134. Y-29. I2.
G1 X136.
G3 X138. Y-27. J2.
G1 Y26.
X137.
G0 Z15.
G91
G28 Z0.
M5
G28 X0. Y0.
M30
%
