%
O00001047
(T4  D=10. CR=0. TAPER=45DEG - ZMIN=-1.5 - CHAMFER MILL)
G90 G94 G17
G21
G91
G28 Z0.
G90
(2D CHAMFER1 (3))
T4 M6
S5000 M3
G54
G0 X-86.5 Y-64.
G43 Z15. H4
G0 Z5.
G1 Z2. F1250.
Z-1.5 F250.
X-85.5 F1250.
G3 X-89.5 I-2.
X-85.5 I2.
G1 X-86.5
G0 Z5.
X-94.5
G1 Z2. F1250.
Z-1.5 F250.
X-93.5 F1250.
G3 X-97.5 I-2.
X-93.5 I2.
G1 X-94.5
G0 Z5.
X88.5
G1 Z2. F1250.
Z-1.5 F250.
X89.5 F1250.
G3 X85.5 I-2.
X89.5 I2.
G1 X88.5
G0 Z5.
X96.5
G1 Z2. F1250.
Z-1.5 F250.
X97.5 F1250.
G3 X93.5 I-2.
X97.5 I2.
G1 X96.5
G0 Z15.
G91
G28 Z0.
M5
G28 X0. Y0.
M30
%
