%
O00001048
(T2  D=2. CR=0. - ZMIN=-3. - FLAT END MILL)
G90 G94 G17
G21
G91
G28 Z0.
G90
(2D POCKET1)
T2 M6
S8000 M3
G54
G0 X-51.724 Y17.36
G43 Z15. H2
G0 Z5.
G1 Z1.5 F1500.
Z-0.3
X-51.723 Y17.366 Z-0.352
X-51.718 Y17.386 Z-0.4
X-51.711 Y17.417 Z-0.441
X-51.701 Y17.457 Z-0.473
X-51.69 Y17.504 Z-0.493
X-51.678 Y17.554 Z-0.5
X-51.673 Y17.574
G2 X-51.155 Y18.449 I1.673 J-0.399 F320.
G3 X-51.136 Y18.845 I-0.188 J0.207
X-51.386 Y18.916 I-0.182 J-0.165
X-51.609 Y18.784 I0.144 J-0.499
G2 X-52.426 Y18.327 I-1.216 J1.216
G1 X-55.574
G2 X-56.449 Y18.845 I0.399 J1.673
G3 X-56.845 Y18.864 I-0.207 J-0.188
X-56.916 Y18.614 I0.165 J-0.182
X-56.784 Y18.391 I0.499 J0.144
G2 X-56.327 Y17.574 I-1.216 J-1.216
G1 X-56.129 Y16.745 F1500.
X-56.117 Y16.695 Z-0.493
X-56.106 Y16.648 Z-0.473
X-56.097 Y16.608 Z-0.441
X-56.089 Y16.577 Z-0.4
X-56.085 Y16.557 Z-0.352
X-56.083 Y16.551 Z-0.3
Z1.5
X-54.55 Y18.837
Z-0.44
X-54.552 Y18.841 Z-0.463
X-54.558 Y18.853 Z-0.482
X-54.566 Y18.87 Z-0.495
X-54.577 Y18.891 Z-0.5
G3 X-54.755 Y19. I-0.178 J-0.091
G1 X-55.175 F320.
G2 X-55.916 Y19.328 J1.
G3 X-57.364 Y19.364 I-0.741 J-0.672
X-57.328 Y17.916 I0.707 J-0.707
G2 X-57. Y17.175 I-0.672 J-0.741
G1 Y16.755
G3 X-56.8 Y16.555 I0.2
G1 X-51.2
G3 X-51. Y16.755 J0.2
G1 Y17.175
G2 X-50.672 Y17.916 I1.
G3 X-50.636 Y19.364 I-0.672 J0.741
X-52.084 Y19.328 I-0.707 J-0.707
G2 X-52.825 Y19. I-0.741 J0.672
G1 X-53.245
G3 X-53.4 Y18.674 J-0.2
G1 X-52.117 Y17.097
G3 X-51.768 Y17.177 I0.155 J0.126
G1 X-51.756 Y17.227 Z-0.507 F1500.
X-51.744 Y17.274 Z-0.527
X-51.735 Y17.315 Z-0.559
X-51.728 Y17.345 Z-0.6
X-51.723 Y17.365 Z-0.648
X-51.721 Y17.371 Z-0.7
Z-0.8
X-51.72 Y17.378 Z-0.852
X-51.715 Y17.398 Z-0.9
X-51.708 Y17.428 Z-0.941
X-51.698 Y17.469 Z-0.973
X-51.687 Y17.516 Z-0.993
X-51.675 Y17.566 Z-1.
X-51.673 Y17.574
G2 X-51.155 Y18.449 I1.673 J-0.399 F320.
G3 X-51.136 Y18.845 I-0.188 J0.207
X-51.386 Y18.916 I-0.182 J-0.165
X-51.609 Y18.784 I0.144 J-0.499
G2 X-52.426 Y18.327 I-1.216 J1.216
G1 X-55.574
G2 X-56.449 Y18.845 I0.399 J1.673
G3 X-56.845 Y18.864 I-0.207 J-0.188
X-56.916 Y18.614 I0.165 J-0.182
X-56.784 Y18.391 I0.499 J0.144
G2 X-56.327 Y17.574 I-1.216 J-1.216
G1 X-56.129 Y16.745 F1500.
X-56.117 Y16.695 Z-0.993
X-56.106 Y16.648 Z-0.973
X-56.097 Y16.608 Z-0.941
X-56.089 Y16.577 Z-0.9
X-56.085 Y16.557 Z-0.852
X-56.083 Y16.551 Z-0.8
Z1.
X-54.55 Y18.837
Z-0.94
X-54.552 Y18.841 Z-0.963
X-54.558 Y18.853 Z-0.982
X-54.566 Y18.87 Z-0.995
X-54.577 Y18.891 Z-1.
G3 X-54.755 Y19. I-0.178 J-0.091
G1 X-55.175 F320.
G2 X-55.916 Y19.328 J1.
G3 X-57.364 Y19.364 I-0.741 J-0.672
X-57.328 Y17.916 I0.707 J-0.707
G2 X-57. Y17.175 I-0.672 J-0.741
G1 Y16.755
G3 X-56.8 Y16.555 I0.2
G1 X-51.2
G3 X-51. Y16.755 J0.2
G1 Y17.175
G2 X-50.672 Y17.916 I1.
G3 X-50.636 Y19.364 I-0.672 J0.741
X-52.084 Y19.328 I-0.707 J-0.707
G2 X-52.825 Y19. I-0.741 J0.672
G1 X-53.245
G3 X-53.4 Y18.674 J-0.2
G1 X-52.117 Y17.097
G3 X-51.768 Y17.177 I0.155 J0.126
G1 X-51.756 Y17.227 Z-1.007 F1500.
X-51.744 Y17.274 Z-1.027
X-51.735 Y17.315 Z-1.059
X-51.728 Y17.345 Z-1.1
X-51.723 Y17.365 Z-1.148
X-51.721 Y17.371 Z-1.2
Z-1.3
X-51.72 Y17.378 Z-1.352
X-51.715 Y17.398 Z-1.4
X-51.708 Y17.428 Z-1.441
X-51.698 Y17.469 Z-1.473
X-51.687 Y17.516 Z-1.493
X-51.675 Y17.566 Z-1.5
X-51.673 Y17.574
G2 X-51.155 Y18.449 I1.673 J-0.399 F320.
G3 X-51.136 Y18.845 I-0.188 J0.207
X-51.386 Y18.916 I-0.182 J-0.165
X-51.609 Y18.784 I0.144 J-0.499
G2 X-52.426 Y18.327 I-1.216 J1.216
G1 X-55.574
G2 X-56.449 Y18.845 I0.399 J1.673
G3 X-56.845 Y18.864 I-0.207 J-0.188
X-56.916 Y18.614 I0.165 J-0.182
X-56.784 Y18.391 I0.499 J0.144
G2 X-56.327 Y17.574 I-1.216 J-1.216
G1 X-56.129 Y16.745 F1500.
X-56.117 Y16.695 Z-1.493
X-56.106 Y16.648 Z-1.473
X-56.097 Y16.608 Z-1.441
X-56.089 Y16.577 Z-1.4
X-56.085 Y16.557 Z-1.352
X-56.083 Y16.551 Z-1.3
Z0.5
X-54.55 Y18.837
Z-1.44
X-54.552 Y18.841 Z-1.463
X-54.558 Y18.853 Z-1.482
X-54.566 Y18.87 Z-1.495
X-54.577 Y18.891 Z-1.5
G3 X-54.755 Y19. I-0.178 J-0.091
G1 X-55.175 F320.
G2 X-55.916 Y19.328 J1.
G3 X-57.364 Y19.364 I-0.741 J-0.672
X-57.328 Y17.916 I0.707 J-0.707
G2 X-57. Y17.175 I-0.672 J-0.741
G1 Y16.755
G3 X-56.8 Y16.555 I0.2
G1 X-51.2
G3 X-51. Y16.755 J0.2
G1 Y17.175
G2 X-50.672 Y17.916 I1.
G3 X-50.636 Y19.364 I-0.672 J0.741
X-52.084 Y19.328 I-0.707 J-0.707
G2 X-52.825 Y19. I-0.741 J0.672
G1 X-53.245
G3 X-53.4 Y18.674 J-0.2
G1 X-52.117 Y17.097
G3 X-51.768 Y17.177 I0.155 J0.126
G1 X-51.756 Y17.227 Z-1.507 F1500.
X-51.744 Y17.274 Z-1.527
X-51.735 Y17.315 Z-1.559
X-51.728 Y17.345 Z-1.6
X-51.723 Y17.365 Z-1.648
X-51.721 Y17.371 Z-1.7
Z-1.8
X-51.72 Y17.378 Z-1.852
X-51.715 Y17.398 Z-1.9
X-51.708 Y17.428 Z-1.941
X-51.698 Y17.469 Z-1.973
X-51.687 Y17.516 Z-1.993
X-51.675 Y17.566 Z-2.
X-51.673 Y17.574
G2 X-51.155 Y18.449 I1.673 J-0.399 F320.
G3 X-51.136 Y18.845 I-0.188 J0.207
X-51.386 Y18.916 I-0.182 J-0.165
X-51.609 Y18.784 I0.144 J-0.499
G2 X-52.426 Y18.327 I-1.216 J1.216
G1 X-55.574
G2 X-56.449 Y18.845 I0.399 J1.673
G3 X-56.845 Y18.864 I-0.207 J-0.188
X-56.916 Y18.614 I0.165 J-0.182
X-56.784 Y18.391 I0.499 J0.144
G2 X-56.327 Y17.574 I-1.216 J-1.216
G1 X-56.129 Y16.745 F1500.
X-56.117 Y16.695 Z-1.993
X-56.106 Y16.648 Z-1.973
X-56.097 Y16.608 Z-1.941
X-56.089 Y16.577 Z-1.9
X-56.085 Y16.557 Z-1.852
X-56.083 Y16.551 Z-1.8
Z0.
X-54.55 Y18.837
Z-1.94
X-54.552 Y18.841 Z-1.963
X-54.558 Y18.853 Z-1.982
X-54.566 Y18.87 Z-1.995
X-54.577 Y18.891 Z-2.
G3 X-54.755 Y19. I-0.178 J-0.091
G1 X-55.175 F320.
G2 X-55.916 Y19.328 J1.
G3 X-57.364 Y19.364 I-0.741 J-0.672
X-57.328 Y17.916 I0.707 J-0.707
G2 X-57. Y17.175 I-0.672 J-0.741
G1 Y16.755
G3 X-56.8 Y16.555 I0.2
G1 X-51.2
G3 X-51. Y16.755 J0.2
G1 Y17.175
G2 X-50.672 Y17.916 I1.
G3 X-50.636 Y19.364 I-0.672 J0.741
X-52.084 Y19.328 I-0.707 J-0.707
G2 X-52.825 Y19. I-0.741 J0.672
G1 X-53.245
G3 X-53.4 Y18.674 J-0.2
G1 X-52.117 Y17.097
G3 X-51.768 Y17.177 I0.155 J0.126
G1 X-51.756 Y17.227 Z-2.007 F1500.
X-51.744 Y17.274 Z-2.027
X-51.735 Y17.315 Z-2.059
X-51.728 Y17.345 Z-2.1
X-51.723 Y17.365 Z-2.148
X-51.721 Y17.371 Z-2.2
Z-2.3
X-51.72 Y17.378 Z-2.352
X-51.715 Y17.398 Z-2.4
X-51.708 Y17.428 Z-2.441
X-51.698 Y17.469 Z-2.473
X-51.687 Y17.516 Z-2.493
X-51.675 Y17.566 Z-2.5
X-51.673 Y17.574
G2 X-51.155 Y18.449 I1.673 J-0.399 F320.
G3 X-51.136 Y18.845 I-0.188 J0.207
X-51.386 Y18.916 I-0.182 J-0.165
X-51.609 Y18.784 I0.144 J-0.499
G2 X-52.426 Y18.327 I-1.216 J1.216
G1 X-55.574
G2 X-56.449 Y18.845 I0.399 J1.673
G3 X-56.845 Y18.864 I-0.207 J-0.188
X-56.916 Y18.614 I0.165 J-0.182
X-56.784 Y18.391 I0.499 J0.144
G2 X-56.327 Y17.574 I-1.216 J-1.216
G1 X-56.129 Y16.745 F1500.
X-56.117 Y16.695 Z-2.493
X-56.106 Y16.648 Z-2.473
X-56.097 Y16.608 Z-2.441
X-56.089 Y16.577 Z-2.4
X-56.085 Y16.557 Z-2.352
X-56.083 Y16.551 Z-2.3
Z-0.5
X-54.55 Y18.837
Z-2.44
X-54.552 Y18.841 Z-2.463
X-54.558 Y18.853 Z-2.482
X-54.566 Y18.87 Z-2.495
X-54.577 Y18.891 Z-2.5
G3 X-54.755 Y19. I-0.178 J-0.091
G1 X-55.175 F320.
G2 X-55.916 Y19.328 J1.
G3 X-57.364 Y19.364 I-0.741 J-0.672
X-57.328 Y17.916 I0.707 J-0.707
G2 X-57. Y17.175 I-0.672 J-0.741
G1 Y16.755
G3 X-56.8 Y16.555 I0.2
G1 X-51.2
G3 X-51. Y16.755 J0.2
G1 Y17.175
G2 X-50.672 Y17.916 I1.
G3 X-50.636 Y19.364 I-0.672 J0.741
X-52.084 Y19.328 I-0.707 J-0.707
G2 X-52.825 Y19. I-0.741 J0.672
G1 X-53.245
G3 X-53.4 Y18.674 J-0.2
G1 X-52.117 Y17.097
G3 X-51.768 Y17.177 I0.155 J0.126
G1 X-51.756 Y17.227 Z-2.507 F1500.
X-51.744 Y17.274 Z-2.527
X-51.735 Y17.315 Z-2.559
X-51.728 Y17.345 Z-2.6
X-51.723 Y17.365 Z-2.648
X-51.721 Y17.371 Z-2.7
Z-2.8
X-51.72 Y17.378 Z-2.852
X-51.715 Y17.398 Z-2.9
X-51.708 Y17.428 Z-2.941
X-51.698 Y17.469 Z-2.973
X-51.687 Y17.516 Z-2.993
X-51.675 Y17.566 Z-3.
X-51.673 Y17.574
G2 X-51.155 Y18.449 I1.673 J-0.399 F320.
G3 X-51.136 Y18.845 I-0.188 J0.207
X-51.386 Y18.916 I-0.182 J-0.165
X-51.609 Y18.784 I0.144 J-0.499
G2 X-52.426 Y18.327 I-1.216 J1.216
G1 X-55.574
G2 X-56.449 Y18.845 I0.399 J1.673
G3 X-56.845 Y18.864 I-0.207 J-0.188
X-56.916 Y18.614 I0.165 J-0.182
X-56.784 Y18.391 I0.499 J0.144
G2 X-56.327 Y17.574 I-1.216 J-1.216
G1 X-56.129 Y16.745 F1500.
X-56.117 Y16.695 Z-2.993
X-56.106 Y16.648 Z-2.973
X-56.097 Y16.608 Z-2.941
X-56.089 Y16.577 Z-2.9
X-56.085 Y16.557 Z-2.852
X-56.083 Y16.551 Z-2.8
Z-1.
X-54.55 Y18.837
Z-2.94
X-54.552 Y18.841 Z-2.963
X-54.558 Y18.853 Z-2.982
X-54.566 Y18.87 Z-2.995
X-54.577 Y18.891 Z-3.
G3 X-54.755 Y19. I-0.178 J-0.091
G1 X-55.175 F320.
G2 X-55.916 Y19.328 J1.
G3 X-57.364 Y19.364 I-0.741 J-0.672
X-57.328 Y17.916 I0.707 J-0.707
G2 X-57. Y17.175 I-0.672 J-0.741
G1 Y16.755
G3 X-56.8 Y16.555 I0.2
G1 X-51.2
G3 X-51. Y16.755 J0.2
G1 Y17.175
G2 X-50.672 Y17.916 I1.
G3 X-50.636 Y19.364 I-0.672 J0.741
X-52.084 Y19.328 I-0.707 J-0.707
G2 X-52.825 Y19. I-0.741 J0.672
G1 X-53.245
G3 X-53.276 Y18.998 J-0.2 F1500.
G1 X-54.264 Y18.841
X-54.315 Y18.833 Z-2.993
X-54.363 Y18.825 Z-2.973
X-54.404 Y18.819 Z-2.941
X-54.435 Y18.814 Z-2.9
X-54.455 Y18.811 Z-2.852
X-54.461 Y18.81 Z-2.8
G0 Z5.
X-56.276 Y-67.36
G1 Z1.5 F1500.
Z-0.3
X-56.277 Y-67.366 Z-0.352
X-56.282 Y-67.386 Z-0.4
X-56.289 Y-67.417 Z-0.441
X-56.299 Y-67.457 Z-0.473
X-56.31 Y-67.504 Z-0.493
X-56.322 Y-67.554 Z-0.5
X-56.327 Y-67.574
G2 X-56.845 Y-68.449 I-1.673 J0.399 F320.
G3 X-56.864 Y-68.845 I0.188 J-0.207
X-56.614 Y-68.916 I0.182 J0.165
X-56.391 Y-68.784 I-0.144 J0.499
G2 X-55.574 Y-68.327 I1.216 J-1.216
G1 X-52.426
G2 X-51.551 Y-68.845 I-0.399 J-1.673
G3 X-51.155 Y-68.864 I0.207 J0.188
X-51.084 Y-68.614 I-0.165 J0.182
X-51.216 Y-68.391 I-0.499 J-0.144
G2 X-51.673 Y-67.574 I1.216 J1.216
G1 X-51.871 Y-66.745 F1500.
X-51.883 Y-66.695 Z-0.493
X-51.894 Y-66.648 Z-0.473
X-51.903 Y-66.608 Z-0.441
X-51.911 Y-66.577 Z-0.4
X-51.915 Y-66.557 Z-0.352
X-51.917 Y-66.551 Z-0.3
Z1.5
X-53.45 Y-68.837
Z-0.44
X-53.448 Y-68.841 Z-0.463
X-53.442 Y-68.853 Z-0.482
X-53.434 Y-68.87 Z-0.495
X-53.423 Y-68.891 Z-0.5
G3 X-53.245 Y-69. I0.178 J0.091
G1 X-52.825 F320.
G2 X-52.084 Y-69.328 J-1.
G3 X-50.636 Y-69.364 I0.741 J0.672
X-50.672 Y-67.916 I-0.707 J0.707
G2 X-51. Y-67.175 I0.672 J0.741
G1 Y-66.755
G3 X-51.2 Y-66.555 I-0.2
G1 X-56.8
G3 X-57. Y-66.755 J-0.2
G1 Y-67.175
G2 X-57.328 Y-67.916 I-1.
G3 X-57.364 Y-69.364 I0.672 J-0.741
X-55.916 Y-69.328 I0.707 J0.707
G2 X-55.175 Y-69. I0.741 J-0.672
G1 X-54.755
G3 X-54.6 Y-68.674 J0.2
G1 X-55.883 Y-67.097
G3 X-56.232 Y-67.177 I-0.155 J-0.126
G1 X-56.244 Y-67.227 Z-0.507 F1500.
X-56.256 Y-67.274 Z-0.527
X-56.265 Y-67.315 Z-0.559
X-56.272 Y-67.345 Z-0.6
X-56.277 Y-67.365 Z-0.648
X-56.279 Y-67.371 Z-0.7
Z-0.8
X-56.28 Y-67.378 Z-0.852
X-56.285 Y-67.398 Z-0.9
X-56.292 Y-67.428 Z-0.941
X-56.302 Y-67.469 Z-0.973
X-56.313 Y-67.516 Z-0.993
X-56.325 Y-67.566 Z-1.
X-56.327 Y-67.574
G2 X-56.845 Y-68.449 I-1.673 J0.399 F320.
G3 X-56.864 Y-68.845 I0.188 J-0.207
X-56.614 Y-68.916 I0.182 J0.165
X-56.391 Y-68.784 I-0.144 J0.499
G2 X-55.574 Y-68.327 I1.216 J-1.216
G1 X-52.426
G2 X-51.551 Y-68.845 I-0.399 J-1.673
G3 X-51.155 Y-68.864 I0.207 J0.188
X-51.084 Y-68.614 I-0.165 J0.182
X-51.216 Y-68.391 I-0.499 J-0.144
G2 X-51.673 Y-67.574 I1.216 J1.216
G1 X-51.871 Y-66.745 F1500.
X-51.883 Y-66.695 Z-0.993
X-51.894 Y-66.648 Z-0.973
X-51.903 Y-66.608 Z-0.941
X-51.911 Y-66.577 Z-0.9
X-51.915 Y-66.557 Z-0.852
X-51.917 Y-66.551 Z-0.8
Z1.
X-53.45 Y-68.837
Z-0.94
X-53.448 Y-68.841 Z-0.963
X-53.442 Y-68.853 Z-0.982
X-53.434 Y-68.87 Z-0.995
X-53.423 Y-68.891 Z-1.
G3 X-53.245 Y-69. I0.178 J0.091
G1 X-52.825 F320.
G2 X-52.084 Y-69.328 J-1.
G3 X-50.636 Y-69.364 I0.741 J0.672
X-50.672 Y-67.916 I-0.707 J0.707
G2 X-51. Y-67.175 I0.672 J0.741
G1 Y-66.755
G3 X-51.2 Y-66.555 I-0.2
G1 X-56.8
G3 X-57. Y-66.755 J-0.2
G1 Y-67.175
G2 X-57.328 Y-67.916 I-1.
G3 X-57.364 Y-69.364 I0.672 J-0.741
X-55.916 Y-69.328 I0.707 J0.707
G2 X-55.175 Y-69. I0.741 J-0.672
G1 X-54.755
G3 X-54.6 Y-68.674 J0.2
G1 X-55.883 Y-67.097
G3 X-56.232 Y-67.177 I-0.155 J-0.126
G1 X-56.244 Y-67.227 Z-1.007 F1500.
X-56.256 Y-67.274 Z-1.027
X-56.265 Y-67.315 Z-1.059
X-56.272 Y-67.345 Z-1.1
X-56.277 Y-67.365 Z-1.148
X-56.279 Y-67.371 Z-1.2
Z-1.3
X-56.28 Y-67.378 Z-1.352
X-56.285 Y-67.398 Z-1.4
X-56.292 Y-67.428 Z-1.441
X-56.302 Y-67.469 Z-1.473
X-56.313 Y-67.516 Z-1.493
X-56.325 Y-67.566 Z-1.5
X-56.327 Y-67.574
G2 X-56.845 Y-68.449 I-1.673 J0.399 F320.
G3 X-56.864 Y-68.845 I0.188 J-0.207
X-56.614 Y-68.916 I0.182 J0.165
X-56.391 Y-68.784 I-0.144 J0.499
G2 X-55.574 Y-68.327 I1.216 J-1.216
G1 X-52.426
G2 X-51.551 Y-68.845 I-0.399 J-1.673
G3 X-51.155 Y-68.864 I0.207 J0.188
X-51.084 Y-68.614 I-0.165 J0.182
X-51.216 Y-68.391 I-0.499 J-0.144
G2 X-51.673 Y-67.574 I1.216 J1.216
G1 X-51.871 Y-66.745 F1500.
X-51.883 Y-66.695 Z-1.493
X-51.894 Y-66.648 Z-1.473
X-51.903 Y-66.608 Z-1.441
X-51.911 Y-66.577 Z-1.4
X-51.915 Y-66.557 Z-1.352
X-51.917 Y-66.551 Z-1.3
Z0.5
X-53.45 Y-68.837
Z-1.44
X-53.448 Y-68.841 Z-1.463
X-53.442 Y-68.853 Z-1.482
X-53.434 Y-68.87 Z-1.495
X-53.423 Y-68.891 Z-1.5
G3 X-53.245 Y-69. I0.178 J0.091
G1 X-52.825 F320.
G2 X-52.084 Y-69.328 J-1.
G3 X-50.636 Y-69.364 I0.741 J0.672
X-50.672 Y-67.916 I-0.707 J0.707
G2 X-51. Y-67.175 I0.672 J0.741
G1 Y-66.755
G3 X-51.2 Y-66.555 I-0.2
G1 X-56.8
G3 X-57. Y-66.755 J-0.2
G1 Y-67.175
G2 X-57.328 Y-67.916 I-1.
G3 X-57.364 Y-69.364 I0.672 J-0.741
X-55.916 Y-69.328 I0.707 J0.707
G2 X-55.175 Y-69. I0.741 J-0.672
G1 X-54.755
G3 X-54.6 Y-68.674 J0.2
G1 X-55.883 Y-67.097
G3 X-56.232 Y-67.177 I-0.155 J-0.126
G1 X-56.244 Y-67.227 Z-1.507 F1500.
X-56.256 Y-67.274 Z-1.527
X-56.265 Y-67.315 Z-1.559
X-56.272 Y-67.345 Z-1.6
X-56.277 Y-67.365 Z-1.648
X-56.279 Y-67.371 Z-1.7
Z-1.8
X-56.28 Y-67.378 Z-1.852
X-56.285 Y-67.398 Z-1.9
X-56.292 Y-67.428 Z-1.941
X-56.302 Y-67.469 Z-1.973
X-56.313 Y-67.516 Z-1.993
X-56.325 Y-67.566 Z-2.
X-56.327 Y-67.574
G2 X-56.845 Y-68.449 I-1.673 J0.399 F320.
G3 X-56.864 Y-68.845 I0.188 J-0.207
X-56.614 Y-68.916 I0.182 J0.165
X-56.391 Y-68.784 I-0.144 J0.499
G2 X-55.574 Y-68.327 I1.216 J-1.216
G1 X-52.426
G2 X-51.551 Y-68.845 I-0.399 J-1.673
G3 X-51.155 Y-68.864 I0.207 J0.188
X-51.084 Y-68.614 I-0.165 J0.182
X-51.216 Y-68.391 I-0.499 J-0.144
G2 X-51.673 Y-67.574 I1.216 J1.216
G1 X-51.871 Y-66.745 F1500.
X-51.883 Y-66.695 Z-1.993
X-51.894 Y-66.648 Z-1.973
X-51.903 Y-66.608 Z-1.941
X-51.911 Y-66.577 Z-1.9
X-51.915 Y-66.557 Z-1.852
X-51.917 Y-66.551 Z-1.8
Z0.
X-53.45 Y-68.837
Z-1.94
X-53.448 Y-68.841 Z-1.963
X-53.442 Y-68.853 Z-1.982
X-53.434 Y-68.87 Z-1.995
X-53.423 Y-68.891 Z-2.
G3 X-53.245 Y-69. I0.178 J0.091
G1 X-52.825 F320.
G2 X-52.084 Y-69.328 J-1.
G3 X-50.636 Y-69.364 I0.741 J0.672
X-50.672 Y-67.916 I-0.707 J0.707
G2 X-51. Y-67.175 I0.672 J0.741
G1 Y-66.755
G3 X-51.2 Y-66.555 I-0.2
G1 X-56.8
G3 X-57. Y-66.755 J-0.2
G1 Y-67.175
G2 X-57.328 Y-67.916 I-1.
G3 X-57.364 Y-69.364 I0.672 J-0.741
X-55.916 Y-69.328 I0.707 J0.707
G2 X-55.175 Y-69. I0.741 J-0.672
G1 X-54.755
G3 X-54.6 Y-68.674 J0.2
G1 X-55.883 Y-67.097
G3 X-56.232 Y-67.177 I-0.155 J-0.126
G1 X-56.244 Y-67.227 Z-2.007 F1500.
X-56.256 Y-67.274 Z-2.027
X-56.265 Y-67.315 Z-2.059
X-56.272 Y-67.345 Z-2.1
X-56.277 Y-67.365 Z-2.148
X-56.279 Y-67.371 Z-2.2
Z-2.3
X-56.28 Y-67.378 Z-2.352
X-56.285 Y-67.398 Z-2.4
X-56.292 Y-67.428 Z-2.441
X-56.302 Y-67.469 Z-2.473
X-56.313 Y-67.516 Z-2.493
X-56.325 Y-67.566 Z-2.5
X-56.327 Y-67.574
G2 X-56.845 Y-68.449 I-1.673 J0.399 F320.
G3 X-56.864 Y-68.845 I0.188 J-0.207
X-56.614 Y-68.916 I0.182 J0.165
X-56.391 Y-68.784 I-0.144 J0.499
G2 X-55.574 Y-68.327 I1.216 J-1.216
G1 X-52.426
G2 X-51.551 Y-68.845 I-0.399 J-1.673
G3 X-51.155 Y-68.864 I0.207 J0.188
X-51.084 Y-68.614 I-0.165 J0.182
X-51.216 Y-68.391 I-0.499 J-0.144
G2 X-51.673 Y-67.574 I1.216 J1.216
G1 X-51.871 Y-66.745 F1500.
X-51.883 Y-66.695 Z-2.493
X-51.894 Y-66.648 Z-2.473
X-51.903 Y-66.608 Z-2.441
X-51.911 Y-66.577 Z-2.4
X-51.915 Y-66.557 Z-2.352
X-51.917 Y-66.551 Z-2.3
Z-0.5
X-53.45 Y-68.837
Z-2.44
X-53.448 Y-68.841 Z-2.463
X-53.442 Y-68.853 Z-2.482
X-53.434 Y-68.87 Z-2.495
X-53.423 Y-68.891 Z-2.5
G3 X-53.245 Y-69. I0.178 J0.091
G1 X-52.825 F320.
G2 X-52.084 Y-69.328 J-1.
G3 X-50.636 Y-69.364 I0.741 J0.672
X-50.672 Y-67.916 I-0.707 J0.707
G2 X-51. Y-67.175 I0.672 J0.741
G1 Y-66.755
G3 X-51.2 Y-66.555 I-0.2
G1 X-56.8
G3 X-57. Y-66.755 J-0.2
G1 Y-67.175
G2 X-57.328 Y-67.916 I-1.
G3 X-57.364 Y-69.364 I0.672 J-0.741
X-55.916 Y-69.328 I0.707 J0.707
G2 X-55.175 Y-69. I0.741 J-0.672
G1 X-54.755
G3 X-54.6 Y-68.674 J0.2
G1 X-55.883 Y-67.097
G3 X-56.232 Y-67.177 I-0.155 J-0.126
G1 X-56.244 Y-67.227 Z-2.507 F1500.
X-56.256 Y-67.274 Z-2.527
X-56.265 Y-67.315 Z-2.559
X-56.272 Y-67.345 Z-2.6
X-56.277 Y-67.365 Z-2.648
X-56.279 Y-67.371 Z-2.7
Z-2.8
X-56.28 Y-67.378 Z-2.852
X-56.285 Y-67.398 Z-2.9
X-56.292 Y-67.428 Z-2.941
X-56.302 Y-67.469 Z-2.973
X-56.313 Y-67.516 Z-2.993
X-56.325 Y-67.566 Z-3.
X-56.327 Y-67.574
G2 X-56.845 Y-68.449 I-1.673 J0.399 F320.
G3 X-56.864 Y-68.845 I0.188 J-0.207
X-56.614 Y-68.916 I0.182 J0.165
X-56.391 Y-68.784 I-0.144 J0.499
G2 X-55.574 Y-68.327 I1.216 J-1.216
G1 X-52.426
G2 X-51.551 Y-68.845 I-0.399 J-1.673
G3 X-51.155 Y-68.864 I0.207 J0.188
X-51.084 Y-68.614 I-0.165 J0.182
X-51.216 Y-68.391 I-0.499 J-0.144
G2 X-51.673 Y-67.574 I1.216 J1.216
G1 X-51.871 Y-66.745 F1500.
X-51.883 Y-66.695 Z-2.993
X-51.894 Y-66.648 Z-2.973
X-51.903 Y-66.608 Z-2.941
X-51.911 Y-66.577 Z-2.9
X-51.915 Y-66.557 Z-2.852
X-51.917 Y-66.551 Z-2.8
Z-1.
X-53.45 Y-68.837
Z-2.94
X-53.448 Y-68.841 Z-2.963
X-53.442 Y-68.853 Z-2.982
X-53.434 Y-68.87 Z-2.995
X-53.423 Y-68.891 Z-3.
G3 X-53.245 Y-69. I0.178 J0.091
G1 X-52.825 F320.
G2 X-52.084 Y-69.328 J-1.
G3 X-50.636 Y-69.364 I0.741 J0.672
X-50.672 Y-67.916 I-0.707 J0.707
G2 X-51. Y-67.175 I0.672 J0.741
G1 Y-66.755
G3 X-51.2 Y-66.555 I-0.2
G1 X-56.8
G3 X-57. Y-66.755 J-0.2
G1 Y-67.175
G2 X-57.328 Y-67.916 I-1.
G3 X-57.364 Y-69.364 I0.672 J-0.741
X-55.916 Y-69.328 I0.707 J0.707
G2 X-55.175 Y-69. I0.741 J-0.672
G1 X-54.755
G3 X-54.724 Y-68.998 J0.2 F1500.
G1 X-53.736 Y-68.841
X-53.685 Y-68.833 Z-2.993
X-53.637 Y-68.825 Z-2.973
X-53.596 Y-68.819 Z-2.941
X-53.565 Y-68.814 Z-2.9
X-53.545 Y-68.811 Z-2.852
X-53.539 Y-68.81 Z-2.8
G0 Z15.
X51.724 Y-67.36
Z5.
G1 Z1.5 F1500.
Z-0.3
X51.723 Y-67.366 Z-0.352
X51.718 Y-67.386 Z-0.4
X51.711 Y-67.417 Z-0.441
X51.701 Y-67.457 Z-0.473
X51.69 Y-67.504 Z-0.493
X51.678 Y-67.554 Z-0.5
X51.673 Y-67.574
G2 X51.155 Y-68.449 I-1.673 J0.399 F320.
G3 X51.136 Y-68.845 I0.188 J-0.207
X51.386 Y-68.916 I0.182 J0.165
X51.609 Y-68.784 I-0.144 J0.499
G2 X52.426 Y-68.327 I1.216 J-1.216
G1 X55.574
G2 X56.449 Y-68.845 I-0.399 J-1.673
G3 X56.845 Y-68.864 I0.207 J0.188
X56.916 Y-68.614 I-0.165 J0.182
X56.784 Y-68.391 I-0.499 J-0.144
G2 X56.327 Y-67.574 I1.216 J1.216
G1 X56.129 Y-66.745 F1500.
X56.117 Y-66.695 Z-0.493
X56.106 Y-66.648 Z-0.473
X56.097 Y-66.608 Z-0.441
X56.089 Y-66.577 Z-0.4
X56.085 Y-66.557 Z-0.352
X56.083 Y-66.551 Z-0.3
Z1.5
X54.55 Y-68.837
Z-0.44
X54.552 Y-68.841 Z-0.463
X54.558 Y-68.853 Z-0.482
X54.566 Y-68.87 Z-0.495
X54.577 Y-68.891 Z-0.5
G3 X54.755 Y-69. I0.178 J0.091
G1 X55.175 F320.
G2 X55.916 Y-69.328 J-1.
G3 X57.364 Y-69.364 I0.741 J0.672
X57.328 Y-67.916 I-0.707 J0.707
G2 X57. Y-67.175 I0.672 J0.741
G1 Y-66.755
G3 X56.8 Y-66.555 I-0.2
G1 X51.2
G3 X51. Y-66.755 J-0.2
G1 Y-67.175
G2 X50.672 Y-67.916 I-1.
G3 X50.636 Y-69.364 I0.672 J-0.741
X52.084 Y-69.328 I0.707 J0.707
G2 X52.825 Y-69. I0.741 J-0.672
G1 X53.245
G3 X53.4 Y-68.674 J0.2
G1 X52.117 Y-67.097
G3 X51.768 Y-67.177 I-0.155 J-0.126
G1 X51.756 Y-67.227 Z-0.507 F1500.
X51.744 Y-67.274 Z-0.527
X51.735 Y-67.315 Z-0.559
X51.728 Y-67.345 Z-0.6
X51.723 Y-67.365 Z-0.648
X51.721 Y-67.371 Z-0.7
Z-0.8
X51.72 Y-67.378 Z-0.852
X51.715 Y-67.398 Z-0.9
X51.708 Y-67.428 Z-0.941
X51.698 Y-67.469 Z-0.973
X51.687 Y-67.516 Z-0.993
X51.675 Y-67.566 Z-1.
X51.673 Y-67.574
G2 X51.155 Y-68.449 I-1.673 J0.399 F320.
G3 X51.136 Y-68.845 I0.188 J-0.207
X51.386 Y-68.916 I0.182 J0.165
X51.609 Y-68.784 I-0.144 J0.499
G2 X52.426 Y-68.327 I1.216 J-1.216
G1 X55.574
G2 X56.449 Y-68.845 I-0.399 J-1.673
G3 X56.845 Y-68.864 I0.207 J0.188
X56.916 Y-68.614 I-0.165 J0.182
X56.784 Y-68.391 I-0.499 J-0.144
G2 X56.327 Y-67.574 I1.216 J1.216
G1 X56.129 Y-66.745 F1500.
X56.117 Y-66.695 Z-0.993
X56.106 Y-66.648 Z-0.973
X56.097 Y-66.608 Z-0.941
X56.089 Y-66.577 Z-0.9
X56.085 Y-66.557 Z-0.852
X56.083 Y-66.551 Z-0.8
Z1.
X54.55 Y-68.837
Z-0.94
X54.552 Y-68.841 Z-0.963
X54.558 Y-68.853 Z-0.982
X54.566 Y-68.87 Z-0.995
X54.577 Y-68.891 Z-1.
G3 X54.755 Y-69. I0.178 J0.091
G1 X55.175 F320.
G2 X55.916 Y-69.328 J-1.
G3 X57.364 Y-69.364 I0.741 J0.672
X57.328 Y-67.916 I-0.707 J0.707
G2 X57. Y-67.175 I0.672 J0.741
G1 Y-66.755
G3 X56.8 Y-66.555 I-0.2
G1 X51.2
G3 X51. Y-66.755 J-0.2
G1 Y-67.175
G2 X50.672 Y-67.916 I-1.
G3 X50.636 Y-69.364 I0.672 J-0.741
X52.084 Y-69.328 I0.707 J0.707
G2 X52.825 Y-69. I0.741 J-0.672
G1 X53.245
G3 X53.4 Y-68.674 J0.2
G1 X52.117 Y-67.097
G3 X51.768 Y-67.177 I-0.155 J-0.126
G1 X51.756 Y-67.227 Z-1.007 F1500.
X51.744 Y-67.274 Z-1.027
X51.735 Y-67.315 Z-1.059
X51.728 Y-67.345 Z-1.1
X51.723 Y-67.365 Z-1.148
X51.721 Y-67.371 Z-1.2
Z-1.3
X51.72 Y-67.378 Z-1.352
X51.715 Y-67.398 Z-1.4
X51.708 Y-67.428 Z-1.441
X51.698 Y-67.469 Z-1.473
X51.687 Y-67.516 Z-1.493
X51.675 Y-67.566 Z-1.5
X51.673 Y-67.574
G2 X51.155 Y-68.449 I-1.673 J0.399 F320.
G3 X51.136 Y-68.845 I0.188 J-0.207
X51.386 Y-68.916 I0.182 J0.165
X51.609 Y-68.784 I-0.144 J0.499
G2 X52.426 Y-68.327 I1.216 J-1.216
G1 X55.574
G2 X56.449 Y-68.845 I-0.399 J-1.673
G3 X56.845 Y-68.864 I0.207 J0.188
X56.916 Y-68.614 I-0.165 J0.182
X56.784 Y-68.391 I-0.499 J-0.144
G2 X56.327 Y-67.574 I1.216 J1.216
G1 X56.129 Y-66.745 F1500.
X56.117 Y-66.695 Z-1.493
X56.106 Y-66.648 Z-1.473
X56.097 Y-66.608 Z-1.441
X56.089 Y-66.577 Z-1.4
X56.085 Y-66.557 Z-1.352
X56.083 Y-66.551 Z-1.3
Z0.5
X54.55 Y-68.837
Z-1.44
X54.552 Y-68.841 Z-1.463
X54.558 Y-68.853 Z-1.482
X54.566 Y-68.87 Z-1.495
X54.577 Y-68.891 Z-1.5
G3 X54.755 Y-69. I0.178 J0.091
G1 X55.175 F320.
G2 X55.916 Y-69.328 J-1.
G3 X57.364 Y-69.364 I0.741 J0.672
X57.328 Y-67.916 I-0.707 J0.707
G2 X57. Y-67.175 I0.672 J0.741
G1 Y-66.755
G3 X56.8 Y-66.555 I-0.2
G1 X51.2
G3 X51. Y-66.755 J-0.2
G1 Y-67.175
G2 X50.672 Y-67.916 I-1.
G3 X50.636 Y-69.364 I0.672 J-0.741
X52.084 Y-69.328 I0.707 J0.707
G2 X52.825 Y-69. I0.741 J-0.672
G1 X53.245
G3 X53.4 Y-68.674 J0.2
G1 X52.117 Y-67.097
G3 X51.768 Y-67.177 I-0.155 J-0.126
G1 X51.756 Y-67.227 Z-1.507 F1500.
X51.744 Y-67.274 Z-1.527
X51.735 Y-67.315 Z-1.559
X51.728 Y-67.345 Z-1.6
X51.723 Y-67.365 Z-1.648
X51.721 Y-67.371 Z-1.7
Z-1.8
X51.72 Y-67.378 Z-1.852
X51.715 Y-67.398 Z-1.9
X51.708 Y-67.428 Z-1.941
X51.698 Y-67.469 Z-1.973
X51.687 Y-67.516 Z-1.993
X51.675 Y-67.566 Z-2.
X51.673 Y-67.574
G2 X51.155 Y-68.449 I-1.673 J0.399 F320.
G3 X51.136 Y-68.845 I0.188 J-0.207
X51.386 Y-68.916 I0.182 J0.165
X51.609 Y-68.784 I-0.144 J0.499
G2 X52.426 Y-68.327 I1.216 J-1.216
G1 X55.574
G2 X56.449 Y-68.845 I-0.399 J-1.673
G3 X56.845 Y-68.864 I0.207 J0.188
X56.916 Y-68.614 I-0.165 J0.182
X56.784 Y-68.391 I-0.499 J-0.144
G2 X56.327 Y-67.574 I1.216 J1.216
G1 X56.129 Y-66.745 F1500.
X56.117 Y-66.695 Z-1.993
X56.106 Y-66.648 Z-1.973
X56.097 Y-66.608 Z-1.941
X56.089 Y-66.577 Z-1.9
X56.085 Y-66.557 Z-1.852
X56.083 Y-66.551 Z-1.8
Z0.
X54.55 Y-68.837
Z-1.94
X54.552 Y-68.841 Z-1.963
X54.558 Y-68.853 Z-1.982
X54.566 Y-68.87 Z-1.995
X54.577 Y-68.891 Z-2.
G3 X54.755 Y-69. I0.178 J0.091
G1 X55.175 F320.
G2 X55.916 Y-69.328 J-1.
G3 X57.364 Y-69.364 I0.741 J0.672
X57.328 Y-67.916 I-0.707 J0.707
G2 X57. Y-67.175 I0.672 J0.741
G1 Y-66.755
G3 X56.8 Y-66.555 I-0.2
G1 X51.2
G3 X51. Y-66.755 J-0.2
G1 Y-67.175
G2 X50.672 Y-67.916 I-1.
G3 X50.636 Y-69.364 I0.672 J-0.741
X52.084 Y-69.328 I0.707 J0.707
G2 X52.825 Y-69. I0.741 J-0.672
G1 X53.245
G3 X53.4 Y-68.674 J0.2
G1 X52.117 Y-67.097
G3 X51.768 Y-67.177 I-0.155 J-0.126
G1 X51.756 Y-67.227 Z-2.007 F1500.
X51.744 Y-67.274 Z-2.027
X51.735 Y-67.315 Z-2.059
X51.728 Y-67.345 Z-2.1
X51.723 Y-67.365 Z-2.148
X51.721 Y-67.371 Z-2.2
Z-2.3
X51.72 Y-67.378 Z-2.352
X51.715 Y-67.398 Z-2.4
X51.708 Y-67.428 Z-2.441
X51.698 Y-67.469 Z-2.473
X51.687 Y-67.516 Z-2.493
X51.675 Y-67.566 Z-2.5
X51.673 Y-67.574
G2 X51.155 Y-68.449 I-1.673 J0.399 F320.
G3 X51.136 Y-68.845 I0.188 J-0.207
X51.386 Y-68.916 I0.182 J0.165
X51.609 Y-68.784 I-0.144 J0.499
G2 X52.426 Y-68.327 I1.216 J-1.216
G1 X55.574
G2 X56.449 Y-68.845 I-0.399 J-1.673
G3 X56.845 Y-68.864 I0.207 J0.188
X56.916 Y-68.614 I-0.165 J0.182
X56.784 Y-68.391 I-0.499 J-0.144
G2 X56.327 Y-67.574 I1.216 J1.216
G1 X56.129 Y-66.745 F1500.
X56.117 Y-66.695 Z-2.493
X56.106 Y-66.648 Z-2.473
X56.097 Y-66.608 Z-2.441
X56.089 Y-66.577 Z-2.4
X56.085 Y-66.557 Z-2.352
X56.083 Y-66.551 Z-2.3
Z-0.5
X54.55 Y-68.837
Z-2.44
X54.552 Y-68.841 Z-2.463
X54.558 Y-68.853 Z-2.482
X54.566 Y-68.87 Z-2.495
X54.577 Y-68.891 Z-2.5
G3 X54.755 Y-69. I0.178 J0.091
G1 X55.175 F320.
G2 X55.916 Y-69.328 J-1.
G3 X57.364 Y-69.364 I0.741 J0.672
X57.328 Y-67.916 I-0.707 J0.707
G2 X57. Y-67.175 I0.672 J0.741
G1 Y-66.755
G3 X56.8 Y-66.555 I-0.2
G1 X51.2
G3 X51. Y-66.755 J-0.2
G1 Y-67.175
G2 X50.672 Y-67.916 I-1.
G3 X50.636 Y-69.364 I0.672 J-0.741
X52.084 Y-69.328 I0.707 J0.707
G2 X52.825 Y-69. I0.741 J-0.672
G1 X53.245
G3 X53.4 Y-68.674 J0.2
G1 X52.117 Y-67.097
G3 X51.768 Y-67.177 I-0.155 J-0.126
G1 X51.756 Y-67.227 Z-2.507 F1500.
X51.744 Y-67.274 Z-2.527
X51.735 Y-67.315 Z-2.559
X51.728 Y-67.345 Z-2.6
X51.723 Y-67.365 Z-2.648
X51.721 Y-67.371 Z-2.7
Z-2.8
X51.72 Y-67.378 Z-2.852
X51.715 Y-67.398 Z-2.9
X51.708 Y-67.428 Z-2.941
X51.698 Y-67.469 Z-2.973
X51.687 Y-67.516 Z-2.993
X51.675 Y-67.566 Z-3.
X51.673 Y-67.574
G2 X51.155 Y-68.449 I-1.673 J0.399 F320.
G3 X51.136 Y-68.845 I0.188 J-0.207
X51.386 Y-68.916 I0.182 J0.165
X51.609 Y-68.784 I-0.144 J0.499
G2 X52.426 Y-68.327 I1.216 J-1.216
G1 X55.574
G2 X56.449 Y-68.845 I-0.399 J-1.673
G3 X56.845 Y-68.864 I0.207 J0.188
X56.916 Y-68.614 I-0.165 J0.182
X56.784 Y-68.391 I-0.499 J-0.144
G2 X56.327 Y-67.574 I1.216 J1.216
G1 X56.129 Y-66.745 F1500.
X56.117 Y-66.695 Z-2.993
X56.106 Y-66.648 Z-2.973
X56.097 Y-66.608 Z-2.941
X56.089 Y-66.577 Z-2.9
X56.085 Y-66.557 Z-2.852
X56.083 Y-66.551 Z-2.8
Z-1.
X54.55 Y-68.837
Z-2.94
X54.552 Y-68.841 Z-2.963
X54.558 Y-68.853 Z-2.982
X54.566 Y-68.87 Z-2.995
X54.577 Y-68.891 Z-3.
G3 X54.755 Y-69. I0.178 J0.091
G1 X55.175 F320.
G2 X55.916 Y-69.328 J-1.
G3 X57.364 Y-69.364 I0.741 J0.672
X57.328 Y-67.916 I-0.707 J0.707
G2 X57. Y-67.175 I0.672 J0.741
G1 Y-66.755
G3 X56.8 Y-66.555 I-0.2
G1 X51.2
G3 X51. Y-66.755 J-0.2
G1 Y-67.175
G2 X50.672 Y-67.916 I-1.
G3 X50.636 Y-69.364 I0.672 J-0.741
X52.084 Y-69.328 I0.707 J0.707
G2 X52.825 Y-69. I0.741 J-0.672
G1 X53.245
G3 X53.276 Y-68.998 J0.2 F1500.
G1 X54.264 Y-68.841
X54.315 Y-68.833 Z-2.993
X54.363 Y-68.825 Z-2.973
X54.404 Y-68.819 Z-2.941
X54.435 Y-68.814 Z-2.9
X54.455 Y-68.811 Z-2.852
X54.461 Y-68.81 Z-2.8
G0 Z5.
X56.276 Y17.36
G1 Z1.5 F1500.
Z-0.3
X56.277 Y17.366 Z-0.352
X56.282 Y17.386 Z-0.4
X56.289 Y17.417 Z-0.441
X56.299 Y17.457 Z-0.473
X56.31 Y17.504 Z-0.493
X56.322 Y17.554 Z-0.5
X56.327 Y17.574
G2 X56.845 Y18.449 I1.673 J-0.399 F320.
G3 X56.864 Y18.845 I-0.188 J0.207
X56.614 Y18.916 I-0.182 J-0.165
X56.391 Y18.784 I0.144 J-0.499
G2 X55.574 Y18.327 I-1.216 J1.216
G1 X52.426
G2 X51.551 Y18.845 I0.399 J1.673
G3 X51.155 Y18.864 I-0.207 J-0.188
X51.084 Y18.614 I0.165 J-0.182
X51.216 Y18.391 I0.499 J0.144
G2 X51.673 Y17.574 I-1.216 J-1.216
G1 X51.871 Y16.745 F1500.
X51.883 Y16.695 Z-0.493
X51.894 Y16.648 Z-0.473
X51.903 Y16.608 Z-0.441
X51.911 Y16.577 Z-0.4
X51.915 Y16.557 Z-0.352
X51.917 Y16.551 Z-0.3
Z1.5
X53.45 Y18.837
Z-0.44
X53.448 Y18.841 Z-0.463
X53.442 Y18.853 Z-0.482
X53.434 Y18.87 Z-0.495
X53.423 Y18.891 Z-0.5
G3 X53.245 Y19. I-0.178 J-0.091
G1 X52.825 F320.
G2 X52.084 Y19.328 J1.
G3 X50.636 Y19.364 I-0.741 J-0.672
X50.672 Y17.916 I0.707 J-0.707
G2 X51. Y17.175 I-0.672 J-0.741
G1 Y16.755
G3 X51.2 Y16.555 I0.2
G1 X56.8
G3 X57. Y16.755 J0.2
G1 Y17.175
G2 X57.328 Y17.916 I1.
G3 X57.364 Y19.364 I-0.672 J0.741
X55.916 Y19.328 I-0.707 J-0.707
G2 X55.175 Y19. I-0.741 J0.672
G1 X54.755
G3 X54.6 Y18.674 J-0.2
G1 X55.883 Y17.097
G3 X56.232 Y17.177 I0.155 J0.126
G1 X56.244 Y17.227 Z-0.507 F1500.
X56.256 Y17.274 Z-0.527
X56.265 Y17.315 Z-0.559
X56.272 Y17.345 Z-0.6
X56.277 Y17.365 Z-0.648
X56.279 Y17.371 Z-0.7
Z-0.8
X56.28 Y17.378 Z-0.852
X56.285 Y17.398 Z-0.9
X56.292 Y17.428 Z-0.941
X56.302 Y17.469 Z-0.973
X56.313 Y17.516 Z-0.993
X56.325 Y17.566 Z-1.
X56.327 Y17.574
G2 X56.845 Y18.449 I1.673 J-0.399 F320.
G3 X56.864 Y18.845 I-0.188 J0.207
X56.614 Y18.916 I-0.182 J-0.165
X56.391 Y18.784 I0.144 J-0.499
G2 X55.574 Y18.327 I-1.216 J1.216
G1 X52.426
G2 X51.551 Y18.845 I0.399 J1.673
G3 X51.155 Y18.864 I-0.207 J-0.188
X51.084 Y18.614 I0.165 J-0.182
X51.216 Y18.391 I0.499 J0.144
G2 X51.673 Y17.574 I-1.216 J-1.216
G1 X51.871 Y16.745 F1500.
X51.883 Y16.695 Z-0.993
X51.894 Y16.648 Z-0.973
X51.903 Y16.608 Z-0.941
X51.911 Y16.577 Z-0.9
X51.915 Y16.557 Z-0.852
X51.917 Y16.551 Z-0.8
Z1.
X53.45 Y18.837
Z-0.94
X53.448 Y18.841 Z-0.963
X53.442 Y18.853 Z-0.982
X53.434 Y18.87 Z-0.995
X53.423 Y18.891 Z-1.
G3 X53.245 Y19. I-0.178 J-0.091
G1 X52.825 F320.
G2 X52.084 Y19.328 J1.
G3 X50.636 Y19.364 I-0.741 J-0.672
X50.672 Y17.916 I0.707 J-0.707
G2 X51. Y17.175 I-0.672 J-0.741
G1 Y16.755
G3 X51.2 Y16.555 I0.2
G1 X56.8
G3 X57. Y16.755 J0.2
G1 Y17.175
G2 X57.328 Y17.916 I1.
G3 X57.364 Y19.364 I-0.672 J0.741
X55.916 Y19.328 I-0.707 J-0.707
G2 X55.175 Y19. I-0.741 J0.672
G1 X54.755
G3 X54.6 Y18.674 J-0.2
G1 X55.883 Y17.097
G3 X56.232 Y17.177 I0.155 J0.126
G1 X56.244 Y17.227 Z-1.007 F1500.
X56.256 Y17.274 Z-1.027
X56.265 Y17.315 Z-1.059
X56.272 Y17.345 Z-1.1
X56.277 Y17.365 Z-1.148
X56.279 Y17.371 Z-1.2
Z-1.3
X56.28 Y17.378 Z-1.352
X56.285 Y17.398 Z-1.4
X56.292 Y17.428 Z-1.441
X56.302 Y17.469 Z-1.473
X56.313 Y17.516 Z-1.493
X56.325 Y17.566 Z-1.5
X56.327 Y17.574
G2 X56.845 Y18.449 I1.673 J-0.399 F320.
G3 X56.864 Y18.845 I-0.188 J0.207
X56.614 Y18.916 I-0.182 J-0.165
X56.391 Y18.784 I0.144 J-0.499
G2 X55.574 Y18.327 I-1.216 J1.216
G1 X52.426
G2 X51.551 Y18.845 I0.399 J1.673
G3 X51.155 Y18.864 I-0.207 J-0.188
X51.084 Y18.614 I0.165 J-0.182
X51.216 Y18.391 I0.499 J0.144
G2 X51.673 Y17.574 I-1.216 J-1.216
G1 X51.871 Y16.745 F1500.
X51.883 Y16.695 Z-1.493
X51.894 Y16.648 Z-1.473
X51.903 Y16.608 Z-1.441
X51.911 Y16.577 Z-1.4
X51.915 Y16.557 Z-1.352
X51.917 Y16.551 Z-1.3
Z0.5
X53.45 Y18.837
Z-1.44
X53.448 Y18.841 Z-1.463
X53.442 Y18.853 Z-1.482
X53.434 Y18.87 Z-1.495
X53.423 Y18.891 Z-1.5
G3 X53.245 Y19. I-0.178 J-0.091
G1 X52.825 F320.
G2 X52.084 Y19.328 J1.
G3 X50.636 Y19.364 I-0.741 J-0.672
X50.672 Y17.916 I0.707 J-0.707
G2 X51. Y17.175 I-0.672 J-0.741
G1 Y16.755
G3 X51.2 Y16.555 I0.2
G1 X56.8
G3 X57. Y16.755 J0.2
G1 Y17.175
G2 X57.328 Y17.916 I1.
G3 X57.364 Y19.364 I-0.672 J0.741
X55.916 Y19.328 I-0.707 J-0.707
G2 X55.175 Y19. I-0.741 J0.672
G1 X54.755
G3 X54.6 Y18.674 J-0.2
G1 X55.883 Y17.097
G3 X56.232 Y17.177 I0.155 J0.126
G1 X56.244 Y17.227 Z-1.507 F1500.
X56.256 Y17.274 Z-1.527
X56.265 Y17.315 Z-1.559
X56.272 Y17.345 Z-1.6
X56.277 Y17.365 Z-1.648
X56.279 Y17.371 Z-1.7
Z-1.8
X56.28 Y17.378 Z-1.852
X56.285 Y17.398 Z-1.9
X56.292 Y17.428 Z-1.941
X56.302 Y17.469 Z-1.973
X56.313 Y17.516 Z-1.993
X56.325 Y17.566 Z-2.
X56.327 Y17.574
G2 X56.845 Y18.449 I1.673 J-0.399 F320.
G3 X56.864 Y18.845 I-0.188 J0.207
X56.614 Y18.916 I-0.182 J-0.165
X56.391 Y18.784 I0.144 J-0.499
G2 X55.574 Y18.327 I-1.216 J1.216
G1 X52.426
G2 X51.551 Y18.845 I0.399 J1.673
G3 X51.155 Y18.864 I-0.207 J-0.188
X51.084 Y18.614 I0.165 J-0.182
X51.216 Y18.391 I0.499 J0.144
G2 X51.673 Y17.574 I-1.216 J-1.216
G1 X51.871 Y16.745 F1500.
X51.883 Y16.695 Z-1.993
X51.894 Y16.648 Z-1.973
X51.903 Y16.608 Z-1.941
X51.911 Y16.577 Z-1.9
X51.915 Y16.557 Z-1.852
X51.917 Y16.551 Z-1.8
Z0.
X53.45 Y18.837
Z-1.94
X53.448 Y18.841 Z-1.963
X53.442 Y18.853 Z-1.982
X53.434 Y18.87 Z-1.995
X53.423 Y18.891 Z-2.
G3 X53.245 Y19. I-0.178 J-0.091
G1 X52.825 F320.
G2 X52.084 Y19.328 J1.
G3 X50.636 Y19.364 I-0.741 J-0.672
X50.672 Y17.916 I0.707 J-0.707
G2 X51. Y17.175 I-0.672 J-0.741
G1 Y16.755
G3 X51.2 Y16.555 I0.2
G1 X56.8
G3 X57. Y16.755 J0.2
G1 Y17.175
G2 X57.328 Y17.916 I1.
G3 X57.364 Y19.364 I-0.672 J0.741
X55.916 Y19.328 I-0.707 J-0.707
G2 X55.175 Y19. I-0.741 J0.672
G1 X54.755
G3 X54.6 Y18.674 J-0.2
G1 X55.883 Y17.097
G3 X56.232 Y17.177 I0.155 J0.126
G1 X56.244 Y17.227 Z-2.007 F1500.
X56.256 Y17.274 Z-2.027
X56.265 Y17.315 Z-2.059
X56.272 Y17.345 Z-2.1
X56.277 Y17.365 Z-2.148
X56.279 Y17.371 Z-2.2
Z-2.3
X56.28 Y17.378 Z-2.352
X56.285 Y17.398 Z-2.4
X56.292 Y17.428 Z-2.441
X56.302 Y17.469 Z-2.473
X56.313 Y17.516 Z-2.493
X56.325 Y17.566 Z-2.5
X56.327 Y17.574
G2 X56.845 Y18.449 I1.673 J-0.399 F320.
G3 X56.864 Y18.845 I-0.188 J0.207
X56.614 Y18.916 I-0.182 J-0.165
X56.391 Y18.784 I0.144 J-0.499
G2 X55.574 Y18.327 I-1.216 J1.216
G1 X52.426
G2 X51.551 Y18.845 I0.399 J1.673
G3 X51.155 Y18.864 I-0.207 J-0.188
X51.084 Y18.614 I0.165 J-0.182
X51.216 Y18.391 I0.499 J0.144
G2 X51.673 Y17.574 I-1.216 J-1.216
G1 X51.871 Y16.745 F1500.
X51.883 Y16.695 Z-2.493
X51.894 Y16.648 Z-2.473
X51.903 Y16.608 Z-2.441
X51.911 Y16.577 Z-2.4
X51.915 Y16.557 Z-2.352
X51.917 Y16.551 Z-2.3
Z-0.5
X53.45 Y18.837
Z-2.44
X53.448 Y18.841 Z-2.463
X53.442 Y18.853 Z-2.482
X53.434 Y18.87 Z-2.495
X53.423 Y18.891 Z-2.5
G3 X53.245 Y19. I-0.178 J-0.091
G1 X52.825 F320.
G2 X52.084 Y19.328 J1.
G3 X50.636 Y19.364 I-0.741 J-0.672
X50.672 Y17.916 I0.707 J-0.707
G2 X51. Y17.175 I-0.672 J-0.741
G1 Y16.755
G3 X51.2 Y16.555 I0.2
G1 X56.8
G3 X57. Y16.755 J0.2
G1 Y17.175
G2 X57.328 Y17.916 I1.
G3 X57.364 Y19.364 I-0.672 J0.741
X55.916 Y19.328 I-0.707 J-0.707
G2 X55.175 Y19. I-0.741 J0.672
G1 X54.755
G3 X54.6 Y18.674 J-0.2
G1 X55.883 Y17.097
G3 X56.232 Y17.177 I0.155 J0.126
G1 X56.244 Y17.227 Z-2.507 F1500.
X56.256 Y17.274 Z-2.527
X56.265 Y17.315 Z-2.559
X56.272 Y17.345 Z-2.6
X56.277 Y17.365 Z-2.648
X56.279 Y17.371 Z-2.7
Z-2.8
X56.28 Y17.378 Z-2.852
X56.285 Y17.398 Z-2.9
X56.292 Y17.428 Z-2.941
X56.302 Y17.469 Z-2.973
X56.313 Y17.516 Z-2.993
X56.325 Y17.566 Z-3.
X56.327 Y17.574
G2 X56.845 Y18.449 I1.673 J-0.399 F320.
G3 X56.864 Y18.845 I-0.188 J0.207
X56.614 Y18.916 I-0.182 J-0.165
X56.391 Y18.784 I0.144 J-0.499
G2 X55.574 Y18.327 I-1.216 J1.216
G1 X52.426
G2 X51.551 Y18.845 I0.399 J1.673
G3 X51.155 Y18.864 I-0.207 J-0.188
X51.084 Y18.614 I0.165 J-0.182
X51.216 Y18.391 I0.499 J0.144
G2 X51.673 Y17.574 I-1.216 J-1.216
G1 X51.871 Y16.745 F1500.
X51.883 Y16.695 Z-2.993
X51.894 Y16.648 Z-2.973
X51.903 Y16.608 Z-2.941
X51.911 Y16.577 Z-2.9
X51.915 Y16.557 Z-2.852
X51.917 Y16.551 Z-2.8
Z-1.
X53.45 Y18.837
Z-2.94
X53.448 Y18.841 Z-2.963
X53.442 Y18.853 Z-2.982
X53.434 Y18.87 Z-2.995
X53.423 Y18.891 Z-3.
G3 X53.245 Y19. I-0.178 J-0.091
G1 X52.825 F320.
G2 X52.084 Y19.328 J1.
G3 X50.636 Y19.364 I-0.741 J-0.672
X50.672 Y17.916 I0.707 J-0.707
G2 X51. Y17.175 I-0.672 J-0.741
G1 Y16.755
G3 X51.2 Y16.555 I0.2
G1 X56.8
G3 X57. Y16.755 J0.2
G1 Y17.175
G2 X57.328 Y17.916 I1.
G3 X57.364 Y19.364 I-0.672 J0.741
X55.916 Y19.328 I-0.707 J-0.707
G2 X55.175 Y19. I-0.741 J0.672
G1 X54.755
G3 X54.724 Y18.998 J-0.2 F1500.
G1 X53.736 Y18.841
X53.685 Y18.833 Z-2.993
X53.637 Y18.825 Z-2.973
X53.596 Y18.819 Z-2.941
X53.565 Y18.814 Z-2.9
X53.545 Y18.811 Z-2.852
X53.539 Y18.81 Z-2.8
G0 Z15.
X102.776 Y22.36
Z5.
G1 Z1.5 F1500.
Z-0.3
X102.777 Y22.366 Z-0.352
X102.782 Y22.386 Z-0.4
X102.789 Y22.417 Z-0.441
X102.799 Y22.457 Z-0.473
X102.81 Y22.504 Z-0.493
X102.822 Y22.554 Z-0.5
X102.827 Y22.574
G2 X103.344 Y23.449 I1.673 J-0.399 F320.
G3 X103.364 Y23.844 I-0.188 J0.207
X103.114 Y23.915 I-0.182 J-0.165
X102.891 Y23.784 I0.143 J-0.498
G2 X102.074 Y23.327 I-1.216 J1.216
G1 X98.926
G2 X98.051 Y23.845 I0.399 J1.673
G3 X97.655 Y23.864 I-0.207 J-0.188
X97.584 Y23.614 I0.165 J-0.182
X97.716 Y23.391 I0.499 J0.144
G2 X98.173 Y22.574 I-1.216 J-1.216
G1 X98.37 Y21.745 F1500.
X98.382 Y21.695 Z-0.493
X98.394 Y21.648 Z-0.473
X98.403 Y21.608 Z-0.441
X98.411 Y21.577 Z-0.4
X98.415 Y21.557 Z-0.352
X98.417 Y21.551 Z-0.3
Z1.5
X99.95 Y23.837
Z-0.44
X99.948 Y23.841 Z-0.463
X99.942 Y23.853 Z-0.482
X99.934 Y23.87 Z-0.495
X99.923 Y23.891 Z-0.5
G3 X99.745 Y24. I-0.178 J-0.091
G1 X99.325 F320.
G2 X98.584 Y24.328 J1.
G3 X97.136 Y24.364 I-0.741 J-0.672
X97.172 Y22.916 I0.707 J-0.707
G2 X97.5 Y22.175 I-0.672 J-0.741
G1 Y21.755
G3 X97.7 Y21.555 I0.2
G1 X103.3
G3 X103.5 Y21.755 J0.2
G1 Y22.175
G2 X103.828 Y22.916 I1.
G3 X103.863 Y24.363 I-0.672 J0.741
X102.416 Y24.328 I-0.707 J-0.707
G2 X101.675 Y24. I-0.741 J0.672
G1 X101.255
G3 X101.1 Y23.674 J-0.2
G1 X102.383 Y22.097
G3 X102.732 Y22.177 I0.155 J0.126
G1 X102.744 Y22.227 Z-0.507 F1500.
X102.756 Y22.274 Z-0.527
X102.765 Y22.314 Z-0.559
X102.773 Y22.345 Z-0.6
X102.777 Y22.365 Z-0.648
X102.779 Y22.371 Z-0.7
Z-0.8
X102.78 Y22.378 Z-0.852
X102.785 Y22.398 Z-0.9
X102.792 Y22.428 Z-0.941
X102.802 Y22.469 Z-0.973
X102.813 Y22.516 Z-0.993
X102.825 Y22.566 Z-1.
X102.827 Y22.574
G2 X103.344 Y23.449 I1.673 J-0.399 F320.
G3 X103.364 Y23.844 I-0.188 J0.207
X103.114 Y23.915 I-0.182 J-0.165
X102.891 Y23.784 I0.143 J-0.498
G2 X102.074 Y23.327 I-1.216 J1.216
G1 X98.926
G2 X98.051 Y23.845 I0.399 J1.673
G3 X97.655 Y23.864 I-0.207 J-0.188
X97.584 Y23.614 I0.165 J-0.182
X97.716 Y23.391 I0.499 J0.144
G2 X98.173 Y22.574 I-1.216 J-1.216
G1 X98.37 Y21.745 F1500.
X98.382 Y21.695 Z-0.993
X98.394 Y21.648 Z-0.973
X98.403 Y21.608 Z-0.941
X98.411 Y21.577 Z-0.9
X98.415 Y21.557 Z-0.852
X98.417 Y21.551 Z-0.8
Z1.
X99.95 Y23.837
Z-0.94
X99.948 Y23.841 Z-0.963
X99.942 Y23.853 Z-0.982
X99.934 Y23.87 Z-0.995
X99.923 Y23.891 Z-1.
G3 X99.745 Y24. I-0.178 J-0.091
G1 X99.325 F320.
G2 X98.584 Y24.328 J1.
G3 X97.136 Y24.364 I-0.741 J-0.672
X97.172 Y22.916 I0.707 J-0.707
G2 X97.5 Y22.175 I-0.672 J-0.741
G1 Y21.755
G3 X97.7 Y21.555 I0.2
G1 X103.3
G3 X103.5 Y21.755 J0.2
G1 Y22.175
G2 X103.828 Y22.916 I1.
G3 X103.863 Y24.363 I-0.672 J0.741
X102.416 Y24.328 I-0.707 J-0.707
G2 X101.675 Y24. I-0.741 J0.672
G1 X101.255
G3 X101.1 Y23.674 J-0.2
G1 X102.383 Y22.097
G3 X102.732 Y22.177 I0.155 J0.126
G1 X102.744 Y22.227 Z-1.007 F1500.
X102.756 Y22.274 Z-1.027
X102.765 Y22.314 Z-1.059
X102.773 Y22.345 Z-1.1
X102.777 Y22.365 Z-1.148
X102.779 Y22.371 Z-1.2
Z-1.3
X102.78 Y22.378 Z-1.352
X102.785 Y22.398 Z-1.4
X102.792 Y22.428 Z-1.441
X102.802 Y22.469 Z-1.473
X102.813 Y22.516 Z-1.493
X102.825 Y22.566 Z-1.5
X102.827 Y22.574
G2 X103.344 Y23.449 I1.673 J-0.399 F320.
G3 X103.364 Y23.844 I-0.188 J0.207
X103.114 Y23.915 I-0.182 J-0.165
X102.891 Y23.784 I0.143 J-0.498
G2 X102.074 Y23.327 I-1.216 J1.216
G1 X98.926
G2 X98.051 Y23.845 I0.399 J1.673
G3 X97.655 Y23.864 I-0.207 J-0.188
X97.584 Y23.614 I0.165 J-0.182
X97.716 Y23.391 I0.499 J0.144
G2 X98.173 Y22.574 I-1.216 J-1.216
G1 X98.37 Y21.745 F1500.
X98.382 Y21.695 Z-1.493
X98.394 Y21.648 Z-1.473
X98.403 Y21.608 Z-1.441
X98.411 Y21.577 Z-1.4
X98.415 Y21.557 Z-1.352
X98.417 Y21.551 Z-1.3
Z0.5
X99.95 Y23.837
Z-1.44
X99.948 Y23.841 Z-1.463
X99.942 Y23.853 Z-1.482
X99.934 Y23.87 Z-1.495
X99.923 Y23.891 Z-1.5
G3 X99.745 Y24. I-0.178 J-0.091
G1 X99.325 F320.
G2 X98.584 Y24.328 J1.
G3 X97.136 Y24.364 I-0.741 J-0.672
X97.172 Y22.916 I0.707 J-0.707
G2 X97.5 Y22.175 I-0.672 J-0.741
G1 Y21.755
G3 X97.7 Y21.555 I0.2
G1 X103.3
G3 X103.5 Y21.755 J0.2
G1 Y22.175
G2 X103.828 Y22.916 I1.
G3 X103.863 Y24.363 I-0.672 J0.741
X102.416 Y24.328 I-0.707 J-0.707
G2 X101.675 Y24. I-0.741 J0.672
G1 X101.255
G3 X101.1 Y23.674 J-0.2
G1 X102.383 Y22.097
G3 X102.732 Y22.177 I0.155 J0.126
G1 X102.744 Y22.227 Z-1.507 F1500.
X102.756 Y22.274 Z-1.527
X102.765 Y22.314 Z-1.559
X102.773 Y22.345 Z-1.6
X102.777 Y22.365 Z-1.648
X102.779 Y22.371 Z-1.7
Z-1.8
X102.78 Y22.378 Z-1.852
X102.785 Y22.398 Z-1.9
X102.792 Y22.428 Z-1.941
X102.802 Y22.469 Z-1.973
X102.813 Y22.516 Z-1.993
X102.825 Y22.566 Z-2.
X102.827 Y22.574
G2 X103.344 Y23.449 I1.673 J-0.399 F320.
G3 X103.364 Y23.844 I-0.188 J0.207
X103.114 Y23.915 I-0.182 J-0.165
X102.891 Y23.784 I0.143 J-0.498
G2 X102.074 Y23.327 I-1.216 J1.216
G1 X98.926
G2 X98.051 Y23.845 I0.399 J1.673
G3 X97.655 Y23.864 I-0.207 J-0.188
X97.584 Y23.614 I0.165 J-0.182
X97.716 Y23.391 I0.499 J0.144
G2 X98.173 Y22.574 I-1.216 J-1.216
G1 X98.37 Y21.745 F1500.
X98.382 Y21.695 Z-1.993
X98.394 Y21.648 Z-1.973
X98.403 Y21.608 Z-1.941
X98.411 Y21.577 Z-1.9
X98.415 Y21.557 Z-1.852
X98.417 Y21.551 Z-1.8
Z0.
X99.95 Y23.837
Z-1.94
X99.948 Y23.841 Z-1.963
X99.942 Y23.853 Z-1.982
X99.934 Y23.87 Z-1.995
X99.923 Y23.891 Z-2.
G3 X99.745 Y24. I-0.178 J-0.091
G1 X99.325 F320.
G2 X98.584 Y24.328 J1.
G3 X97.136 Y24.364 I-0.741 J-0.672
X97.172 Y22.916 I0.707 J-0.707
G2 X97.5 Y22.175 I-0.672 J-0.741
G1 Y21.755
G3 X97.7 Y21.555 I0.2
G1 X103.3
G3 X103.5 Y21.755 J0.2
G1 Y22.175
G2 X103.828 Y22.916 I1.
G3 X103.863 Y24.363 I-0.672 J0.741
X102.416 Y24.328 I-0.707 J-0.707
G2 X101.675 Y24. I-0.741 J0.672
G1 X101.255
G3 X101.1 Y23.674 J-0.2
G1 X102.383 Y22.097
G3 X102.732 Y22.177 I0.155 J0.126
G1 X102.744 Y22.227 Z-2.007 F1500.
X102.756 Y22.274 Z-2.027
X102.765 Y22.314 Z-2.059
X102.773 Y22.345 Z-2.1
X102.777 Y22.365 Z-2.148
X102.779 Y22.371 Z-2.2
Z-2.3
X102.78 Y22.378 Z-2.352
X102.785 Y22.398 Z-2.4
X102.792 Y22.428 Z-2.441
X102.802 Y22.469 Z-2.473
X102.813 Y22.516 Z-2.493
X102.825 Y22.566 Z-2.5
X102.827 Y22.574
G2 X103.344 Y23.449 I1.673 J-0.399 F320.
G3 X103.364 Y23.844 I-0.188 J0.207
X103.114 Y23.915 I-0.182 J-0.165
X102.891 Y23.784 I0.143 J-0.498
G2 X102.074 Y23.327 I-1.216 J1.216
G1 X98.926
G2 X98.051 Y23.845 I0.399 J1.673
G3 X97.655 Y23.864 I-0.207 J-0.188
X97.584 Y23.614 I0.165 J-0.182
X97.716 Y23.391 I0.499 J0.144
G2 X98.173 Y22.574 I-1.216 J-1.216
G1 X98.37 Y21.745 F1500.
X98.382 Y21.695 Z-2.493
X98.394 Y21.648 Z-2.473
X98.403 Y21.608 Z-2.441
X98.411 Y21.577 Z-2.4
X98.415 Y21.557 Z-2.352
X98.417 Y21.551 Z-2.3
Z-0.5
X99.95 Y23.837
Z-2.44
X99.948 Y23.841 Z-2.463
X99.942 Y23.853 Z-2.482
X99.934 Y23.87 Z-2.495
X99.923 Y23.891 Z-2.5
G3 X99.745 Y24. I-0.178 J-0.091
G1 X99.325 F320.
G2 X98.584 Y24.328 J1.
G3 X97.136 Y24.364 I-0.741 J-0.672
X97.172 Y22.916 I0.707 J-0.707
G2 X97.5 Y22.175 I-0.672 J-0.741
G1 Y21.755
G3 X97.7 Y21.555 I0.2
G1 X103.3
G3 X103.5 Y21.755 J0.2
G1 Y22.175
G2 X103.828 Y22.916 I1.
G3 X103.863 Y24.363 I-0.672 J0.741
X102.416 Y24.328 I-0.707 J-0.707
G2 X101.675 Y24. I-0.741 J0.672
G1 X101.255
G3 X101.1 Y23.674 J-0.2
G1 X102.383 Y22.097
G3 X102.732 Y22.177 I0.155 J0.126
G1 X102.744 Y22.227 Z-2.507 F1500.
X102.756 Y22.274 Z-2.527
X102.765 Y22.314 Z-2.559
X102.773 Y22.345 Z-2.6
X102.777 Y22.365 Z-2.648
X102.779 Y22.371 Z-2.7
Z-2.8
X102.78 Y22.378 Z-2.852
X102.785 Y22.398 Z-2.9
X102.792 Y22.428 Z-2.941
X102.802 Y22.469 Z-2.973
X102.813 Y22.516 Z-2.993
X102.825 Y22.566 Z-3.
X102.827 Y22.574
G2 X103.344 Y23.449 I1.673 J-0.399 F320.
G3 X103.364 Y23.844 I-0.188 J0.207
X103.114 Y23.915 I-0.182 J-0.165
X102.891 Y23.784 I0.143 J-0.498
G2 X102.074 Y23.327 I-1.216 J1.216
G1 X98.926
G2 X98.051 Y23.845 I0.399 J1.673
G3 X97.655 Y23.864 I-0.207 J-0.188
X97.584 Y23.614 I0.165 J-0.182
X97.716 Y23.391 I0.499 J0.144
G2 X98.173 Y22.574 I-1.216 J-1.216
G1 X98.37 Y21.745 F1500.
X98.382 Y21.695 Z-2.993
X98.394 Y21.648 Z-2.973
X98.403 Y21.608 Z-2.941
X98.411 Y21.577 Z-2.9
X98.415 Y21.557 Z-2.852
X98.417 Y21.551 Z-2.8
Z-1.
X99.95 Y23.837
Z-2.94
X99.948 Y23.841 Z-2.963
X99.942 Y23.853 Z-2.982
X99.934 Y23.87 Z-2.995
X99.923 Y23.891 Z-3.
G3 X99.745 Y24. I-0.178 J-0.091
G1 X99.325 F320.
G2 X98.584 Y24.328 J1.
G3 X97.136 Y24.364 I-0.741 J-0.672
X97.172 Y22.916 I0.707 J-0.707
G2 X97.5 Y22.175 I-0.672 J-0.741
G1 Y21.755
G3 X97.7 Y21.555 I0.2
G1 X103.3
G3 X103.5 Y21.755 J0.2
G1 Y22.175
G2 X103.828 Y22.916 I1.
G3 X103.863 Y24.363 I-0.672 J0.741
X102.416 Y24.328 I-0.707 J-0.707
G2 X101.675 Y24. I-0.741 J0.672
G1 X101.255
G3 X101.224 Y23.998 J-0.2 F1500.
G1 X100.236 Y23.841
X100.185 Y23.833 Z-2.993
X100.137 Y23.825 Z-2.973
X100.096 Y23.819 Z-2.941
X100.065 Y23.814 Z-2.9
X100.045 Y23.811 Z-2.852
X100.039 Y23.81 Z-2.8
G0 Z5.
X98.224 Y-22.36
G1 Z1.5 F1500.
Z-0.3
X98.223 Y-22.366 Z-0.352
X98.218 Y-22.386 Z-0.4
X98.211 Y-22.417 Z-0.441
X98.201 Y-22.457 Z-0.473
X98.19 Y-22.504 Z-0.493
X98.178 Y-22.554 Z-0.5
X98.173 Y-22.574
G2 X97.655 Y-23.449 I-1.673 J0.399 F320.
G3 X97.636 Y-23.845 I0.188 J-0.207
X97.885 Y-23.916 I0.182 J0.165
X98.109 Y-23.784 I-0.144 J0.499
G2 X98.926 Y-23.327 I1.216 J-1.216
G1 X102.074
G2 X102.949 Y-23.844 I-0.399 J-1.673
G3 X103.344 Y-23.864 I0.207 J0.188
X103.415 Y-23.614 I-0.165 J0.182
X103.284 Y-23.391 I-0.498 J-0.143
G2 X102.827 Y-22.574 I1.216 J1.216
G1 X102.63 Y-21.745 F1500.
X102.618 Y-21.695 Z-0.493
X102.606 Y-21.648 Z-0.473
X102.597 Y-21.608 Z-0.441
X102.589 Y-21.577 Z-0.4
X102.585 Y-21.557 Z-0.352
X102.583 Y-21.551 Z-0.3
Z1.5
X101.05 Y-23.837
Z-0.44
X101.052 Y-23.841 Z-0.463
X101.058 Y-23.853 Z-0.482
X101.066 Y-23.87 Z-0.495
X101.077 Y-23.891 Z-0.5
G3 X101.255 Y-24. I0.178 J0.091
G1 X101.675 F320.
G2 X102.416 Y-24.328 J-1.
G3 X103.863 Y-24.363 I0.741 J0.672
X103.828 Y-22.916 I-0.707 J0.707
G2 X103.5 Y-22.175 I0.672 J0.741
G1 Y-21.755
G3 X103.3 Y-21.555 I-0.2
G1 X97.7
G3 X97.5 Y-21.755 J-0.2
G1 Y-22.175
G2 X97.172 Y-22.916 I-1.
G3 X97.136 Y-24.364 I0.672 J-0.741
X98.584 Y-24.328 I0.707 J0.707
G2 X99.325 Y-24. I0.741 J-0.672
G1 X99.745
G3 X99.9 Y-23.674 J0.2
G1 X98.617 Y-22.097
G3 X98.268 Y-22.177 I-0.155 J-0.126
G1 X98.256 Y-22.227 Z-0.507 F1500.
X98.244 Y-22.274 Z-0.527
X98.235 Y-22.314 Z-0.559
X98.227 Y-22.345 Z-0.6
X98.223 Y-22.365 Z-0.648
X98.221 Y-22.371 Z-0.7
Z-0.8
X98.22 Y-22.378 Z-0.852
X98.215 Y-22.398 Z-0.9
X98.208 Y-22.428 Z-0.941
X98.198 Y-22.469 Z-0.973
X98.187 Y-22.516 Z-0.993
X98.175 Y-22.566 Z-1.
X98.173 Y-22.574
G2 X97.655 Y-23.449 I-1.673 J0.399 F320.
G3 X97.636 Y-23.845 I0.188 J-0.207
X97.885 Y-23.916 I0.182 J0.165
X98.109 Y-23.784 I-0.144 J0.499
G2 X98.926 Y-23.327 I1.216 J-1.216
G1 X102.074
G2 X102.949 Y-23.844 I-0.399 J-1.673
G3 X103.344 Y-23.864 I0.207 J0.188
X103.415 Y-23.614 I-0.165 J0.182
X103.284 Y-23.391 I-0.498 J-0.143
G2 X102.827 Y-22.574 I1.216 J1.216
G1 X102.63 Y-21.745 F1500.
X102.618 Y-21.695 Z-0.993
X102.606 Y-21.648 Z-0.973
X102.597 Y-21.608 Z-0.941
X102.589 Y-21.577 Z-0.9
X102.585 Y-21.557 Z-0.852
X102.583 Y-21.551 Z-0.8
Z1.
X101.05 Y-23.837
Z-0.94
X101.052 Y-23.841 Z-0.963
X101.058 Y-23.853 Z-0.982
X101.066 Y-23.87 Z-0.995
X101.077 Y-23.891 Z-1.
G3 X101.255 Y-24. I0.178 J0.091
G1 X101.675 F320.
G2 X102.416 Y-24.328 J-1.
G3 X103.863 Y-24.363 I0.741 J0.672
X103.828 Y-22.916 I-0.707 J0.707
G2 X103.5 Y-22.175 I0.672 J0.741
G1 Y-21.755
G3 X103.3 Y-21.555 I-0.2
G1 X97.7
G3 X97.5 Y-21.755 J-0.2
G1 Y-22.175
G2 X97.172 Y-22.916 I-1.
G3 X97.136 Y-24.364 I0.672 J-0.741
X98.584 Y-24.328 I0.707 J0.707
G2 X99.325 Y-24. I0.741 J-0.672
G1 X99.745
G3 X99.9 Y-23.674 J0.2
G1 X98.617 Y-22.097
G3 X98.268 Y-22.177 I-0.155 J-0.126
G1 X98.256 Y-22.227 Z-1.007 F1500.
X98.244 Y-22.274 Z-1.027
X98.235 Y-22.314 Z-1.059
X98.227 Y-22.345 Z-1.1
X98.223 Y-22.365 Z-1.148
X98.221 Y-22.371 Z-1.2
Z-1.3
X98.22 Y-22.378 Z-1.352
X98.215 Y-22.398 Z-1.4
X98.208 Y-22.428 Z-1.441
X98.198 Y-22.469 Z-1.473
X98.187 Y-22.516 Z-1.493
X98.175 Y-22.566 Z-1.5
X98.173 Y-22.574
G2 X97.655 Y-23.449 I-1.673 J0.399 F320.
G3 X97.636 Y-23.845 I0.188 J-0.207
X97.885 Y-23.916 I0.182 J0.165
X98.109 Y-23.784 I-0.144 J0.499
G2 X98.926 Y-23.327 I1.216 J-1.216
G1 X102.074
G2 X102.949 Y-23.844 I-0.399 J-1.673
G3 X103.344 Y-23.864 I0.207 J0.188
X103.415 Y-23.614 I-0.165 J0.182
X103.284 Y-23.391 I-0.498 J-0.143
G2 X102.827 Y-22.574 I1.216 J1.216
G1 X102.63 Y-21.745 F1500.
X102.618 Y-21.695 Z-1.493
X102.606 Y-21.648 Z-1.473
X102.597 Y-21.608 Z-1.441
X102.589 Y-21.577 Z-1.4
X102.585 Y-21.557 Z-1.352
X102.583 Y-21.551 Z-1.3
Z0.5
X101.05 Y-23.837
Z-1.44
X101.052 Y-23.841 Z-1.463
X101.058 Y-23.853 Z-1.482
X101.066 Y-23.87 Z-1.495
X101.077 Y-23.891 Z-1.5
G3 X101.255 Y-24. I0.178 J0.091
G1 X101.675 F320.
G2 X102.416 Y-24.328 J-1.
G3 X103.863 Y-24.363 I0.741 J0.672
X103.828 Y-22.916 I-0.707 J0.707
G2 X103.5 Y-22.175 I0.672 J0.741
G1 Y-21.755
G3 X103.3 Y-21.555 I-0.2
G1 X97.7
G3 X97.5 Y-21.755 J-0.2
G1 Y-22.175
G2 X97.172 Y-22.916 I-1.
G3 X97.136 Y-24.364 I0.672 J-0.741
X98.584 Y-24.328 I0.707 J0.707
G2 X99.325 Y-24. I0.741 J-0.672
G1 X99.745
G3 X99.9 Y-23.674 J0.2
G1 X98.617 Y-22.097
G3 X98.268 Y-22.177 I-0.155 J-0.126
G1 X98.256 Y-22.227 Z-1.507 F1500.
X98.244 Y-22.274 Z-1.527
X98.235 Y-22.314 Z-1.559
X98.227 Y-22.345 Z-1.6
X98.223 Y-22.365 Z-1.648
X98.221 Y-22.371 Z-1.7
Z-1.8
X98.22 Y-22.378 Z-1.852
X98.215 Y-22.398 Z-1.9
X98.208 Y-22.428 Z-1.941
X98.198 Y-22.469 Z-1.973
X98.187 Y-22.516 Z-1.993
X98.175 Y-22.566 Z-2.
X98.173 Y-22.574
G2 X97.655 Y-23.449 I-1.673 J0.399 F320.
G3 X97.636 Y-23.845 I0.188 J-0.207
X97.885 Y-23.916 I0.182 J0.165
X98.109 Y-23.784 I-0.144 J0.499
G2 X98.926 Y-23.327 I1.216 J-1.216
G1 X102.074
G2 X102.949 Y-23.844 I-0.399 J-1.673
G3 X103.344 Y-23.864 I0.207 J0.188
X103.415 Y-23.614 I-0.165 J0.182
X103.284 Y-23.391 I-0.498 J-0.143
G2 X102.827 Y-22.574 I1.216 J1.216
G1 X102.63 Y-21.745 F1500.
X102.618 Y-21.695 Z-1.993
X102.606 Y-21.648 Z-1.973
X102.597 Y-21.608 Z-1.941
X102.589 Y-21.577 Z-1.9
X102.585 Y-21.557 Z-1.852
X102.583 Y-21.551 Z-1.8
Z0.
X101.05 Y-23.837
Z-1.94
X101.052 Y-23.841 Z-1.963
X101.058 Y-23.853 Z-1.982
X101.066 Y-23.87 Z-1.995
X101.077 Y-23.891 Z-2.
G3 X101.255 Y-24. I0.178 J0.091
G1 X101.675 F320.
G2 X102.416 Y-24.328 J-1.
G3 X103.863 Y-24.363 I0.741 J0.672
X103.828 Y-22.916 I-0.707 J0.707
G2 X103.5 Y-22.175 I0.672 J0.741
G1 Y-21.755
G3 X103.3 Y-21.555 I-0.2
G1 X97.7
G3 X97.5 Y-21.755 J-0.2
G1 Y-22.175
G2 X97.172 Y-22.916 I-1.
G3 X97.136 Y-24.364 I0.672 J-0.741
X98.584 Y-24.328 I0.707 J0.707
G2 X99.325 Y-24. I0.741 J-0.672
G1 X99.745
G3 X99.9 Y-23.674 J0.2
G1 X98.617 Y-22.097
G3 X98.268 Y-22.177 I-0.155 J-0.126
G1 X98.256 Y-22.227 Z-2.007 F1500.
X98.244 Y-22.274 Z-2.027
X98.235 Y-22.314 Z-2.059
X98.227 Y-22.345 Z-2.1
X98.223 Y-22.365 Z-2.148
X98.221 Y-22.371 Z-2.2
Z-2.3
X98.22 Y-22.378 Z-2.352
X98.215 Y-22.398 Z-2.4
X98.208 Y-22.428 Z-2.441
X98.198 Y-22.469 Z-2.473
X98.187 Y-22.516 Z-2.493
X98.175 Y-22.566 Z-2.5
X98.173 Y-22.574
G2 X97.655 Y-23.449 I-1.673 J0.399 F320.
G3 X97.636 Y-23.845 I0.188 J-0.207
X97.885 Y-23.916 I0.182 J0.165
X98.109 Y-23.784 I-0.144 J0.499
G2 X98.926 Y-23.327 I1.216 J-1.216
G1 X102.074
G2 X102.949 Y-23.844 I-0.399 J-1.673
G3 X103.344 Y-23.864 I0.207 J0.188
X103.415 Y-23.614 I-0.165 J0.182
X103.284 Y-23.391 I-0.498 J-0.143
G2 X102.827 Y-22.574 I1.216 J1.216
G1 X102.63 Y-21.745 F1500.
X102.618 Y-21.695 Z-2.493
X102.606 Y-21.648 Z-2.473
X102.597 Y-21.608 Z-2.441
X102.589 Y-21.577 Z-2.4
X102.585 Y-21.557 Z-2.352
X102.583 Y-21.551 Z-2.3
Z-0.5
X101.05 Y-23.837
Z-2.44
X101.052 Y-23.841 Z-2.463
X101.058 Y-23.853 Z-2.482
X101.066 Y-23.87 Z-2.495
X101.077 Y-23.891 Z-2.5
G3 X101.255 Y-24. I0.178 J0.091
G1 X101.675 F320.
G2 X102.416 Y-24.328 J-1.
G3 X103.863 Y-24.363 I0.741 J0.672
X103.828 Y-22.916 I-0.707 J0.707
G2 X103.5 Y-22.175 I0.672 J0.741
G1 Y-21.755
G3 X103.3 Y-21.555 I-0.2
G1 X97.7
G3 X97.5 Y-21.755 J-0.2
G1 Y-22.175
G2 X97.172 Y-22.916 I-1.
G3 X97.136 Y-24.364 I0.672 J-0.741
X98.584 Y-24.328 I0.707 J0.707
G2 X99.325 Y-24. I0.741 J-0.672
G1 X99.745
G3 X99.9 Y-23.674 J0.2
G1 X98.617 Y-22.097
G3 X98.268 Y-22.177 I-0.155 J-0.126
G1 X98.256 Y-22.227 Z-2.507 F1500.
X98.244 Y-22.274 Z-2.527
X98.235 Y-22.314 Z-2.559
X98.227 Y-22.345 Z-2.6
X98.223 Y-22.365 Z-2.648
X98.221 Y-22.371 Z-2.7
Z-2.8
X98.22 Y-22.378 Z-2.852
X98.215 Y-22.398 Z-2.9
X98.208 Y-22.428 Z-2.941
X98.198 Y-22.469 Z-2.973
X98.187 Y-22.516 Z-2.993
X98.175 Y-22.566 Z-3.
X98.173 Y-22.574
G2 X97.655 Y-23.449 I-1.673 J0.399 F320.
G3 X97.636 Y-23.845 I0.188 J-0.207
X97.885 Y-23.916 I0.182 J0.165
X98.109 Y-23.784 I-0.144 J0.499
G2 X98.926 Y-23.327 I1.216 J-1.216
G1 X102.074
G2 X102.949 Y-23.844 I-0.399 J-1.673
G3 X103.344 Y-23.864 I0.207 J0.188
X103.415 Y-23.614 I-0.165 J0.182
X103.284 Y-23.391 I-0.498 J-0.143
G2 X102.827 Y-22.574 I1.216 J1.216
G1 X102.63 Y-21.745 F1500.
X102.618 Y-21.695 Z-2.993
X102.606 Y-21.648 Z-2.973
X102.597 Y-21.608 Z-2.941
X102.589 Y-21.577 Z-2.9
X102.585 Y-21.557 Z-2.852
X102.583 Y-21.551 Z-2.8
Z-1.
X101.05 Y-23.837
Z-2.94
X101.052 Y-23.841 Z-2.963
X101.058 Y-23.853 Z-2.982
X101.066 Y-23.87 Z-2.995
X101.077 Y-23.891 Z-3.
G3 X101.255 Y-24. I0.178 J0.091
G1 X101.675 F320.
G2 X102.416 Y-24.328 J-1.
G3 X103.863 Y-24.363 I0.741 J0.672
X103.828 Y-22.916 I-0.707 J0.707
G2 X103.5 Y-22.175 I0.672 J0.741
G1 Y-21.755
G3 X103.3 Y-21.555 I-0.2
G1 X97.7
G3 X97.5 Y-21.755 J-0.2
G1 Y-22.175
G2 X97.172 Y-22.916 I-1.
G3 X97.136 Y-24.364 I0.672 J-0.741
X98.584 Y-24.328 I0.707 J0.707
G2 X99.325 Y-24. I0.741 J-0.672
G1 X99.745
G3 X99.776 Y-23.998 J0.2 F1500.
G1 X100.764 Y-23.841
X100.815 Y-23.833 Z-2.993
X100.863 Y-23.825 Z-2.973
X100.904 Y-23.819 Z-2.941
X100.935 Y-23.814 Z-2.9
X100.955 Y-23.811 Z-2.852
X100.961 Y-23.81 Z-2.8
G0 Z15.
X-102.776 Y-22.36
Z5.
G1 Z1.5 F1500.
Z-0.3
X-102.777 Y-22.366 Z-0.352
X-102.782 Y-22.386 Z-0.4
X-102.789 Y-22.417 Z-0.441
X-102.799 Y-22.457 Z-0.473
X-102.81 Y-22.504 Z-0.493
X-102.822 Y-22.554 Z-0.5
X-102.827 Y-22.574
G2 X-103.344 Y-23.449 I-1.673 J0.399 F320.
G3 X-103.364 Y-23.844 I0.188 J-0.207
X-103.114 Y-23.915 I0.182 J0.165
X-102.891 Y-23.784 I-0.143 J0.498
G2 X-102.074 Y-23.327 I1.216 J-1.216
G1 X-98.926
G2 X-98.051 Y-23.845 I-0.399 J-1.673
G3 X-97.655 Y-23.864 I0.207 J0.188
X-97.584 Y-23.614 I-0.165 J0.182
X-97.716 Y-23.391 I-0.499 J-0.144
G2 X-98.173 Y-22.574 I1.216 J1.216
G1 X-98.37 Y-21.745 F1500.
X-98.382 Y-21.695 Z-0.493
X-98.394 Y-21.648 Z-0.473
X-98.403 Y-21.608 Z-0.441
X-98.411 Y-21.577 Z-0.4
X-98.415 Y-21.557 Z-0.352
X-98.417 Y-21.551 Z-0.3
Z1.5
X-99.95 Y-23.837
Z-0.44
X-99.948 Y-23.841 Z-0.463
X-99.942 Y-23.853 Z-0.482
X-99.934 Y-23.87 Z-0.495
X-99.923 Y-23.891 Z-0.5
G3 X-99.745 Y-24. I0.178 J0.091
G1 X-99.325 F320.
G2 X-98.584 Y-24.328 J-1.
G3 X-97.136 Y-24.364 I0.741 J0.672
X-97.172 Y-22.916 I-0.707 J0.707
G2 X-97.5 Y-22.175 I0.672 J0.741
G1 Y-21.755
G3 X-97.7 Y-21.555 I-0.2
G1 X-103.3
G3 X-103.5 Y-21.755 J-0.2
G1 Y-22.175
G2 X-103.828 Y-22.916 I-1.
G3 X-103.863 Y-24.363 I0.672 J-0.741
X-102.416 Y-24.328 I0.707 J0.707
G2 X-101.675 Y-24. I0.741 J-0.672
G1 X-101.255
G3 X-101.1 Y-23.674 J0.2
G1 X-102.383 Y-22.097
G3 X-102.732 Y-22.177 I-0.155 J-0.126
G1 X-102.744 Y-22.227 Z-0.507 F1500.
X-102.756 Y-22.274 Z-0.527
X-102.765 Y-22.314 Z-0.559
X-102.773 Y-22.345 Z-0.6
X-102.777 Y-22.365 Z-0.648
X-102.779 Y-22.371 Z-0.7
Z-0.8
X-102.78 Y-22.378 Z-0.852
X-102.785 Y-22.398 Z-0.9
X-102.792 Y-22.428 Z-0.941
X-102.802 Y-22.469 Z-0.973
X-102.813 Y-22.516 Z-0.993
X-102.825 Y-22.566 Z-1.
X-102.827 Y-22.574
G2 X-103.344 Y-23.449 I-1.673 J0.399 F320.
G3 X-103.364 Y-23.844 I0.188 J-0.207
X-103.114 Y-23.915 I0.182 J0.165
X-102.891 Y-23.784 I-0.143 J0.498
G2 X-102.074 Y-23.327 I1.216 J-1.216
G1 X-98.926
G2 X-98.051 Y-23.845 I-0.399 J-1.673
G3 X-97.655 Y-23.864 I0.207 J0.188
X-97.584 Y-23.614 I-0.165 J0.182
X-97.716 Y-23.391 I-0.499 J-0.144
G2 X-98.173 Y-22.574 I1.216 J1.216
G1 X-98.37 Y-21.745 F1500.
X-98.382 Y-21.695 Z-0.993
X-98.394 Y-21.648 Z-0.973
X-98.403 Y-21.608 Z-0.941
X-98.411 Y-21.577 Z-0.9
X-98.415 Y-21.557 Z-0.852
X-98.417 Y-21.551 Z-0.8
Z1.
X-99.95 Y-23.837
Z-0.94
X-99.948 Y-23.841 Z-0.963
X-99.942 Y-23.853 Z-0.982
X-99.934 Y-23.87 Z-0.995
X-99.923 Y-23.891 Z-1.
G3 X-99.745 Y-24. I0.178 J0.091
G1 X-99.325 F320.
G2 X-98.584 Y-24.328 J-1.
G3 X-97.136 Y-24.364 I0.741 J0.672
X-97.172 Y-22.916 I-0.707 J0.707
G2 X-97.5 Y-22.175 I0.672 J0.741
G1 Y-21.755
G3 X-97.7 Y-21.555 I-0.2
G1 X-103.3
G3 X-103.5 Y-21.755 J-0.2
G1 Y-22.175
G2 X-103.828 Y-22.916 I-1.
G3 X-103.863 Y-24.363 I0.672 J-0.741
X-102.416 Y-24.328 I0.707 J0.707
G2 X-101.675 Y-24. I0.741 J-0.672
G1 X-101.255
G3 X-101.1 Y-23.674 J0.2
G1 X-102.383 Y-22.097
G3 X-102.732 Y-22.177 I-0.155 J-0.126
G1 X-102.744 Y-22.227 Z-1.007 F1500.
X-102.756 Y-22.274 Z-1.027
X-102.765 Y-22.314 Z-1.059
X-102.773 Y-22.345 Z-1.1
X-102.777 Y-22.365 Z-1.148
X-102.779 Y-22.371 Z-1.2
Z-1.3
X-102.78 Y-22.378 Z-1.352
X-102.785 Y-22.398 Z-1.4
X-102.792 Y-22.428 Z-1.441
X-102.802 Y-22.469 Z-1.473
X-102.813 Y-22.516 Z-1.493
X-102.825 Y-22.566 Z-1.5
X-102.827 Y-22.574
G2 X-103.344 Y-23.449 I-1.673 J0.399 F320.
G3 X-103.364 Y-23.844 I0.188 J-0.207
X-103.114 Y-23.915 I0.182 J0.165
X-102.891 Y-23.784 I-0.143 J0.498
G2 X-102.074 Y-23.327 I1.216 J-1.216
G1 X-98.926
G2 X-98.051 Y-23.845 I-0.399 J-1.673
G3 X-97.655 Y-23.864 I0.207 J0.188
X-97.584 Y-23.614 I-0.165 J0.182
X-97.716 Y-23.391 I-0.499 J-0.144
G2 X-98.173 Y-22.574 I1.216 J1.216
G1 X-98.37 Y-21.745 F1500.
X-98.382 Y-21.695 Z-1.493
X-98.394 Y-21.648 Z-1.473
X-98.403 Y-21.608 Z-1.441
X-98.411 Y-21.577 Z-1.4
X-98.415 Y-21.557 Z-1.352
X-98.417 Y-21.551 Z-1.3
Z0.5
X-99.95 Y-23.837
Z-1.44
X-99.948 Y-23.841 Z-1.463
X-99.942 Y-23.853 Z-1.482
X-99.934 Y-23.87 Z-1.495
X-99.923 Y-23.891 Z-1.5
G3 X-99.745 Y-24. I0.178 J0.091
G1 X-99.325 F320.
G2 X-98.584 Y-24.328 J-1.
G3 X-97.136 Y-24.364 I0.741 J0.672
X-97.172 Y-22.916 I-0.707 J0.707
G2 X-97.5 Y-22.175 I0.672 J0.741
G1 Y-21.755
G3 X-97.7 Y-21.555 I-0.2
G1 X-103.3
G3 X-103.5 Y-21.755 J-0.2
G1 Y-22.175
G2 X-103.828 Y-22.916 I-1.
G3 X-103.863 Y-24.363 I0.672 J-0.741
X-102.416 Y-24.328 I0.707 J0.707
G2 X-101.675 Y-24. I0.741 J-0.672
G1 X-101.255
G3 X-101.1 Y-23.674 J0.2
G1 X-102.383 Y-22.097
G3 X-102.732 Y-22.177 I-0.155 J-0.126
G1 X-102.744 Y-22.227 Z-1.507 F1500.
X-102.756 Y-22.274 Z-1.527
X-102.765 Y-22.314 Z-1.559
X-102.773 Y-22.345 Z-1.6
X-102.777 Y-22.365 Z-1.648
X-102.779 Y-22.371 Z-1.7
Z-1.8
X-102.78 Y-22.378 Z-1.852
X-102.785 Y-22.398 Z-1.9
X-102.792 Y-22.428 Z-1.941
X-102.802 Y-22.469 Z-1.973
X-102.813 Y-22.516 Z-1.993
X-102.825 Y-22.566 Z-2.
X-102.827 Y-22.574
G2 X-103.344 Y-23.449 I-1.673 J0.399 F320.
G3 X-103.364 Y-23.844 I0.188 J-0.207
X-103.114 Y-23.915 I0.182 J0.165
X-102.891 Y-23.784 I-0.143 J0.498
G2 X-102.074 Y-23.327 I1.216 J-1.216
G1 X-98.926
G2 X-98.051 Y-23.845 I-0.399 J-1.673
G3 X-97.655 Y-23.864 I0.207 J0.188
X-97.584 Y-23.614 I-0.165 J0.182
X-97.716 Y-23.391 I-0.499 J-0.144
G2 X-98.173 Y-22.574 I1.216 J1.216
G1 X-98.37 Y-21.745 F1500.
X-98.382 Y-21.695 Z-1.993
X-98.394 Y-21.648 Z-1.973
X-98.403 Y-21.608 Z-1.941
X-98.411 Y-21.577 Z-1.9
X-98.415 Y-21.557 Z-1.852
X-98.417 Y-21.551 Z-1.8
Z0.
X-99.95 Y-23.837
Z-1.94
X-99.948 Y-23.841 Z-1.963
X-99.942 Y-23.853 Z-1.982
X-99.934 Y-23.87 Z-1.995
X-99.923 Y-23.891 Z-2.
G3 X-99.745 Y-24. I0.178 J0.091
G1 X-99.325 F320.
G2 X-98.584 Y-24.328 J-1.
G3 X-97.136 Y-24.364 I0.741 J0.672
X-97.172 Y-22.916 I-0.707 J0.707
G2 X-97.5 Y-22.175 I0.672 J0.741
G1 Y-21.755
G3 X-97.7 Y-21.555 I-0.2
G1 X-103.3
G3 X-103.5 Y-21.755 J-0.2
G1 Y-22.175
G2 X-103.828 Y-22.916 I-1.
G3 X-103.863 Y-24.363 I0.672 J-0.741
X-102.416 Y-24.328 I0.707 J0.707
G2 X-101.675 Y-24. I0.741 J-0.672
G1 X-101.255
G3 X-101.1 Y-23.674 J0.2
G1 X-102.383 Y-22.097
G3 X-102.732 Y-22.177 I-0.155 J-0.126
G1 X-102.744 Y-22.227 Z-2.007 F1500.
X-102.756 Y-22.274 Z-2.027
X-102.765 Y-22.314 Z-2.059
X-102.773 Y-22.345 Z-2.1
X-102.777 Y-22.365 Z-2.148
X-102.779 Y-22.371 Z-2.2
Z-2.3
X-102.78 Y-22.378 Z-2.352
X-102.785 Y-22.398 Z-2.4
X-102.792 Y-22.428 Z-2.441
X-102.802 Y-22.469 Z-2.473
X-102.813 Y-22.516 Z-2.493
X-102.825 Y-22.566 Z-2.5
X-102.827 Y-22.574
G2 X-103.344 Y-23.449 I-1.673 J0.399 F320.
G3 X-103.364 Y-23.844 I0.188 J-0.207
X-103.114 Y-23.915 I0.182 J0.165
X-102.891 Y-23.784 I-0.143 J0.498
G2 X-102.074 Y-23.327 I1.216 J-1.216
G1 X-98.926
G2 X-98.051 Y-23.845 I-0.399 J-1.673
G3 X-97.655 Y-23.864 I0.207 J0.188
X-97.584 Y-23.614 I-0.165 J0.182
X-97.716 Y-23.391 I-0.499 J-0.144
G2 X-98.173 Y-22.574 I1.216 J1.216
G1 X-98.37 Y-21.745 F1500.
X-98.382 Y-21.695 Z-2.493
X-98.394 Y-21.648 Z-2.473
X-98.403 Y-21.608 Z-2.441
X-98.411 Y-21.577 Z-2.4
X-98.415 Y-21.557 Z-2.352
X-98.417 Y-21.551 Z-2.3
Z-0.5
X-99.95 Y-23.837
Z-2.44
X-99.948 Y-23.841 Z-2.463
X-99.942 Y-23.853 Z-2.482
X-99.934 Y-23.87 Z-2.495
X-99.923 Y-23.891 Z-2.5
G3 X-99.745 Y-24. I0.178 J0.091
G1 X-99.325 F320.
G2 X-98.584 Y-24.328 J-1.
G3 X-97.136 Y-24.364 I0.741 J0.672
X-97.172 Y-22.916 I-0.707 J0.707
G2 X-97.5 Y-22.175 I0.672 J0.741
G1 Y-21.755
G3 X-97.7 Y-21.555 I-0.2
G1 X-103.3
G3 X-103.5 Y-21.755 J-0.2
G1 Y-22.175
G2 X-103.828 Y-22.916 I-1.
G3 X-103.863 Y-24.363 I0.672 J-0.741
X-102.416 Y-24.328 I0.707 J0.707
G2 X-101.675 Y-24. I0.741 J-0.672
G1 X-101.255
G3 X-101.1 Y-23.674 J0.2
G1 X-102.383 Y-22.097
G3 X-102.732 Y-22.177 I-0.155 J-0.126
G1 X-102.744 Y-22.227 Z-2.507 F1500.
X-102.756 Y-22.274 Z-2.527
X-102.765 Y-22.314 Z-2.559
X-102.773 Y-22.345 Z-2.6
X-102.777 Y-22.365 Z-2.648
X-102.779 Y-22.371 Z-2.7
Z-2.8
X-102.78 Y-22.378 Z-2.852
X-102.785 Y-22.398 Z-2.9
X-102.792 Y-22.428 Z-2.941
X-102.802 Y-22.469 Z-2.973
X-102.813 Y-22.516 Z-2.993
X-102.825 Y-22.566 Z-3.
X-102.827 Y-22.574
G2 X-103.344 Y-23.449 I-1.673 J0.399 F320.
G3 X-103.364 Y-23.844 I0.188 J-0.207
X-103.114 Y-23.915 I0.182 J0.165
X-102.891 Y-23.784 I-0.143 J0.498
G2 X-102.074 Y-23.327 I1.216 J-1.216
G1 X-98.926
G2 X-98.051 Y-23.845 I-0.399 J-1.673
G3 X-97.655 Y-23.864 I0.207 J0.188
X-97.584 Y-23.614 I-0.165 J0.182
X-97.716 Y-23.391 I-0.499 J-0.144
G2 X-98.173 Y-22.574 I1.216 J1.216
G1 X-98.37 Y-21.745 F1500.
X-98.382 Y-21.695 Z-2.993
X-98.394 Y-21.648 Z-2.973
X-98.403 Y-21.608 Z-2.941
X-98.411 Y-21.577 Z-2.9
X-98.415 Y-21.557 Z-2.852
X-98.417 Y-21.551 Z-2.8
Z-1.
X-99.95 Y-23.837
Z-2.94
X-99.948 Y-23.841 Z-2.963
X-99.942 Y-23.853 Z-2.982
X-99.934 Y-23.87 Z-2.995
X-99.923 Y-23.891 Z-3.
G3 X-99.745 Y-24. I0.178 J0.091
G1 X-99.325 F320.
G2 X-98.584 Y-24.328 J-1.
G3 X-97.136 Y-24.364 I0.741 J0.672
X-97.172 Y-22.916 I-0.707 J0.707
G2 X-97.5 Y-22.175 I0.672 J0.741
G1 Y-21.755
G3 X-97.7 Y-21.555 I-0.2
G1 X-103.3
G3 X-103.5 Y-21.755 J-0.2
G1 Y-22.175
G2 X-103.828 Y-22.916 I-1.
G3 X-103.863 Y-24.363 I0.672 J-0.741
X-102.416 Y-24.328 I0.707 J0.707
G2 X-101.675 Y-24. I0.741 J-0.672
G1 X-101.255
G3 X-101.224 Y-23.998 J0.2 F1500.
G1 X-100.236 Y-23.841
X-100.185 Y-23.833 Z-2.993
X-100.137 Y-23.825 Z-2.973
X-100.096 Y-23.819 Z-2.941
X-100.065 Y-23.814 Z-2.9
X-100.045 Y-23.811 Z-2.852
X-100.039 Y-23.81 Z-2.8
G0 Z5.
X-98.224 Y22.36
G1 Z1.5 F1500.
Z-0.3
X-98.223 Y22.366 Z-0.352
X-98.218 Y22.386 Z-0.4
X-98.211 Y22.417 Z-0.441
X-98.201 Y22.457 Z-0.473
X-98.19 Y22.504 Z-0.493
X-98.178 Y22.554 Z-0.5
X-98.173 Y22.574
G2 X-97.655 Y23.449 I1.673 J-0.399 F320.
G3 X-97.636 Y23.845 I-0.188 J0.207
X-97.885 Y23.916 I-0.182 J-0.165
X-98.109 Y23.784 I0.144 J-0.499
G2 X-98.926 Y23.327 I-1.216 J1.216
G1 X-102.074
G2 X-102.949 Y23.844 I0.399 J1.673
G3 X-103.344 Y23.864 I-0.207 J-0.188
X-103.415 Y23.614 I0.165 J-0.182
X-103.284 Y23.391 I0.498 J0.143
G2 X-102.827 Y22.574 I-1.216 J-1.216
G1 X-102.63 Y21.745 F1500.
X-102.618 Y21.695 Z-0.493
X-102.606 Y21.648 Z-0.473
X-102.597 Y21.608 Z-0.441
X-102.589 Y21.577 Z-0.4
X-102.585 Y21.557 Z-0.352
X-102.583 Y21.551 Z-0.3
Z1.5
X-101.05 Y23.837
Z-0.44
X-101.052 Y23.841 Z-0.463
X-101.058 Y23.853 Z-0.482
X-101.066 Y23.87 Z-0.495
X-101.077 Y23.891 Z-0.5
G3 X-101.255 Y24. I-0.178 J-0.091
G1 X-101.675 F320.
G2 X-102.416 Y24.328 J1.
G3 X-103.863 Y24.363 I-0.741 J-0.672
X-103.828 Y22.916 I0.707 J-0.707
G2 X-103.5 Y22.175 I-0.672 J-0.741
G1 Y21.755
G3 X-103.3 Y21.555 I0.2
G1 X-97.7
G3 X-97.5 Y21.755 J0.2
G1 Y22.175
G2 X-97.172 Y22.916 I1.
G3 X-97.136 Y24.364 I-0.672 J0.741
X-98.584 Y24.328 I-0.707 J-0.707
G2 X-99.325 Y24. I-0.741 J0.672
G1 X-99.745
G3 X-99.9 Y23.674 J-0.2
G1 X-98.617 Y22.097
G3 X-98.268 Y22.177 I0.155 J0.126
G1 X-98.256 Y22.227 Z-0.507 F1500.
X-98.244 Y22.274 Z-0.527
X-98.235 Y22.314 Z-0.559
X-98.227 Y22.345 Z-0.6
X-98.223 Y22.365 Z-0.648
X-98.221 Y22.371 Z-0.7
Z-0.8
X-98.22 Y22.378 Z-0.852
X-98.215 Y22.398 Z-0.9
X-98.208 Y22.428 Z-0.941
X-98.198 Y22.469 Z-0.973
X-98.187 Y22.516 Z-0.993
X-98.175 Y22.566 Z-1.
X-98.173 Y22.574
G2 X-97.655 Y23.449 I1.673 J-0.399 F320.
G3 X-97.636 Y23.845 I-0.188 J0.207
X-97.885 Y23.916 I-0.182 J-0.165
X-98.109 Y23.784 I0.144 J-0.499
G2 X-98.926 Y23.327 I-1.216 J1.216
G1 X-102.074
G2 X-102.949 Y23.844 I0.399 J1.673
G3 X-103.344 Y23.864 I-0.207 J-0.188
X-103.415 Y23.614 I0.165 J-0.182
X-103.284 Y23.391 I0.498 J0.143
G2 X-102.827 Y22.574 I-1.216 J-1.216
G1 X-102.63 Y21.745 F1500.
X-102.618 Y21.695 Z-0.993
X-102.606 Y21.648 Z-0.973
X-102.597 Y21.608 Z-0.941
X-102.589 Y21.577 Z-0.9
X-102.585 Y21.557 Z-0.852
X-102.583 Y21.551 Z-0.8
Z1.
X-101.05 Y23.837
Z-0.94
X-101.052 Y23.841 Z-0.963
X-101.058 Y23.853 Z-0.982
X-101.066 Y23.87 Z-0.995
X-101.077 Y23.891 Z-1.
G3 X-101.255 Y24. I-0.178 J-0.091
G1 X-101.675 F320.
G2 X-102.416 Y24.328 J1.
G3 X-103.863 Y24.363 I-0.741 J-0.672
X-103.828 Y22.916 I0.707 J-0.707
G2 X-103.5 Y22.175 I-0.672 J-0.741
G1 Y21.755
G3 X-103.3 Y21.555 I0.2
G1 X-97.7
G3 X-97.5 Y21.755 J0.2
G1 Y22.175
G2 X-97.172 Y22.916 I1.
G3 X-97.136 Y24.364 I-0.672 J0.741
X-98.584 Y24.328 I-0.707 J-0.707
G2 X-99.325 Y24. I-0.741 J0.672
G1 X-99.745
G3 X-99.9 Y23.674 J-0.2
G1 X-98.617 Y22.097
G3 X-98.268 Y22.177 I0.155 J0.126
G1 X-98.256 Y22.227 Z-1.007 F1500.
X-98.244 Y22.274 Z-1.027
X-98.235 Y22.314 Z-1.059
X-98.227 Y22.345 Z-1.1
X-98.223 Y22.365 Z-1.148
X-98.221 Y22.371 Z-1.2
Z-1.3
X-98.22 Y22.378 Z-1.352
X-98.215 Y22.398 Z-1.4
X-98.208 Y22.428 Z-1.441
X-98.198 Y22.469 Z-1.473
X-98.187 Y22.516 Z-1.493
X-98.175 Y22.566 Z-1.5
X-98.173 Y22.574
G2 X-97.655 Y23.449 I1.673 J-0.399 F320.
G3 X-97.636 Y23.845 I-0.188 J0.207
X-97.885 Y23.916 I-0.182 J-0.165
X-98.109 Y23.784 I0.144 J-0.499
G2 X-98.926 Y23.327 I-1.216 J1.216
G1 X-102.074
G2 X-102.949 Y23.844 I0.399 J1.673
G3 X-103.344 Y23.864 I-0.207 J-0.188
X-103.415 Y23.614 I0.165 J-0.182
X-103.284 Y23.391 I0.498 J0.143
G2 X-102.827 Y22.574 I-1.216 J-1.216
G1 X-102.63 Y21.745 F1500.
X-102.618 Y21.695 Z-1.493
X-102.606 Y21.648 Z-1.473
X-102.597 Y21.608 Z-1.441
X-102.589 Y21.577 Z-1.4
X-102.585 Y21.557 Z-1.352
X-102.583 Y21.551 Z-1.3
Z0.5
X-101.05 Y23.837
Z-1.44
X-101.052 Y23.841 Z-1.463
X-101.058 Y23.853 Z-1.482
X-101.066 Y23.87 Z-1.495
X-101.077 Y23.891 Z-1.5
G3 X-101.255 Y24. I-0.178 J-0.091
G1 X-101.675 F320.
G2 X-102.416 Y24.328 J1.
G3 X-103.863 Y24.363 I-0.741 J-0.672
X-103.828 Y22.916 I0.707 J-0.707
G2 X-103.5 Y22.175 I-0.672 J-0.741
G1 Y21.755
G3 X-103.3 Y21.555 I0.2
G1 X-97.7
G3 X-97.5 Y21.755 J0.2
G1 Y22.175
G2 X-97.172 Y22.916 I1.
G3 X-97.136 Y24.364 I-0.672 J0.741
X-98.584 Y24.328 I-0.707 J-0.707
G2 X-99.325 Y24. I-0.741 J0.672
G1 X-99.745
G3 X-99.9 Y23.674 J-0.2
G1 X-98.617 Y22.097
G3 X-98.268 Y22.177 I0.155 J0.126
G1 X-98.256 Y22.227 Z-1.507 F1500.
X-98.244 Y22.274 Z-1.527
X-98.235 Y22.314 Z-1.559
X-98.227 Y22.345 Z-1.6
X-98.223 Y22.365 Z-1.648
X-98.221 Y22.371 Z-1.7
Z-1.8
X-98.22 Y22.378 Z-1.852
X-98.215 Y22.398 Z-1.9
X-98.208 Y22.428 Z-1.941
X-98.198 Y22.469 Z-1.973
X-98.187 Y22.516 Z-1.993
X-98.175 Y22.566 Z-2.
X-98.173 Y22.574
G2 X-97.655 Y23.449 I1.673 J-0.399 F320.
G3 X-97.636 Y23.845 I-0.188 J0.207
X-97.885 Y23.916 I-0.182 J-0.165
X-98.109 Y23.784 I0.144 J-0.499
G2 X-98.926 Y23.327 I-1.216 J1.216
G1 X-102.074
G2 X-102.949 Y23.844 I0.399 J1.673
G3 X-103.344 Y23.864 I-0.207 J-0.188
X-103.415 Y23.614 I0.165 J-0.182
X-103.284 Y23.391 I0.498 J0.143
G2 X-102.827 Y22.574 I-1.216 J-1.216
G1 X-102.63 Y21.745 F1500.
X-102.618 Y21.695 Z-1.993
X-102.606 Y21.648 Z-1.973
X-102.597 Y21.608 Z-1.941
X-102.589 Y21.577 Z-1.9
X-102.585 Y21.557 Z-1.852
X-102.583 Y21.551 Z-1.8
Z0.
X-101.05 Y23.837
Z-1.94
X-101.052 Y23.841 Z-1.963
X-101.058 Y23.853 Z-1.982
X-101.066 Y23.87 Z-1.995
X-101.077 Y23.891 Z-2.
G3 X-101.255 Y24. I-0.178 J-0.091
G1 X-101.675 F320.
G2 X-102.416 Y24.328 J1.
G3 X-103.863 Y24.363 I-0.741 J-0.672
X-103.828 Y22.916 I0.707 J-0.707
G2 X-103.5 Y22.175 I-0.672 J-0.741
G1 Y21.755
G3 X-103.3 Y21.555 I0.2
G1 X-97.7
G3 X-97.5 Y21.755 J0.2
G1 Y22.175
G2 X-97.172 Y22.916 I1.
G3 X-97.136 Y24.364 I-0.672 J0.741
X-98.584 Y24.328 I-0.707 J-0.707
G2 X-99.325 Y24. I-0.741 J0.672
G1 X-99.745
G3 X-99.9 Y23.674 J-0.2
G1 X-98.617 Y22.097
G3 X-98.268 Y22.177 I0.155 J0.126
G1 X-98.256 Y22.227 Z-2.007 F1500.
X-98.244 Y22.274 Z-2.027
X-98.235 Y22.314 Z-2.059
X-98.227 Y22.345 Z-2.1
X-98.223 Y22.365 Z-2.148
X-98.221 Y22.371 Z-2.2
Z-2.3
X-98.22 Y22.378 Z-2.352
X-98.215 Y22.398 Z-2.4
X-98.208 Y22.428 Z-2.441
X-98.198 Y22.469 Z-2.473
X-98.187 Y22.516 Z-2.493
X-98.175 Y22.566 Z-2.5
X-98.173 Y22.574
G2 X-97.655 Y23.449 I1.673 J-0.399 F320.
G3 X-97.636 Y23.845 I-0.188 J0.207
X-97.885 Y23.916 I-0.182 J-0.165
X-98.109 Y23.784 I0.144 J-0.499
G2 X-98.926 Y23.327 I-1.216 J1.216
G1 X-102.074
G2 X-102.949 Y23.844 I0.399 J1.673
G3 X-103.344 Y23.864 I-0.207 J-0.188
X-103.415 Y23.614 I0.165 J-0.182
X-103.284 Y23.391 I0.498 J0.143
G2 X-102.827 Y22.574 I-1.216 J-1.216
G1 X-102.63 Y21.745 F1500.
X-102.618 Y21.695 Z-2.493
X-102.606 Y21.648 Z-2.473
X-102.597 Y21.608 Z-2.441
X-102.589 Y21.577 Z-2.4
X-102.585 Y21.557 Z-2.352
X-102.583 Y21.551 Z-2.3
Z-0.5
X-101.05 Y23.837
Z-2.44
X-101.052 Y23.841 Z-2.463
X-101.058 Y23.853 Z-2.482
X-101.066 Y23.87 Z-2.495
X-101.077 Y23.891 Z-2.5
G3 X-101.255 Y24. I-0.178 J-0.091
G1 X-101.675 F320.
G2 X-102.416 Y24.328 J1.
G3 X-103.863 Y24.363 I-0.741 J-0.672
X-103.828 Y22.916 I0.707 J-0.707
G2 X-103.5 Y22.175 I-0.672 J-0.741
G1 Y21.755
G3 X-103.3 Y21.555 I0.2
G1 X-97.7
G3 X-97.5 Y21.755 J0.2
G1 Y22.175
G2 X-97.172 Y22.916 I1.
G3 X-97.136 Y24.364 I-0.672 J0.741
X-98.584 Y24.328 I-0.707 J-0.707
G2 X-99.325 Y24. I-0.741 J0.672
G1 X-99.745
G3 X-99.9 Y23.674 J-0.2
G1 X-98.617 Y22.097
G3 X-98.268 Y22.177 I0.155 J0.126
G1 X-98.256 Y22.227 Z-2.507 F1500.
X-98.244 Y22.274 Z-2.527
X-98.235 Y22.314 Z-2.559
X-98.227 Y22.345 Z-2.6
X-98.223 Y22.365 Z-2.648
X-98.221 Y22.371 Z-2.7
Z-2.8
X-98.22 Y22.378 Z-2.852
X-98.215 Y22.398 Z-2.9
X-98.208 Y22.428 Z-2.941
X-98.198 Y22.469 Z-2.973
X-98.187 Y22.516 Z-2.993
X-98.175 Y22.566 Z-3.
X-98.173 Y22.574
G2 X-97.655 Y23.449 I1.673 J-0.399 F320.
G3 X-97.636 Y23.845 I-0.188 J0.207
X-97.885 Y23.916 I-0.182 J-0.165
X-98.109 Y23.784 I0.144 J-0.499
G2 X-98.926 Y23.327 I-1.216 J1.216
G1 X-102.074
G2 X-102.949 Y23.844 I0.399 J1.673
G3 X-103.344 Y23.864 I-0.207 J-0.188
X-103.415 Y23.614 I0.165 J-0.182
X-103.284 Y23.391 I0.498 J0.143
G2 X-102.827 Y22.574 I-1.216 J-1.216
G1 X-102.63 Y21.745 F1500.
X-102.618 Y21.695 Z-2.993
X-102.606 Y21.648 Z-2.973
X-102.597 Y21.608 Z-2.941
X-102.589 Y21.577 Z-2.9
X-102.585 Y21.557 Z-2.852
X-102.583 Y21.551 Z-2.8
Z-1.
X-101.05 Y23.837
Z-2.94
X-101.052 Y23.841 Z-2.963
X-101.058 Y23.853 Z-2.982
X-101.066 Y23.87 Z-2.995
X-101.077 Y23.891 Z-3.
G3 X-101.255 Y24. I-0.178 J-0.091
G1 X-101.675 F320.
G2 X-102.416 Y24.328 J1.
G3 X-103.863 Y24.363 I-0.741 J-0.672
X-103.828 Y22.916 I0.707 J-0.707
G2 X-103.5 Y22.175 I-0.672 J-0.741
G1 Y21.755
G3 X-103.3 Y21.555 I0.2
G1 X-97.7
G3 X-97.5 Y21.755 J0.2
G1 Y22.175
G2 X-97.172 Y22.916 I1.
G3 X-97.136 Y24.364 I-0.672 J0.741
X-98.584 Y24.328 I-0.707 J-0.707
G2 X-99.325 Y24. I-0.741 J0.672
G1 X-99.745
G3 X-99.776 Y23.998 J-0.2 F1500.
G1 X-100.764 Y23.841
X-100.815 Y23.833 Z-2.993
X-100.863 Y23.825 Z-2.973
X-100.904 Y23.819 Z-2.941
X-100.935 Y23.814 Z-2.9
X-100.955 Y23.811 Z-2.852
X-100.961 Y23.81 Z-2.8
G0 Z15.
G91
G28 Z0.
M5
G28 X0. Y0.
M30
%
