%
O00001049
(T4  D=10. CR=0. TAPER=45DEG - ZMIN=-1.2 - CHAMFER MILL)
G90 G94 G17
G21
G91
G28 Z0.
G90
(2D CHAMFER1 (4))
T4 M6
S5000 M3
G54
G0 X52.825 Y18.
G43 Z15. H4
G0 Z5.
G1 Z2. F1250.
Z-1.2 F250.
Y19. F1250.
G2 X52.084 Y19.328 J1.
G3 X50.636 Y19.364 I-0.741 J-0.672
X50.672 Y17.916 I0.707 J-0.707
G2 X51. Y17.175 I-0.672 J-0.741
G1 Y-67.175
G2 X50.672 Y-67.916 I-1.
G3 X50.636 Y-69.364 I0.672 J-0.741
X52.084 Y-69.328 I0.707 J0.707
G2 X52.825 Y-69. I0.741 J-0.672
G1 X55.175
G2 X55.916 Y-69.328 J-1.
G3 X57.364 Y-69.364 I0.741 J0.672
X57.328 Y-67.916 I-0.707 J0.707
G2 X57. Y-67.175 I0.672 J0.741
G1 Y17.175
G2 X57.328 Y17.916 I1.
G3 X57.364 Y19.364 I-0.672 J0.741
X55.916 Y19.328 I-0.707 J-0.707
G2 X55.175 Y19. I-0.741 J0.672
G1 X52.825
Y18.
G0 Z5.
X99.325 Y23.
G1 Z2. F1250.
Z-1.2 F250.
Y24. F1250.
G2 X98.584 Y24.328 J1.
G3 X97.136 Y24.364 I-0.741 J-0.672
X97.172 Y22.916 I0.707 J-0.707
G2 X97.5 Y22.175 I-0.672 J-0.741
G1 Y-22.175
G2 X97.172 Y-22.916 I-1.
G3 X97.136 Y-24.364 I0.672 J-0.741
X98.584 Y-24.328 I0.707 J0.707
G2 X99.325 Y-24. I0.741 J-0.672
G1 X101.675
G2 X102.416 Y-24.328 J-1.
G3 X103.863 Y-24.363 I0.741 J0.672
X103.828 Y-22.916 I-0.707 J0.707
G2 X103.5 Y-22.175 I0.672 J0.741
G1 Y22.175
G2 X103.828 Y22.916 I1.
G3 X103.863 Y24.363 I-0.672 J0.741
X102.416 Y24.328 I-0.707 J-0.707
G2 X101.675 Y24. I-0.741 J0.672
G1 X99.325
Y23.
G0 Z5.
X-52. Y17.175
G1 Z2. F1250.
Z-1.2 F250.
X-51. F1250.
G2 X-50.672 Y17.916 I1.
G3 X-50.636 Y19.364 I-0.672 J0.741
X-52.084 Y19.328 I-0.707 J-0.707
G2 X-52.825 Y19. I-0.741 J0.672
G1 X-55.175
G2 X-55.916 Y19.328 J1.
G3 X-57.364 Y19.364 I-0.741 J-0.672
X-57.328 Y17.916 I0.707 J-0.707
G2 X-57. Y17.175 I-0.672 J-0.741
G1 Y-67.175
G2 X-57.328 Y-67.916 I-1.
G3 X-57.364 Y-69.364 I0.672 J-0.741
X-55.916 Y-69.328 I0.707 J0.707
G2 X-55.175 Y-69. I0.741 J-0.672
G1 X-52.825
G2 X-52.084 Y-69.328 J-1.
G3 X-50.636 Y-69.364 I0.741 J0.672
X-50.672 Y-67.916 I-0.707 J0.707
G2 X-51. Y-67.175 I0.672 J0.741
G1 Y17.175
X-52.
G0 Z5.
X-98.5 Y22.175
G1 Z2. F1250.
Z-1.2 F250.
X-97.5 F1250.
G2 X-97.172 Y22.916 I1.
G3 X-97.136 Y24.364 I-0.672 J0.741
X-98.584 Y24.328 I-0.707 J-0.707
G2 X-99.325 Y24. I-0.741 J0.672
G1 X-101.675
G2 X-102.416 Y24.328 J1.
G3 X-103.863 Y24.363 I-0.741 J-0.672
X-103.828 Y22.916 I0.707 J-0.707
G2 X-103.5 Y22.175 I-0.672 J-0.741
G1 Y-22.175
G2 X-103.828 Y-22.916 I-1.
G3 X-103.863 Y-24.363 I0.672 J-0.741
X-102.416 Y-24.328 I0.707 J0.707
G2 X-101.675 Y-24. I0.741 J-0.672
G1 X-99.325
G2 X-98.584 Y-24.328 J-1.
G3 X-97.136 Y-24.364 I0.741 J0.672
X-97.172 Y-22.916 I-0.707 J0.707
G2 X-97.5 Y-22.175 I0.672 J0.741
G1 Y22.175
X-98.5
G0 Z15.
G91
G28 Z0.
M5
G28 X0. Y0.
M30
%
