%
O00001001
(T4  D=2. CR=0. TAPER=118DEG - ZMIN=-8.1 - DRILL)
G90 G94 G17
G21
G91
G28 Z0.
G90
(DRILL1)
T4 M6
S9700 M3
G54
G0 X-318.5 Y-5.
G43 Z15. H4
G0 Z5.
G98 G81 X-318.5 Y-5. Z-8.1 R5. F194.
X-298.5
X-296. Y-23.
X-306.
X-278.05 Y-108.
X-296. Y-103.
X-306.
X-301. Y-133.
Y-153.
X-278.05 Y-158.
X-306. Y-183.
X-296.
X-278.05 Y-208.
X-306. Y-263.
X-296.
X-298.5 Y-281.
X-318.5
X-5. Y-197.
X-49. Y-173.
X-43. Y-197.
X-41. Y-212.
X-49. Y-233.
X-41. Y-228.
X-31. Y-230.
Y-239.
X-41. Y-244.
X-141. Y-269.5
X-161.
X-176. Y-263.
X-186.
Y-183.
X-176.
Y-103.
X-186.
Y-23.
X-176.
X-161. Y-16.5
X-141.
X-41. Y-42.
X-31. Y-47.
Y-56.
X-41. Y-58.
Y-74.
X-43. Y-89.
X-49. Y-113.
X-5. Y-89.
G80
Z15.
G91
G28 Z0.
M5
G28 X0. Y0.
M30
%
