%
O00001002
(T3  D=5.85 CR=0. - ZMIN=-8.1 - FLAT END MILL)
G90 G94 G17
G21
G91
G28 Z0.
G90
(2D CONTOUR1)
T3 M6
S5000 M3
G54
G0 X-10.525 Y-234.7
G43 Z15. H3
G0 Z5.
G1 Z2. F1000.
Z-0.8 F333.3
G18 G2 X-10.325 Z-1. I0.2
G1 X-10.125 F1000.
G17 G3 X-9.925 Y-234.5 J0.2
G1 Y-231.25 F800.
G3 X-10. Y-231.175 I-0.075
G1 X-24.
G3 X-24.075 Y-231.25 J-0.075
G1 Y-237.75
G3 X-24. Y-237.825 I0.075
G1 X-10.
G3 X-9.925 Y-237.75 J0.075
G1 Y-234.5
G3 X-10.125 Y-234.3 I-0.2 F1000.
G1 X-10.325
G18 G3 X-10.525 Z-0.8 K0.2
G0 Z5.
Y-234.7
G1 Z1. F1000.
Z-1.8 F333.3
G2 X-10.325 Z-2. I0.2
G1 X-10.125 F1000.
G17 G3 X-9.925 Y-234.5 J0.2
G1 Y-231.25 F800.
G3 X-10. Y-231.175 I-0.075
G1 X-24.
G3 X-24.075 Y-231.25 J-0.075
G1 Y-237.75
G3 X-24. Y-237.825 I0.075
G1 X-10.
G3 X-9.925 Y-237.75 J0.075
G1 Y-234.5
G3 X-10.125 Y-234.3 I-0.2 F1000.
G1 X-10.325
G18 G3 X-10.525 Z-1.8 K0.2
G0 Z5.
Y-234.7
G1 Z0. F1000.
Z-2.8 F333.3
G2 X-10.325 Z-3. I0.2
G1 X-10.125 F1000.
G17 G3 X-9.925 Y-234.5 J0.2
G1 Y-231.25 F800.
G3 X-10. Y-231.175 I-0.075
G1 X-24.
G3 X-24.075 Y-231.25 J-0.075
G1 Y-237.75
G3 X-24. Y-237.825 I0.075
G1 X-10.
G3 X-9.925 Y-237.75 J0.075
G1 Y-234.5
G3 X-10.125 Y-234.3 I-0.2 F1000.
G1 X-10.325
G18 G3 X-10.525 Z-2.8 K0.2
G0 Z5.
Y-234.7
G1 Z-1. F1000.
Z-3.8 F333.3
G2 X-10.325 Z-4. I0.2
G1 X-10.125 F1000.
G17 G3 X-9.925 Y-234.5 J0.2
G1 Y-231.25 F800.
G3 X-10. Y-231.175 I-0.075
G1 X-24.
G3 X-24.075 Y-231.25 J-0.075
G1 Y-237.75
G3 X-24. Y-237.825 I0.075
G1 X-10.
G3 X-9.925 Y-237.75 J0.075
G1 Y-234.5
G3 X-10.125 Y-234.3 I-0.2 F1000.
G1 X-10.325
G18 G3 X-10.525 Z-3.8 K0.2
G0 Z5.
Y-234.7
G1 Z-2. F1000.
Z-4.8 F333.3
G2 X-10.325 Z-5. I0.2
G1 X-10.125 F1000.
G17 G3 X-9.925 Y-234.5 J0.2
G1 Y-231.25 F800.
G3 X-10. Y-231.175 I-0.075
G1 X-24.
G3 X-24.075 Y-231.25 J-0.075
G1 Y-237.75
G3 X-24. Y-237.825 I0.075
G1 X-10.
G3 X-9.925 Y-237.75 J0.075
G1 Y-234.5
G3 X-10.125 Y-234.3 I-0.2 F1000.
G1 X-10.325
G18 G3 X-10.525 Z-4.8 K0.2
G0 Z5.
Y-234.7
G1 Z-3. F1000.
Z-5.8 F333.3
G2 X-10.325 Z-6. I0.2
G1 X-10.125 F1000.
G17 G3 X-9.925 Y-234.5 J0.2
G1 Y-231.25 F800.
G3 X-10. Y-231.175 I-0.075
G1 X-24.
G3 X-24.075 Y-231.25 J-0.075
G1 Y-237.75
G3 X-24. Y-237.825 I0.075
G1 X-10.
G3 X-9.925 Y-237.75 J0.075
G1 Y-234.5
G3 X-10.125 Y-234.3 I-0.2 F1000.
G1 X-10.325
G18 G3 X-10.525 Z-5.8 K0.2
G0 Z5.
Y-234.7
G1 Z-4. F1000.
Z-6.8 F333.3
G2 X-10.325 Z-7. I0.2
G1 X-10.125 F1000.
G17 G3 X-9.925 Y-234.5 J0.2
G1 Y-231.25 F800.
G3 X-10. Y-231.175 I-0.075
G1 X-24.
G3 X-24.075 Y-231.25 J-0.075
G1 Y-237.75
G3 X-24. Y-237.825 I0.075
G1 X-10.
G3 X-9.925 Y-237.75 J0.075
G1 Y-234.5
G3 X-10.125 Y-234.3 I-0.2 F1000.
G1 X-10.325
G18 G3 X-10.525 Z-6.8 K0.2
G0 Z5.
Y-234.7
G1 Z-5. F1000.
Z-7.35 F333.3
G2 X-10.325 Z-7.55 I0.2
G1 X-10.125 F1000.
G17 G3 X-9.925 Y-234.5 J0.2
G1 Y-231.25 F800.
G3 X-10. Y-231.175 I-0.075
G1 X-24.
G3 X-24.075 Y-231.25 J-0.075
G1 Y-237.75
G3 X-24. Y-237.825 I0.075
G1 X-10.
G3 X-9.925 Y-237.75 J0.075
G1 Y-234.5
G3 X-10.125 Y-234.3 I-0.2 F1000.
G1 X-10.325
G18 G3 X-10.525 Z-7.35 K0.2
G0 Z5.
Y-234.7
G1 Z-5.55 F1000.
Z-7.9 F333.3
G2 X-10.325 Z-8.1 I0.2
G1 X-10.125 F1000.
G17 G3 X-9.925 Y-234.5 J0.2
G1 Y-231.25 F800.
G3 X-10. Y-231.175 I-0.075
G1 X-24.
G3 X-24.075 Y-231.25 J-0.075
G1 Y-237.75
G3 X-24. Y-237.825 I0.075
G1 X-10.
G3 X-9.925 Y-237.75 J0.075
G1 Y-234.5
G3 X-10.125 Y-234.3 I-0.2 F1000.
G1 X-10.325
G18 G3 X-10.525 Z-7.9 K0.2
G0 Z5.
X-20.95 Y-54.225
G1 Z2. F1000.
Z-0.8 F333.3
G19 G2 Y-54.425 Z-1. J-0.2
G1 Y-54.625 F1000.
G17 G3 X-20.75 Y-54.825 I0.2
G1 X-10. F800.
G3 X-9.925 Y-54.75 J0.075
G1 Y-48.25
G3 X-10. Y-48.175 I-0.075
G1 X-24.
G3 X-24.075 Y-48.25 J-0.075
G1 Y-54.75
G3 X-24. Y-54.825 I0.075
G1 X-20.75
G3 X-20.55 Y-54.625 J0.2 F1000.
G1 Y-54.425
G19 G3 Y-54.225 Z-0.8 K0.2
G0 Z5.
X-20.95
G1 Z1. F1000.
Z-1.8 F333.3
G2 Y-54.425 Z-2. J-0.2
G1 Y-54.625 F1000.
G17 G3 X-20.75 Y-54.825 I0.2
G1 X-10. F800.
G3 X-9.925 Y-54.75 J0.075
G1 Y-48.25
G3 X-10. Y-48.175 I-0.075
G1 X-24.
G3 X-24.075 Y-48.25 J-0.075
G1 Y-54.75
G3 X-24. Y-54.825 I0.075
G1 X-20.75
G3 X-20.55 Y-54.625 J0.2 F1000.
G1 Y-54.425
G19 G3 Y-54.225 Z-1.8 K0.2
G0 Z5.
X-20.95
G1 Z0. F1000.
Z-2.8 F333.3
G2 Y-54.425 Z-3. J-0.2
G1 Y-54.625 F1000.
G17 G3 X-20.75 Y-54.825 I0.2
G1 X-10. F800.
G3 X-9.925 Y-54.75 J0.075
G1 Y-48.25
G3 X-10. Y-48.175 I-0.075
G1 X-24.
G3 X-24.075 Y-48.25 J-0.075
G1 Y-54.75
G3 X-24. Y-54.825 I0.075
G1 X-20.75
G3 X-20.55 Y-54.625 J0.2 F1000.
G1 Y-54.425
G19 G3 Y-54.225 Z-2.8 K0.2
G0 Z5.
X-20.95
G1 Z-1. F1000.
Z-3.8 F333.3
G2 Y-54.425 Z-4. J-0.2
G1 Y-54.625 F1000.
G17 G3 X-20.75 Y-54.825 I0.2
G1 X-10. F800.
G3 X-9.925 Y-54.75 J0.075
G1 Y-48.25
G3 X-10. Y-48.175 I-0.075
G1 X-24.
G3 X-24.075 Y-48.25 J-0.075
G1 Y-54.75
G3 X-24. Y-54.825 I0.075
G1 X-20.75
G3 X-20.55 Y-54.625 J0.2 F1000.
G1 Y-54.425
G19 G3 Y-54.225 Z-3.8 K0.2
G0 Z5.
X-20.95
G1 Z-2. F1000.
Z-4.8 F333.3
G2 Y-54.425 Z-5. J-0.2
G1 Y-54.625 F1000.
G17 G3 X-20.75 Y-54.825 I0.2
G1 X-10. F800.
G3 X-9.925 Y-54.75 J0.075
G1 Y-48.25
G3 X-10. Y-48.175 I-0.075
G1 X-24.
G3 X-24.075 Y-48.25 J-0.075
G1 Y-54.75
G3 X-24. Y-54.825 I0.075
G1 X-20.75
G3 X-20.55 Y-54.625 J0.2 F1000.
G1 Y-54.425
G19 G3 Y-54.225 Z-4.8 K0.2
G0 Z5.
X-20.95
G1 Z-3. F1000.
Z-5.8 F333.3
G2 Y-54.425 Z-6. J-0.2
G1 Y-54.625 F1000.
G17 G3 X-20.75 Y-54.825 I0.2
G1 X-10. F800.
G3 X-9.925 Y-54.75 J0.075
G1 Y-48.25
G3 X-10. Y-48.175 I-0.075
G1 X-24.
G3 X-24.075 Y-48.25 J-0.075
G1 Y-54.75
G3 X-24. Y-54.825 I0.075
G1 X-20.75
G3 X-20.55 Y-54.625 J0.2 F1000.
G1 Y-54.425
G19 G3 Y-54.225 Z-5.8 K0.2
G0 Z5.
X-20.95
G1 Z-4. F1000.
Z-6.8 F333.3
G2 Y-54.425 Z-7. J-0.2
G1 Y-54.625 F1000.
G17 G3 X-20.75 Y-54.825 I0.2
G1 X-10. F800.
G3 X-9.925 Y-54.75 J0.075
G1 Y-48.25
G3 X-10. Y-48.175 I-0.075
G1 X-24.
G3 X-24.075 Y-48.25 J-0.075
G1 Y-54.75
G3 X-24. Y-54.825 I0.075
G1 X-20.75
G3 X-20.55 Y-54.625 J0.2 F1000.
G1 Y-54.425
G19 G3 Y-54.225 Z-6.8 K0.2
G0 Z5.
X-20.95
G1 Z-5. F1000.
Z-7.35 F333.3
G2 Y-54.425 Z-7.55 J-0.2
G1 Y-54.625 F1000.
G17 G3 X-20.75 Y-54.825 I0.2
G1 X-10. F800.
G3 X-9.925 Y-54.75 J0.075
G1 Y-48.25
G3 X-10. Y-48.175 I-0.075
G1 X-24.
G3 X-24.075 Y-48.25 J-0.075
G1 Y-54.75
G3 X-24. Y-54.825 I0.075
G1 X-20.75
G3 X-20.55 Y-54.625 J0.2 F1000.
G1 Y-54.425
G19 G3 Y-54.225 Z-7.35 K0.2
G0 Z5.
X-20.95
G1 Z-5.55 F1000.
Z-7.9 F333.3
G2 Y-54.425 Z-8.1 J-0.2
G1 Y-54.625 F1000.
G17 G3 X-20.75 Y-54.825 I0.2
G1 X-10. F800.
G3 X-9.925 Y-54.75 J0.075
G1 Y-48.25
G3 X-10. Y-48.175 I-0.075
G1 X-24.
G3 X-24.075 Y-48.25 J-0.075
G1 Y-54.75
G3 X-24. Y-54.825 I0.075
G1 X-20.75
G3 X-20.55 Y-54.625 J0.2 F1000.
G1 Y-54.425
G19 G3 Y-54.225 Z-7.9 K0.2
G0 Z15.
G17
(2D CONTOUR1 (2))
G0 X-277.575 Y-81.608
Z15.
Z5.
G1 Z2. F1000.
Z-0.8 F333.3
G18 G3 X-277.775 Z-1. I-0.2
G1 X-277.975 F1000.
G17 G3 X-278.175 Y-81.808 J-0.2
G1 Y-230.075 F800.
X-277.925
Y-83.
Y-81.808
G3 X-278.125 Y-81.608 I-0.2 F1000.
G1 X-278.325
G18 G3 X-278.525 Z-0.8 K0.2
G0 Z5.
X-277.575
G1 Z1. F1000.
Z-1.35 F333.3
G3 X-277.775 Z-1.55 I-0.2
G1 X-277.975 F1000.
G17 G3 X-278.175 Y-81.808 J-0.2
G1 Y-230.075 F800.
X-277.925
Y-83.
Y-81.808
G3 X-278.125 Y-81.608 I-0.2 F1000.
G1 X-278.325
G18 G3 X-278.525 Z-1.35 K0.2
G0 Z5.
X-277.575
G1 Z0.45 F1000.
Z-1.9 F333.3
G3 X-277.775 Z-2.1 I-0.2
G1 X-277.975 F1000.
G17 G3 X-278.175 Y-81.808 J-0.2
G1 Y-230.075 F800.
X-277.925
Y-83.
Y-81.808
G3 X-278.125 Y-81.608 I-0.2 F1000.
G1 X-278.325
G18 G3 X-278.525 Z-1.9 K0.2
G0 Z15.
G17
G91
G28 Z0.
M5
G0
G28 X0. Y0.
M30
%
