%
O00001003
(T3  D=5.85 CR=0. - ZMIN=-8.1 - FLAT END MILL)
G90 G94 G17
G21
G91
G28 Z0.
G90
(2D CONTOUR1 (3))
T3 M6
S5000 M3
G54
G0 X-194.525 Y-217.125
G43 Z15. H3
G0 Z5.
G1 Z2.5 F1000.
Z-1.15 F333.3
G18 G2 X-194.325 Z-1.35 I0.2
G1 X-194.125 F1000.
G17 G3 X-193.925 Y-216.925 J0.2
G1 Y-11. F800.
G2 X-191. Y-8.075 I2.925
G1 X-123.5
G2 X-120.575 Y-11. J-2.925
G1 Y-60.075
X-57.425
Y-43.
G2 X-56.568 Y-40.932 I2.925
G1 X-36.568 Y-20.932
G2 X-34.5 Y-20.075 I2.068 J-2.068
G1 X-21.
G2 X-18.075 Y-23. J-2.925
G1 Y-38.
G3 X-18. Y-38.075 I0.075
G1 X-1.
G2 X1.925 Y-41. J-2.925
G1 Y-118.
G2 X-1. Y-120.925 I-2.925
G1 X-23.
G3 X-23.075 Y-121. J-0.075
G1 Y-165.
G3 X-23. Y-165.075 I0.075
G1 X-1.
G2 X1.925 Y-168. J-2.925
G1 Y-245.
G2 X-1. Y-247.925 I-2.925
G1 X-18.
G3 X-18.075 Y-248. J-0.075
G1 Y-263.
G2 X-21. Y-265.925 I-2.925
G1 X-51.5
G3 X-51.575 Y-266. J-0.075
G1 Y-285.
G2 X-54.5 Y-287.925 I-2.925
G1 X-326.
G2 X-328.925 Y-285. J2.925
G1 Y-1.
G2 X-326. Y1.925 I2.925
G1 X-291.
G2 X-288.075 Y-1. J-2.925
G1 Y-73.788
X-281.788 Y-80.075
X-271.
G2 X-268.075 Y-83. J-2.925
G1 Y-230.075
X-193.925
Y-216.925
G3 X-194.125 Y-216.725 I-0.2 F1000.
G1 X-194.325
G18 G3 X-194.525 Z-1.15 K0.2
G0 Z5.
X-215.809 Y-207.909
G1 Z2.5 F1000.
Z-1.15 F333.3
X-215.813 Y-207.904 Z-1.202
X-215.827 Y-207.89 Z-1.25
X-215.85 Y-207.867 Z-1.291
X-215.879 Y-207.838 Z-1.323
X-215.913 Y-207.804 Z-1.343
X-215.95 Y-207.767 Z-1.35
X-216.091 Y-207.626 F1000.
G17 G3 X-216.374 I-0.141 J-0.141
G1 X-227.587 Y-218.838 F800.
G2 X-229.655 Y-219.695 I-2.068 J2.068
G1 X-231.797
G2 X-234.722 Y-216.77 J2.925
G1 Y-196.77
G2 X-231.797 Y-193.845 I2.925
G1 X-225.009
X-224.722 Y-193.558
Y-99.981
X-225.009 Y-99.695
X-231.797
G2 X-234.722 Y-96.77 J2.925
G1 Y-76.77
G2 X-231.797 Y-73.845 I2.925
G1 X-229.655
G2 X-227.587 Y-74.701 J-2.925
G1 X-209.729 Y-92.559
G2 X-208.872 Y-94.628 I-2.068 J-2.068
G1 Y-198.912
G2 X-209.729 Y-200.98 I-2.925
G1 X-216.374 Y-207.626
G3 Y-207.909 I0.141 J-0.141 F1000.
G1 X-216.233 Y-208.05
X-216.196 Y-208.087 Z-1.343
X-216.162 Y-208.121 Z-1.323
X-216.133 Y-208.15 Z-1.291
X-216.11 Y-208.173 Z-1.25
X-216.096 Y-208.187 Z-1.202
X-216.091 Y-208.191 Z-1.15
G0 Z5.
X-215.809 Y-207.909
G1 Z1.15 F1000.
Z-2.5 F333.3
X-215.813 Y-207.904 Z-2.552
X-215.827 Y-207.89 Z-2.6
X-215.85 Y-207.867 Z-2.641
X-215.879 Y-207.838 Z-2.673
X-215.913 Y-207.804 Z-2.693
X-215.95 Y-207.767 Z-2.7
X-216.091 Y-207.626 F1000.
G3 X-216.374 I-0.141 J-0.141
G1 X-227.587 Y-218.838 F800.
G2 X-229.655 Y-219.695 I-2.068 J2.068
G1 X-231.797
G2 X-234.722 Y-216.77 J2.925
G1 Y-196.77
G2 X-231.797 Y-193.845 I2.925
G1 X-225.009
X-224.722 Y-193.558
Y-99.981
X-225.009 Y-99.695
X-231.797
G2 X-234.722 Y-96.77 J2.925
G1 Y-76.77
G2 X-231.797 Y-73.845 I2.925
G1 X-229.655
G2 X-227.587 Y-74.701 J-2.925
G1 X-209.729 Y-92.559
G2 X-208.872 Y-94.628 I-2.068 J-2.068
G1 Y-198.912
G2 X-209.729 Y-200.98 I-2.925
G1 X-216.374 Y-207.626
G3 Y-207.909 I0.141 J-0.141 F1000.
G1 X-216.233 Y-208.05
X-216.196 Y-208.087 Z-2.693
X-216.162 Y-208.121 Z-2.673
X-216.133 Y-208.15 Z-2.641
X-216.11 Y-208.173 Z-2.6
X-216.096 Y-208.187 Z-2.552
X-216.091 Y-208.191 Z-2.5
G0 Z5.
X-236.789 Y-200.743
G1 Z2.5 F1000.
Z-1.15 F333.3
X-236.794 Y-200.738 Z-1.202
X-236.808 Y-200.724 Z-1.25
X-236.831 Y-200.702 Z-1.291
X-236.86 Y-200.672 Z-1.323
X-236.894 Y-200.638 Z-1.343
X-236.931 Y-200.602 Z-1.35
X-237.072 Y-200.46 F1000.
G3 X-237.355 I-0.141 J-0.141
G1 X-255.213 Y-218.317 F800.
G2 X-257.281 Y-219.174 I-2.068 J2.068
G1 X-259.423
G2 X-262.348 Y-216.249 J2.925
G1 Y-196.249
G2 X-259.423 Y-193.324 I2.925
G1 X-252.635
X-252.348 Y-193.037
Y-99.461
X-252.635 Y-99.174
X-259.423
G2 X-262.348 Y-96.249 J2.925
G1 Y-76.249
G2 X-259.423 Y-73.325 I2.925
G1 X-257.281
G2 X-255.213 Y-74.181 J-2.925
G1 X-237.355 Y-92.039
G2 X-236.498 Y-94.107 I-2.068 J-2.068
G1 Y-198.392
G2 X-237.355 Y-200.46 I-2.925
G3 Y-200.743 I0.141 J-0.141 F1000.
G1 X-237.213 Y-200.885
X-237.177 Y-200.921 Z-1.343
X-237.143 Y-200.955 Z-1.323
X-237.113 Y-200.985 Z-1.291
X-237.091 Y-201.007 Z-1.25
X-237.077 Y-201.021 Z-1.202
X-237.072 Y-201.026 Z-1.15
G0 Z5.
X-236.789 Y-200.743
G1 Z1.15 F1000.
Z-2.5 F333.3
X-236.794 Y-200.738 Z-2.552
X-236.808 Y-200.724 Z-2.6
X-236.831 Y-200.702 Z-2.641
X-236.86 Y-200.672 Z-2.673
X-236.894 Y-200.638 Z-2.693
X-236.931 Y-200.602 Z-2.7
X-237.072 Y-200.46 F1000.
G3 X-237.355 I-0.141 J-0.141
G1 X-255.213 Y-218.317 F800.
G2 X-257.281 Y-219.174 I-2.068 J2.068
G1 X-259.423
G2 X-262.348 Y-216.249 J2.925
G1 Y-196.249
G2 X-259.423 Y-193.324 I2.925
G1 X-252.635
X-252.348 Y-193.037
Y-99.461
X-252.635 Y-99.174
X-259.423
G2 X-262.348 Y-96.249 J2.925
G1 Y-76.249
G2 X-259.423 Y-73.325 I2.925
G1 X-257.281
G2 X-255.213 Y-74.181 J-2.925
G1 X-237.355 Y-92.039
G2 X-236.498 Y-94.107 I-2.068 J-2.068
G1 Y-198.392
G2 X-237.355 Y-200.46 I-2.925
G3 Y-200.743 I0.141 J-0.141 F1000.
G1 X-237.213 Y-200.885
X-237.177 Y-200.921 Z-2.693
X-237.143 Y-200.955 Z-2.673
X-237.113 Y-200.985 Z-2.641
X-237.091 Y-201.007 Z-2.6
X-237.077 Y-201.021 Z-2.552
X-237.072 Y-201.026 Z-2.5
G0 Z5.
X-120.662 Y-194.861
G1 Z2.5 F1000.
Z-1.15 F333.3
G18 G2 X-120.462 Z-1.35 I0.2
G1 X-120.262 F1000.
G17 G3 X-120.062 Y-194.661 J0.2
G1 Y-123.144 F800.
X-120.349 Y-122.857
X-127.137
G2 X-130.062 Y-119.932 J2.925
G1 Y-99.932
G2 X-127.137 Y-97.007 I2.925
G1 X-124.995
G2 X-122.927 Y-97.864 J-2.925
G1 X-105.069 Y-115.722
G2 X-104.212 Y-117.79 I-2.068 J-2.068
G1 Y-222.074
G2 X-105.069 Y-224.142 I-2.925
G1 X-122.927 Y-242.
G2 X-124.995 Y-242.857 I-2.068 J2.068
G1 X-127.137
G2 X-130.062 Y-239.932 J2.925
G1 Y-219.932
G2 X-127.137 Y-217.007 I2.925
G1 X-120.349
X-120.062 Y-216.72
Y-194.661
G3 X-120.262 Y-194.461 I-0.2 F1000.
G1 X-120.462
G18 G3 X-120.662 Z-1.15 K0.2
G0 Z5.
Y-194.861
G1 Z1.15 F1000.
Z-2.5 F333.3
G2 X-120.462 Z-2.7 I0.2
G1 X-120.262 F1000.
G17 G3 X-120.062 Y-194.661 J0.2
G1 Y-123.144 F800.
X-120.349 Y-122.857
X-127.137
G2 X-130.062 Y-119.932 J2.925
G1 Y-99.932
G2 X-127.137 Y-97.007 I2.925
G1 X-124.995
G2 X-122.927 Y-97.864 J-2.925
G1 X-105.069 Y-115.722
G2 X-104.212 Y-117.79 I-2.068 J-2.068
G1 Y-222.074
G2 X-105.069 Y-224.142 I-2.925
G1 X-122.927 Y-242.
G2 X-124.995 Y-242.857 I-2.068 J2.068
G1 X-127.137
G2 X-130.062 Y-239.932 J2.925
G1 Y-219.932
G2 X-127.137 Y-217.007 I2.925
G1 X-120.349
X-120.062 Y-216.72
Y-194.661
G3 X-120.262 Y-194.461 I-0.2 F1000.
G1 X-120.462
G18 G3 X-120.662 Z-2.5 K0.2
G0 Z5.
X-89.35 Y-209.925
G1 Z2.5 F1000.
Z-1.15 F333.3
G2 X-89.15 Z-1.35 I0.2
G1 X-88.95 F1000.
G17 G3 X-88.75 Y-209.725 J0.2
G1 Y-123.573 F800.
X-89.037 Y-123.286
X-95.825
G2 X-98.75 Y-120.361 J2.925
G1 Y-100.361
G2 X-95.825 Y-97.436 I2.925
G1 X-93.683
G2 X-91.615 Y-98.293 J-2.925
G1 X-73.757 Y-116.151
G2 X-72.9 Y-118.219 I-2.068 J-2.068
G1 Y-222.503
G2 X-73.757 Y-224.571 I-2.925
G1 X-91.615 Y-242.429
G2 X-93.683 Y-243.286 I-2.068 J2.068
G1 X-95.825
G2 X-98.75 Y-240.361 J2.925
G1 Y-222.074
Y-220.361
G2 X-95.825 Y-217.436 I2.925
G1 X-89.037
X-88.75 Y-217.149
Y-209.725
G3 X-88.95 Y-209.525 I-0.2 F1000.
G1 X-89.15
G18 G3 X-89.35 Z-1.15 K0.2
G0 Z5.
Y-209.925
G1 Z1.15 F1000.
Z-2.5 F333.3
G2 X-89.15 Z-2.7 I0.2
G1 X-88.95 F1000.
G17 G3 X-88.75 Y-209.725 J0.2
G1 Y-123.573 F800.
X-89.037 Y-123.286
X-95.825
G2 X-98.75 Y-120.361 J2.925
G1 Y-100.361
G2 X-95.825 Y-97.436 I2.925
G1 X-93.683
G2 X-91.615 Y-98.293 J-2.925
G1 X-73.757 Y-116.151
G2 X-72.9 Y-118.219 I-2.068 J-2.068
G1 Y-222.503
G2 X-73.757 Y-224.571 I-2.925
G1 X-91.615 Y-242.429
G2 X-93.683 Y-243.286 I-2.068 J2.068
G1 X-95.825
G2 X-98.75 Y-240.361 J2.925
G1 Y-222.074
Y-220.361
G2 X-95.825 Y-217.436 I2.925
G1 X-89.037
X-88.75 Y-217.149
Y-209.725
G3 X-88.95 Y-209.525 I-0.2 F1000.
G1 X-89.15
G18 G3 X-89.35 Z-2.5 K0.2
G0 Z5.
X-194.525 Y-217.125
G1 Z1.15 F1000.
Z-2.5 F333.3
G2 X-194.325 Z-2.7 I0.2
G1 X-194.125 F1000.
G17 G3 X-193.925 Y-216.925 J0.2
G1 Y-11. F800.
G2 X-191. Y-8.075 I2.925
G1 X-123.5
G2 X-120.575 Y-11. J-2.925
G1 Y-60.075
X-57.425
Y-43.
G2 X-56.568 Y-40.932 I2.925
G1 X-36.568 Y-20.932
G2 X-34.5 Y-20.075 I2.068 J-2.068
G1 X-21.
G2 X-18.075 Y-23. J-2.925
G1 Y-38.
G3 X-18. Y-38.075 I0.075
G1 X-1.
G2 X1.925 Y-41. J-2.925
G1 Y-118.
G2 X-1. Y-120.925 I-2.925
G1 X-23.
G3 X-23.075 Y-121. J-0.075
G1 Y-165.
G3 X-23. Y-165.075 I0.075
G1 X-1.
G2 X1.925 Y-168. J-2.925
G1 Y-245.
G2 X-1. Y-247.925 I-2.925
G1 X-18.
G3 X-18.075 Y-248. J-0.075
G1 Y-263.
G2 X-21. Y-265.925 I-2.925
G1 X-51.5
G3 X-51.575 Y-266. J-0.075
G1 Y-285.
G2 X-54.5 Y-287.925 I-2.925
G1 X-326.
G2 X-328.925 Y-285. J2.925
G1 Y-1.
G2 X-326. Y1.925 I2.925
G1 X-291.
G2 X-288.075 Y-1. J-2.925
G1 Y-73.788
X-281.788 Y-80.075
X-271.
G2 X-268.075 Y-83. J-2.925
G1 Y-230.075
X-193.925
Y-216.925
G3 X-194.125 Y-216.725 I-0.2 F1000.
G1 X-194.325
G18 G3 X-194.525 Z-2.5 K0.2
G0 Z5.
Y-217.125
G1 Z-0.2 F1000.
Z-3.85 F333.3
G2 X-194.325 Z-4.05 I0.2
G1 X-194.125 F1000.
G17 G3 X-193.925 Y-216.925 J0.2
G1 Y-11. F800.
G2 X-191. Y-8.075 I2.925
G1 X-123.5
G2 X-120.575 Y-11. J-2.925
G1 Y-60.075
X-57.425
Y-43.
G2 X-56.568 Y-40.932 I2.925
G1 X-36.568 Y-20.932
G2 X-34.5 Y-20.075 I2.068 J-2.068
G1 X-21.
G2 X-18.075 Y-23. J-2.925
G1 Y-38.
G3 X-18. Y-38.075 I0.075
G1 X-1.
G2 X1.925 Y-41. J-2.925
G1 Y-118.
G2 X-1. Y-120.925 I-2.925
G1 X-23.
G3 X-23.075 Y-121. J-0.075
G1 Y-165.
G3 X-23. Y-165.075 I0.075
G1 X-1.
G2 X1.925 Y-168. J-2.925
G1 Y-245.
G2 X-1. Y-247.925 I-2.925
G1 X-18.
G3 X-18.075 Y-248. J-0.075
G1 Y-263.
G2 X-21. Y-265.925 I-2.925
G1 X-51.5
G3 X-51.575 Y-266. J-0.075
G1 Y-285.
G2 X-54.5 Y-287.925 I-2.925
G1 X-326.
G2 X-328.925 Y-285. J2.925
G1 Y-1.
G2 X-326. Y1.925 I2.925
G1 X-291.
G2 X-288.075 Y-1. J-2.925
G1 Y-73.788
X-281.788 Y-80.075
X-271.
G2 X-268.075 Y-83. J-2.925
G1 Y-230.075
X-193.925
Y-216.925
G3 X-194.125 Y-216.725 I-0.2 F1000.
G1 X-194.325
G18 G3 X-194.525 Z-3.85 K0.2
G0 Z5.
X-215.809 Y-207.909
G1 Z-0.2 F1000.
Z-3.85 F333.3
X-215.813 Y-207.904 Z-3.902
X-215.827 Y-207.89 Z-3.95
X-215.85 Y-207.867 Z-3.991
X-215.879 Y-207.838 Z-4.023
X-215.913 Y-207.804 Z-4.043
X-215.95 Y-207.767 Z-4.05
X-216.091 Y-207.626 F1000.
G17 G3 X-216.374 I-0.141 J-0.141
G1 X-227.587 Y-218.838 F800.
G2 X-229.655 Y-219.695 I-2.068 J2.068
G1 X-231.797
G2 X-234.722 Y-216.77 J2.925
G1 Y-196.77
G2 X-231.797 Y-193.845 I2.925
G1 X-225.009
X-224.722 Y-193.558
Y-99.981
X-225.009 Y-99.695
X-231.797
G2 X-234.722 Y-96.77 J2.925
G1 Y-76.77
G2 X-231.797 Y-73.845 I2.925
G1 X-229.655
G2 X-227.587 Y-74.701 J-2.925
G1 X-209.729 Y-92.559
G2 X-208.872 Y-94.628 I-2.068 J-2.068
G1 Y-198.912
G2 X-209.729 Y-200.98 I-2.925
G1 X-216.374 Y-207.626
G3 Y-207.909 I0.141 J-0.141 F1000.
G1 X-216.233 Y-208.05
X-216.196 Y-208.087 Z-4.043
X-216.162 Y-208.121 Z-4.023
X-216.133 Y-208.15 Z-3.991
X-216.11 Y-208.173 Z-3.95
X-216.096 Y-208.187 Z-3.902
X-216.091 Y-208.191 Z-3.85
G0 Z5.
X-215.809 Y-207.909
G1 Z-1.55 F1000.
Z-5.2 F333.3
X-215.813 Y-207.904 Z-5.252
X-215.827 Y-207.89 Z-5.3
X-215.85 Y-207.867 Z-5.341
X-215.879 Y-207.838 Z-5.373
X-215.913 Y-207.804 Z-5.393
X-215.95 Y-207.767 Z-5.4
X-216.091 Y-207.626 F1000.
G3 X-216.374 I-0.141 J-0.141
G1 X-227.587 Y-218.838 F800.
G2 X-229.655 Y-219.695 I-2.068 J2.068
G1 X-231.797
G2 X-234.722 Y-216.77 J2.925
G1 Y-196.77
G2 X-231.797 Y-193.845 I2.925
G1 X-225.009
X-224.722 Y-193.558
Y-99.981
X-225.009 Y-99.695
X-231.797
G2 X-234.722 Y-96.77 J2.925
G1 Y-76.77
G2 X-231.797 Y-73.845 I2.925
G1 X-229.655
G2 X-227.587 Y-74.701 J-2.925
G1 X-209.729 Y-92.559
G2 X-208.872 Y-94.628 I-2.068 J-2.068
G1 Y-198.912
G2 X-209.729 Y-200.98 I-2.925
G1 X-216.374 Y-207.626
G3 Y-207.909 I0.141 J-0.141 F1000.
G1 X-216.233 Y-208.05
X-216.196 Y-208.087 Z-5.393
X-216.162 Y-208.121 Z-5.373
X-216.133 Y-208.15 Z-5.341
X-216.11 Y-208.173 Z-5.3
X-216.096 Y-208.187 Z-5.252
X-216.091 Y-208.191 Z-5.2
G0 Z5.
X-236.789 Y-200.743
G1 Z-0.2 F1000.
Z-3.85 F333.3
X-236.794 Y-200.738 Z-3.902
X-236.808 Y-200.724 Z-3.95
X-236.831 Y-200.702 Z-3.991
X-236.86 Y-200.672 Z-4.023
X-236.894 Y-200.638 Z-4.043
X-236.931 Y-200.602 Z-4.05
X-237.072 Y-200.46 F1000.
G3 X-237.355 I-0.141 J-0.141
G1 X-255.213 Y-218.317 F800.
G2 X-257.281 Y-219.174 I-2.068 J2.068
G1 X-259.423
G2 X-262.348 Y-216.249 J2.925
G1 Y-196.249
G2 X-259.423 Y-193.324 I2.925
G1 X-252.635
X-252.348 Y-193.037
Y-99.461
X-252.635 Y-99.174
X-259.423
G2 X-262.348 Y-96.249 J2.925
G1 Y-76.249
G2 X-259.423 Y-73.325 I2.925
G1 X-257.281
G2 X-255.213 Y-74.181 J-2.925
G1 X-237.355 Y-92.039
G2 X-236.498 Y-94.107 I-2.068 J-2.068
G1 Y-198.392
G2 X-237.355 Y-200.46 I-2.925
G3 Y-200.743 I0.141 J-0.141 F1000.
G1 X-237.213 Y-200.885
X-237.177 Y-200.921 Z-4.043
X-237.143 Y-200.955 Z-4.023
X-237.113 Y-200.985 Z-3.991
X-237.091 Y-201.007 Z-3.95
X-237.077 Y-201.021 Z-3.902
X-237.072 Y-201.026 Z-3.85
G0 Z5.
X-236.789 Y-200.743
G1 Z-1.55 F1000.
Z-5.2 F333.3
X-236.794 Y-200.738 Z-5.252
X-236.808 Y-200.724 Z-5.3
X-236.831 Y-200.702 Z-5.341
X-236.86 Y-200.672 Z-5.373
X-236.894 Y-200.638 Z-5.393
X-236.931 Y-200.602 Z-5.4
X-237.072 Y-200.46 F1000.
G3 X-237.355 I-0.141 J-0.141
G1 X-255.213 Y-218.317 F800.
G2 X-257.281 Y-219.174 I-2.068 J2.068
G1 X-259.423
G2 X-262.348 Y-216.249 J2.925
G1 Y-196.249
G2 X-259.423 Y-193.324 I2.925
G1 X-252.635
X-252.348 Y-193.037
Y-99.461
X-252.635 Y-99.174
X-259.423
G2 X-262.348 Y-96.249 J2.925
G1 Y-76.249
G2 X-259.423 Y-73.325 I2.925
G1 X-257.281
G2 X-255.213 Y-74.181 J-2.925
G1 X-237.355 Y-92.039
G2 X-236.498 Y-94.107 I-2.068 J-2.068
G1 Y-198.392
G2 X-237.355 Y-200.46 I-2.925
G3 Y-200.743 I0.141 J-0.141 F1000.
G1 X-237.213 Y-200.885
X-237.177 Y-200.921 Z-5.393
X-237.143 Y-200.955 Z-5.373
X-237.113 Y-200.985 Z-5.341
X-237.091 Y-201.007 Z-5.3
X-237.077 Y-201.021 Z-5.252
X-237.072 Y-201.026 Z-5.2
G0 Z5.
X-120.662 Y-194.861
G1 Z-0.2 F1000.
Z-3.85 F333.3
G18 G2 X-120.462 Z-4.05 I0.2
G1 X-120.262 F1000.
G17 G3 X-120.062 Y-194.661 J0.2
G1 Y-123.144 F800.
X-120.349 Y-122.857
X-127.137
G2 X-130.062 Y-119.932 J2.925
G1 Y-99.932
G2 X-127.137 Y-97.007 I2.925
G1 X-124.995
G2 X-122.927 Y-97.864 J-2.925
G1 X-105.069 Y-115.722
G2 X-104.212 Y-117.79 I-2.068 J-2.068
G1 Y-222.074
G2 X-105.069 Y-224.142 I-2.925
G1 X-122.927 Y-242.
G2 X-124.995 Y-242.857 I-2.068 J2.068
G1 X-127.137
G2 X-130.062 Y-239.932 J2.925
G1 Y-219.932
G2 X-127.137 Y-217.007 I2.925
G1 X-120.349
X-120.062 Y-216.72
Y-194.661
G3 X-120.262 Y-194.461 I-0.2 F1000.
G1 X-120.462
G18 G3 X-120.662 Z-3.85 K0.2
G0 Z5.
Y-194.861
G1 Z-1.55 F1000.
Z-5.2 F333.3
G2 X-120.462 Z-5.4 I0.2
G1 X-120.262 F1000.
G17 G3 X-120.062 Y-194.661 J0.2
G1 Y-123.144 F800.
X-120.349 Y-122.857
X-127.137
G2 X-130.062 Y-119.932 J2.925
G1 Y-99.932
G2 X-127.137 Y-97.007 I2.925
G1 X-124.995
G2 X-122.927 Y-97.864 J-2.925
G1 X-105.069 Y-115.722
G2 X-104.212 Y-117.79 I-2.068 J-2.068
G1 Y-222.074
G2 X-105.069 Y-224.142 I-2.925
G1 X-122.927 Y-242.
G2 X-124.995 Y-242.857 I-2.068 J2.068
G1 X-127.137
G2 X-130.062 Y-239.932 J2.925
G1 Y-219.932
G2 X-127.137 Y-217.007 I2.925
G1 X-120.349
X-120.062 Y-216.72
Y-194.661
G3 X-120.262 Y-194.461 I-0.2 F1000.
G1 X-120.462
G18 G3 X-120.662 Z-5.2 K0.2
G0 Z5.
X-89.35 Y-209.925
G1 Z-0.2 F1000.
Z-3.85 F333.3
G2 X-89.15 Z-4.05 I0.2
G1 X-88.95 F1000.
G17 G3 X-88.75 Y-209.725 J0.2
G1 Y-123.573 F800.
X-89.037 Y-123.286
X-95.825
G2 X-98.75 Y-120.361 J2.925
G1 Y-100.361
G2 X-95.825 Y-97.436 I2.925
G1 X-93.683
G2 X-91.615 Y-98.293 J-2.925
G1 X-73.757 Y-116.151
G2 X-72.9 Y-118.219 I-2.068 J-2.068
G1 Y-222.503
G2 X-73.757 Y-224.571 I-2.925
G1 X-91.615 Y-242.429
G2 X-93.683 Y-243.286 I-2.068 J2.068
G1 X-95.825
G2 X-98.75 Y-240.361 J2.925
G1 Y-222.074
Y-220.361
G2 X-95.825 Y-217.436 I2.925
G1 X-89.037
X-88.75 Y-217.149
Y-209.725
G3 X-88.95 Y-209.525 I-0.2 F1000.
G1 X-89.15
G18 G3 X-89.35 Z-3.85 K0.2
G0 Z5.
Y-209.925
G1 Z-1.55 F1000.
Z-5.2 F333.3
G2 X-89.15 Z-5.4 I0.2
G1 X-88.95 F1000.
G17 G3 X-88.75 Y-209.725 J0.2
G1 Y-123.573 F800.
X-89.037 Y-123.286
X-95.825
G2 X-98.75 Y-120.361 J2.925
G1 Y-100.361
G2 X-95.825 Y-97.436 I2.925
G1 X-93.683
G2 X-91.615 Y-98.293 J-2.925
G1 X-73.757 Y-116.151
G2 X-72.9 Y-118.219 I-2.068 J-2.068
G1 Y-222.503
G2 X-73.757 Y-224.571 I-2.925
G1 X-91.615 Y-242.429
G2 X-93.683 Y-243.286 I-2.068 J2.068
G1 X-95.825
G2 X-98.75 Y-240.361 J2.925
G1 Y-222.074
Y-220.361
G2 X-95.825 Y-217.436 I2.925
G1 X-89.037
X-88.75 Y-217.149
Y-209.725
G3 X-88.95 Y-209.525 I-0.2 F1000.
G1 X-89.15
G18 G3 X-89.35 Z-5.2 K0.2
G0 Z5.
X-194.525 Y-217.125
G1 Z-1.55 F1000.
Z-5.2 F333.3
G2 X-194.325 Z-5.4 I0.2
G1 X-194.125 F1000.
G17 G3 X-193.925 Y-216.925 J0.2
G1 Y-11. F800.
G2 X-191. Y-8.075 I2.925
G1 X-123.5
G2 X-120.575 Y-11. J-2.925
G1 Y-60.075
X-57.425
Y-43.
G2 X-56.568 Y-40.932 I2.925
G1 X-36.568 Y-20.932
G2 X-34.5 Y-20.075 I2.068 J-2.068
G1 X-21.
G2 X-18.075 Y-23. J-2.925
G1 Y-38.
G3 X-18. Y-38.075 I0.075
G1 X-1.
G2 X1.925 Y-41. J-2.925
G1 Y-118.
G2 X-1. Y-120.925 I-2.925
G1 X-23.
G3 X-23.075 Y-121. J-0.075
G1 Y-165.
G3 X-23. Y-165.075 I0.075
G1 X-1.
G2 X1.925 Y-168. J-2.925
G1 Y-245.
G2 X-1. Y-247.925 I-2.925
G1 X-18.
G3 X-18.075 Y-248. J-0.075
G1 Y-263.
G2 X-21. Y-265.925 I-2.925
G1 X-51.5
G3 X-51.575 Y-266. J-0.075
G1 Y-285.
G2 X-54.5 Y-287.925 I-2.925
G1 X-326.
G2 X-328.925 Y-285. J2.925
G1 Y-1.
G2 X-326. Y1.925 I2.925
G1 X-291.
G2 X-288.075 Y-1. J-2.925
G1 Y-73.788
X-281.788 Y-80.075
X-271.
G2 X-268.075 Y-83. J-2.925
G1 Y-230.075
X-193.925
Y-216.925
G3 X-194.125 Y-216.725 I-0.2 F1000.
G1 X-194.325
G18 G3 X-194.525 Z-5.2 K0.2
G0 Z5.
Y-217.125
G1 Z-2.9 F1000.
Z-6.55 F333.3
G2 X-194.325 Z-6.75 I0.2
G1 X-194.125 F1000.
G17 G3 X-193.925 Y-216.925 J0.2
G1 Y-11. F800.
G2 X-191. Y-8.075 I2.925
G1 X-123.5
G2 X-120.575 Y-11. J-2.925
G1 Y-60.075
X-57.425
Y-43.
G2 X-56.568 Y-40.932 I2.925
G1 X-36.568 Y-20.932
G2 X-34.5 Y-20.075 I2.068 J-2.068
G1 X-21.
G2 X-18.075 Y-23. J-2.925
G1 Y-38.
G3 X-18. Y-38.075 I0.075
G1 X-1.
G2 X1.925 Y-41. J-2.925
G1 Y-118.
G2 X-1. Y-120.925 I-2.925
G1 X-23.
G3 X-23.075 Y-121. J-0.075
G1 Y-165.
G3 X-23. Y-165.075 I0.075
G1 X-1.
G2 X1.925 Y-168. J-2.925
G1 Y-245.
G2 X-1. Y-247.925 I-2.925
G1 X-18.
G3 X-18.075 Y-248. J-0.075
G1 Y-263.
G2 X-21. Y-265.925 I-2.925
G1 X-51.5
G3 X-51.575 Y-266. J-0.075
G1 Y-285.
G2 X-54.5 Y-287.925 I-2.925
G1 X-326.
G2 X-328.925 Y-285. J2.925
G1 Y-1.
G2 X-326. Y1.925 I2.925
G1 X-291.
G2 X-288.075 Y-1. J-2.925
G1 Y-73.788
X-281.788 Y-80.075
X-271.
G2 X-268.075 Y-83. J-2.925
G1 Y-230.075
X-193.925
Y-216.925
G3 X-194.125 Y-216.725 I-0.2 F1000.
G1 X-194.325
G18 G3 X-194.525 Z-6.55 K0.2
G0 Z5.
X-215.809 Y-207.909
G1 Z-2.9 F1000.
Z-6.55 F333.3
X-215.813 Y-207.904 Z-6.602
X-215.827 Y-207.89 Z-6.65
X-215.85 Y-207.867 Z-6.691
X-215.879 Y-207.838 Z-6.723
X-215.913 Y-207.804 Z-6.743
X-215.95 Y-207.767 Z-6.75
X-216.091 Y-207.626 F1000.
G17 G3 X-216.374 I-0.141 J-0.141
G1 X-227.587 Y-218.838 F800.
G2 X-229.655 Y-219.695 I-2.068 J2.068
G1 X-231.797
G2 X-234.722 Y-216.77 J2.925
G1 Y-196.77
G2 X-231.797 Y-193.845 I2.925
G1 X-225.009
X-224.722 Y-193.558
Y-99.981
X-225.009 Y-99.695
X-231.797
G2 X-234.722 Y-96.77 J2.925
G1 Y-76.77
G2 X-231.797 Y-73.845 I2.925
G1 X-229.655
G2 X-227.587 Y-74.701 J-2.925
G1 X-209.729 Y-92.559
G2 X-208.872 Y-94.628 I-2.068 J-2.068
G1 Y-198.912
G2 X-209.729 Y-200.98 I-2.925
G1 X-216.374 Y-207.626
G3 Y-207.909 I0.141 J-0.141 F1000.
G1 X-216.233 Y-208.05
X-216.196 Y-208.087 Z-6.743
X-216.162 Y-208.121 Z-6.723
X-216.133 Y-208.15 Z-6.691
X-216.11 Y-208.173 Z-6.65
X-216.096 Y-208.187 Z-6.602
X-216.091 Y-208.191 Z-6.55
G0 Z5.
X-215.809 Y-207.909
G1 Z-4.25 F1000.
Z-7.9 F333.3
X-215.813 Y-207.904 Z-7.952
X-215.827 Y-207.89 Z-8.
X-215.85 Y-207.867 Z-8.041
X-215.879 Y-207.838 Z-8.073
X-215.913 Y-207.804 Z-8.093
X-215.95 Y-207.767 Z-8.1
X-216.091 Y-207.626 F1000.
G3 X-216.374 I-0.141 J-0.141
G1 X-227.587 Y-218.838 F800.
G2 X-229.655 Y-219.695 I-2.068 J2.068
G1 X-231.797
G2 X-234.722 Y-216.77 J2.925
G1 Y-196.77
G2 X-231.797 Y-193.845 I2.925
G1 X-225.009
X-224.722 Y-193.558
Y-150.695
Z-7.1
Y-142.845
Z-8.1 F333.3
Y-99.981 F800.
X-225.009 Y-99.695
X-231.797
G2 X-234.722 Y-96.77 J2.925
G1 Y-76.77
G2 X-231.797 Y-73.845 I2.925
G1 X-229.655
G2 X-227.587 Y-74.701 J-2.925
G1 X-209.729 Y-92.559
G2 X-208.872 Y-94.628 I-2.068 J-2.068
G1 Y-142.845
Z-7.1
Y-150.695
Z-8.1 F333.3
Y-198.912 F800.
G2 X-209.729 Y-200.98 I-2.925
G1 X-216.374 Y-207.626
G3 Y-207.909 I0.141 J-0.141 F1000.
G1 X-216.233 Y-208.05
X-216.196 Y-208.087 Z-8.093
X-216.162 Y-208.121 Z-8.073
X-216.133 Y-208.15 Z-8.041
X-216.11 Y-208.173 Z-8.
X-216.096 Y-208.187 Z-7.952
X-216.091 Y-208.191 Z-7.9
G0 Z5.
X-236.789 Y-200.743
G1 Z-2.9 F1000.
Z-6.55 F333.3
X-236.794 Y-200.738 Z-6.602
X-236.808 Y-200.724 Z-6.65
X-236.831 Y-200.702 Z-6.691
X-236.86 Y-200.672 Z-6.723
X-236.894 Y-200.638 Z-6.743
X-236.931 Y-200.602 Z-6.75
X-237.072 Y-200.46 F1000.
G3 X-237.355 I-0.141 J-0.141
G1 X-255.213 Y-218.317 F800.
G2 X-257.281 Y-219.174 I-2.068 J2.068
G1 X-259.423
G2 X-262.348 Y-216.249 J2.925
G1 Y-196.249
G2 X-259.423 Y-193.324 I2.925
G1 X-252.635
X-252.348 Y-193.037
Y-99.461
X-252.635 Y-99.174
X-259.423
G2 X-262.348 Y-96.249 J2.925
G1 Y-76.249
G2 X-259.423 Y-73.325 I2.925
G1 X-257.281
G2 X-255.213 Y-74.181 J-2.925
G1 X-237.355 Y-92.039
G2 X-236.498 Y-94.107 I-2.068 J-2.068
G1 Y-198.392
G2 X-237.355 Y-200.46 I-2.925
G3 Y-200.743 I0.141 J-0.141 F1000.
G1 X-237.213 Y-200.885
X-237.177 Y-200.921 Z-6.743
X-237.143 Y-200.955 Z-6.723
X-237.113 Y-200.985 Z-6.691
X-237.091 Y-201.007 Z-6.65
X-237.077 Y-201.021 Z-6.602
X-237.072 Y-201.026 Z-6.55
G0 Z5.
X-236.789 Y-200.743
G1 Z-4.25 F1000.
Z-7.9 F333.3
X-236.794 Y-200.738 Z-7.952
X-236.808 Y-200.724 Z-8.
X-236.831 Y-200.702 Z-8.041
X-236.86 Y-200.672 Z-8.073
X-236.894 Y-200.638 Z-8.093
X-236.931 Y-200.602 Z-8.1
X-237.072 Y-200.46 F1000.
G3 X-237.355 I-0.141 J-0.141
G1 X-255.213 Y-218.317 F800.
G2 X-257.281 Y-219.174 I-2.068 J2.068
G1 X-259.423
G2 X-262.348 Y-216.249 J2.925
G1 Y-196.249
G2 X-259.423 Y-193.324 I2.925
G1 X-252.635
X-252.348 Y-193.037
Y-150.174
Z-7.1
Y-142.324
Z-8.1 F333.3
Y-99.461 F800.
X-252.635 Y-99.174
X-259.423
G2 X-262.348 Y-96.249 J2.925
G1 Y-76.249
G2 X-259.423 Y-73.325 I2.925
G1 X-257.281
G2 X-255.213 Y-74.181 J-2.925
G1 X-237.355 Y-92.039
G2 X-236.498 Y-94.107 I-2.068 J-2.068
G1 Y-142.324
Z-7.1
Y-150.174
Z-8.1 F333.3
Y-198.392 F800.
G2 X-237.355 Y-200.46 I-2.925
G3 Y-200.743 I0.141 J-0.141 F1000.
G1 X-237.213 Y-200.885
X-237.177 Y-200.921 Z-8.093
X-237.143 Y-200.955 Z-8.073
X-237.113 Y-200.985 Z-8.041
X-237.091 Y-201.007 Z-8.
X-237.077 Y-201.021 Z-7.952
X-237.072 Y-201.026 Z-7.9
G0 Z5.
X-120.662 Y-194.861
G1 Z-2.9 F1000.
Z-6.55 F333.3
G18 G2 X-120.462 Z-6.75 I0.2
G1 X-120.262 F1000.
G17 G3 X-120.062 Y-194.661 J0.2
G1 Y-123.144 F800.
X-120.349 Y-122.857
X-127.137
G2 X-130.062 Y-119.932 J2.925
G1 Y-99.932
G2 X-127.137 Y-97.007 I2.925
G1 X-124.995
G2 X-122.927 Y-97.864 J-2.925
G1 X-105.069 Y-115.722
G2 X-104.212 Y-117.79 I-2.068 J-2.068
G1 Y-222.074
G2 X-105.069 Y-224.142 I-2.925
G1 X-122.927 Y-242.
G2 X-124.995 Y-242.857 I-2.068 J2.068
G1 X-127.137
G2 X-130.062 Y-239.932 J2.925
G1 Y-219.932
G2 X-127.137 Y-217.007 I2.925
G1 X-120.349
X-120.062 Y-216.72
Y-194.661
G3 X-120.262 Y-194.461 I-0.2 F1000.
G1 X-120.462
G18 G3 X-120.662 Z-6.55 K0.2
G0 Z5.
Y-194.861
G1 Z-4.25 F1000.
Z-7.9 F333.3
G2 X-120.462 Z-8.1 I0.2
G1 X-120.262 F1000.
G17 G3 X-120.062 Y-194.661 J0.2
G1 Y-173.857 F800.
Z-7.1
Y-166.007
Z-8.1 F333.3
Y-123.144 F800.
X-120.349 Y-122.857
X-127.137
G2 X-130.062 Y-119.932 J2.925
G1 Y-99.932
G2 X-127.137 Y-97.007 I2.925
G1 X-124.995
G2 X-122.927 Y-97.864 J-2.925
G1 X-105.069 Y-115.722
G2 X-104.212 Y-117.79 I-2.068 J-2.068
G1 Y-166.007
Z-7.1
Y-173.857
Z-8.1 F333.3
Y-222.074 F800.
G2 X-105.069 Y-224.142 I-2.925
G1 X-122.927 Y-242.
G2 X-124.995 Y-242.857 I-2.068 J2.068
G1 X-127.137
G2 X-130.062 Y-239.932 J2.925
G1 Y-219.932
G2 X-127.137 Y-217.007 I2.925
G1 X-120.349
X-120.062 Y-216.72
Y-194.661
G3 X-120.262 Y-194.461 I-0.2 F1000.
G1 X-120.462
G18 G3 X-120.662 Z-7.9 K0.2
G0 Z5.
X-89.35 Y-209.925
G1 Z-2.9 F1000.
Z-6.55 F333.3
G2 X-89.15 Z-6.75 I0.2
G1 X-88.95 F1000.
G17 G3 X-88.75 Y-209.725 J0.2
G1 Y-123.573 F800.
X-89.037 Y-123.286
X-95.825
G2 X-98.75 Y-120.361 J2.925
G1 Y-100.361
G2 X-95.825 Y-97.436 I2.925
G1 X-93.683
G2 X-91.615 Y-98.293 J-2.925
G1 X-73.757 Y-116.151
G2 X-72.9 Y-118.219 I-2.068 J-2.068
G1 Y-222.503
G2 X-73.757 Y-224.571 I-2.925
G1 X-91.615 Y-242.429
G2 X-93.683 Y-243.286 I-2.068 J2.068
G1 X-95.825
G2 X-98.75 Y-240.361 J2.925
G1 Y-222.074
Y-220.361
G2 X-95.825 Y-217.436 I2.925
G1 X-89.037
X-88.75 Y-217.149
Y-209.725
G3 X-88.95 Y-209.525 I-0.2 F1000.
G1 X-89.15
G18 G3 X-89.35 Z-6.55 K0.2
G0 Z5.
Y-209.925
G1 Z-4.25 F1000.
Z-7.9 F333.3
G2 X-89.15 Z-8.1 I0.2
G1 X-88.95 F1000.
G17 G3 X-88.75 Y-209.725 J0.2
G1 Y-174.286 F800.
Z-7.1
Y-166.436
Z-8.1 F333.3
Y-123.573 F800.
X-89.037 Y-123.286
X-95.825
G2 X-98.75 Y-120.361 J2.925
G1 Y-100.361
G2 X-95.825 Y-97.436 I2.925
G1 X-93.683
G2 X-91.615 Y-98.293 J-2.925
G1 X-73.757 Y-116.151
G2 X-72.9 Y-118.219 I-2.068 J-2.068
G1 Y-166.436
Z-7.1
Y-174.286
Z-8.1 F333.3
Y-222.503 F800.
G2 X-73.757 Y-224.571 I-2.925
G1 X-91.615 Y-242.429
G2 X-93.683 Y-243.286 I-2.068 J2.068
G1 X-95.825
G2 X-98.75 Y-240.361 J2.925
G1 Y-220.361
G2 X-95.825 Y-217.436 I2.925
G1 X-89.037
X-88.75 Y-217.149
Y-209.725
G3 X-88.95 Y-209.525 I-0.2 F1000.
G1 X-89.15
G18 G3 X-89.35 Z-7.9 K0.2
G0 Z5.
X-194.525 Y-217.125
G1 Z-4.25 F1000.
Z-7.9 F333.3
G2 X-194.325 Z-8.1 I0.2
G1 X-194.125 F1000.
G17 G3 X-193.925 Y-216.925 J0.2
G1 Y-199.925 F800.
Z-7.1
Y-192.075
Z-8.1 F333.3
Y-125.925 F800.
Z-7.1
Y-118.075
Z-8.1 F333.3
Y-51.925 F800.
Z-7.1
Y-44.075
Z-8.1 F333.3
Y-11. F800.
G2 X-191. Y-8.075 I2.925
G1 X-161.175
Z-7.1
X-153.325
Z-8.1 F333.3
X-123.5 F800.
G2 X-120.575 Y-11. J-2.925
G1 Y-60.075
X-92.925
Z-7.1
X-85.075
Z-8.1 F333.3
X-57.425 F800.
Y-43.
G2 X-56.568 Y-40.932 I2.925
G1 X-36.568 Y-20.932
G2 X-34.5 Y-20.075 I2.068 J-2.068
G1 X-21.
G2 X-18.075 Y-23. J-2.925
G1 Y-38.
G3 X-18. Y-38.075 I0.075
G1 X-1.
G2 X1.925 Y-41. J-2.925
G1 Y-75.575
Z-7.1
Y-83.425
Z-8.1 F333.3
Y-118. F800.
G2 X-1. Y-120.925 I-2.925
G1 X-23.
G3 X-23.075 Y-121. J-0.075
G1 Y-165.
G3 X-23. Y-165.075 I0.075
G1 X-1.
G2 X1.925 Y-168. J-2.925
G1 Y-202.575
Z-7.1
Y-210.425
Z-8.1 F333.3
Y-245. F800.
G2 X-1. Y-247.925 I-2.925
G1 X-18.
G3 X-18.075 Y-248. J-0.075
G1 Y-263.
G2 X-21. Y-265.925 I-2.925
G1 X-51.5
G3 X-51.575 Y-266. J-0.075
G1 Y-285.
G2 X-54.5 Y-287.925 I-2.925
G1 X-84.512
Z-7.1
X-92.363
Z-8.1 F333.3
X-152.388 F800.
Z-7.1
X-160.238
Z-8.1 F333.3
X-220.263 F800.
Z-7.1
X-228.113
Z-8.1 F333.3
X-288.138 F800.
Z-7.1
X-295.988
Z-8.1 F333.3
X-326. F800.
G2 X-328.925 Y-285. J2.925
G1 Y-253.425
Z-7.1
Y-245.575
Z-8.1 F333.3
Y-182.425 F800.
Z-7.1
Y-174.575
Z-8.1 F333.3
Y-111.425 F800.
Z-7.1
Y-103.575
Z-8.1 F333.3
Y-40.425 F800.
Z-7.1
Y-32.575
Z-8.1 F333.3
Y-1. F800.
G2 X-326. Y1.925 I2.925
G1 X-291.
G2 X-288.075 Y-1. J-2.925
G1 Y-34.075
Z-7.1
Y-41.925
Z-8.1 F333.3
Y-73.788 F800.
X-281.788 Y-80.075
X-271.
G2 X-268.075 Y-83. J-2.925
G1 Y-116.575
Z-7.1
Y-124.425
Z-8.1 F333.3
Y-191.575 F800.
Z-7.1
Y-199.425
Z-8.1 F333.3
Y-230.075 F800.
X-234.925
Z-7.1
X-227.075
Z-8.1 F333.3
X-193.925 F800.
Y-216.925
G3 X-194.125 Y-216.725 I-0.2 F1000.
G1 X-194.325
G18 G3 X-194.525 Z-7.9 K0.2
G0 Z15.
G17
G91
G28 Z0.
M5
G0
G28 X0. Y0.
M30
%
