%
O00001004
(T3  D=5.85 CR=0. - ZMIN=-8.1 - FLAT END MILL)
G90 G94 G17
G21
G91
G28 Z0.
G90
(2D CONTOUR1 (4))
T3 M6
S5000 M3
G54
G0 X-64.525 Y-218.2
G43 Z15. H3
G0 Z5.
G1 Z2.5 F1000.
Z-1.15 F333.3
G18 G2 X-64.325 Z-1.35 I0.2
G1 X-64.125 F1000.
G17 G3 X-63.925 Y-218. J0.2
G1 Y-91. F800.
G3 X-64. Y-90.925 I-0.075
G1 X-138.
G3 X-138.075 Y-91. J-0.075
G1 Y-255.
G3 X-138. Y-255.075 I0.075
G1 X-64.
G3 X-63.925 Y-255. J0.075
G1 Y-218.
G3 X-64.125 Y-217.8 I-0.2 F1000.
G1 X-64.325
G18 G3 X-64.525 Z-1.15 K0.2
G0 Z5.
Y-218.2
G1 Z1.15 F1000.
Z-2.5 F333.3
G2 X-64.325 Z-2.7 I0.2
G1 X-64.125 F1000.
G17 G3 X-63.925 Y-218. J0.2
G1 Y-91. F800.
G3 X-64. Y-90.925 I-0.075
G1 X-138.
G3 X-138.075 Y-91. J-0.075
G1 Y-255.
G3 X-138. Y-255.075 I0.075
G1 X-64.
G3 X-63.925 Y-255. J0.075
G1 Y-218.
G3 X-64.125 Y-217.8 I-0.2 F1000.
G1 X-64.325
G18 G3 X-64.525 Z-2.5 K0.2
G0 Z5.
Y-218.2
G1 Z-0.2 F1000.
Z-3.85 F333.3
G2 X-64.325 Z-4.05 I0.2
G1 X-64.125 F1000.
G17 G3 X-63.925 Y-218. J0.2
G1 Y-91. F800.
G3 X-64. Y-90.925 I-0.075
G1 X-138.
G3 X-138.075 Y-91. J-0.075
G1 Y-255.
G3 X-138. Y-255.075 I0.075
G1 X-64.
G3 X-63.925 Y-255. J0.075
G1 Y-218.
G3 X-64.125 Y-217.8 I-0.2 F1000.
G1 X-64.325
G18 G3 X-64.525 Z-3.85 K0.2
G0 Z5.
Y-218.2
G1 Z-1.55 F1000.
Z-5.2 F333.3
G2 X-64.325 Z-5.4 I0.2
G1 X-64.125 F1000.
G17 G3 X-63.925 Y-218. J0.2
G1 Y-91. F800.
G3 X-64. Y-90.925 I-0.075
G1 X-138.
G3 X-138.075 Y-91. J-0.075
G1 Y-255.
G3 X-138. Y-255.075 I0.075
G1 X-64.
G3 X-63.925 Y-255. J0.075
G1 Y-218.
G3 X-64.125 Y-217.8 I-0.2 F1000.
G1 X-64.325
G18 G3 X-64.525 Z-5.2 K0.2
G0 Z5.
Y-218.2
G1 Z-2.9 F1000.
Z-6.55 F333.3
G2 X-64.325 Z-6.75 I0.2
G1 X-64.125 F1000.
G17 G3 X-63.925 Y-218. J0.2
G1 Y-91. F800.
G3 X-64. Y-90.925 I-0.075
G1 X-138.
G3 X-138.075 Y-91. J-0.075
G1 Y-255.
G3 X-138. Y-255.075 I0.075
G1 X-64.
G3 X-63.925 Y-255. J0.075
G1 Y-218.
G3 X-64.125 Y-217.8 I-0.2 F1000.
G1 X-64.325
G18 G3 X-64.525 Z-6.55 K0.2
G0 Z5.
Y-218.2
G1 Z-4.25 F1000.
Z-7.9 F333.3
G2 X-64.325 Z-8.1 I0.2
G1 X-64.125 F1000.
G17 G3 X-63.925 Y-218. J0.2
G1 Y-91. F800.
G3 X-64. Y-90.925 I-0.075
G1 X-138.
G3 X-138.075 Y-91. J-0.075
G1 Y-255.
G3 X-138. Y-255.075 I0.075
G1 X-64.
G3 X-63.925 Y-255. J0.075
G1 Y-218.
G3 X-64.125 Y-217.8 I-0.2 F1000.
G1 X-64.325
G18 G3 X-64.525 Z-7.9 K0.2
G0 Z15.
G17
G91
G28 Z0.
M5
G0
G28 X0. Y0.
M30
%
