%
O00001005
(T3  D=5.85 CR=0. - ZMIN=-8.1 - FLAT END MILL)
G90 G94 G17
G21
G91
G28 Z0.
G90
(2D CONTOUR1)
T3 M6
S5000 M3
G54
G0 X-355.064 Y-185.328
G43 Z15. H3
G0 Z5.
G1 Z2.5 F1000.
Z-0.765 F333.3
X-355.069 Y-185.333 Z-0.857
X-355.085 Y-185.348 Z-0.946
X-355.109 Y-185.373 Z-1.031
X-355.143 Y-185.407 Z-1.109
X-355.186 Y-185.449 Z-1.179
X-355.235 Y-185.499 Z-1.238
X-355.29 Y-185.554 Z-1.286
X-355.35 Y-185.614 Z-1.321
X-355.413 Y-185.677 Z-1.343
X-355.478 Y-185.742 Z-1.35
X-355.892 Y-186.155 F1000.
G3 Y-186.983 I0.414 J-0.414
G1 X-334.821 Y-208.054 F800.
G2 X-333.964 Y-210.122 I-2.068 J-2.068
G1 Y-212.122
G2 X-334.821 Y-214.19 I-2.925
G1 X-337.821 Y-217.19
G2 X-339.889 Y-218.047 I-2.068 J2.068
G1 X-383.889
G2 X-385.957 Y-217.19 J2.925
G1 X-388.957 Y-214.19
G2 X-389.814 Y-212.122 I2.068 J2.068
G1 Y-210.122
G2 X-388.957 Y-208.054 I2.925
G1 X-367.493 Y-186.589
G2 X-365.425 Y-185.732 I2.068 J-2.068
G1 X-358.354
G2 X-356.286 Y-186.589 J-2.925
G1 X-355.892 Y-186.983
G3 X-355.064 I0.414 J0.414 F1000.
G1 X-354.651 Y-186.569
X-354.586 Y-186.504 Z-1.343
X-354.523 Y-186.441 Z-1.321
X-354.463 Y-186.381 Z-1.286
X-354.408 Y-186.326 Z-1.238
X-354.358 Y-186.277 Z-1.179
X-354.316 Y-186.234 Z-1.109
X-354.282 Y-186.2 Z-1.031
X-354.257 Y-186.176 Z-0.946
X-354.242 Y-186.161 Z-0.857
X-354.237 Y-186.155 Z-0.765
G0 Z5.
X-381.159 Y-186.623
G1 Z2.5 F1000.
Z-0.765 F333.3
G19 G3 Y-186.038 Z-1.35 J0.585
G1 Y-185.453 F1000.
G17 G3 X-381.744 Y-184.868 I-0.585
G2 X-383.812 Y-184.011 J2.925 F800.
G1 X-386.812 Y-181.011
G2 X-387.669 Y-178.943 I2.068 J2.068
G1 Y-176.943
G2 X-386.812 Y-174.875 I2.925
G1 X-365.348 Y-153.411
G2 X-363.28 Y-152.554 I2.068 J-2.068
G1 X-356.209
G2 X-354.141 Y-153.411 J-2.925
G1 X-332.676 Y-174.875
G2 X-331.819 Y-176.943 I-2.068 J-2.068
G1 Y-178.943
G2 X-332.676 Y-181.011 I-2.925
G1 X-335.676 Y-184.011
G2 X-337.744 Y-184.868 I-2.068 J2.068
G1 X-381.744
G3 X-382.329 Y-185.453 J-0.585 F1000.
G1 Y-186.038
G19 G2 Y-186.623 Z-0.765 K0.585
G0 Z5.
X-381.159
G1 Z1.15 F1000.
Z-2.115 F333.3
G3 Y-186.038 Z-2.7 J0.585
G1 Y-185.453 F1000.
G17 G3 X-381.744 Y-184.868 I-0.585
G2 X-383.812 Y-184.011 J2.925 F800.
G1 X-386.812 Y-181.011
G2 X-387.669 Y-178.943 I2.068 J2.068
G1 Y-176.943
G2 X-386.812 Y-174.875 I2.925
G1 X-365.348 Y-153.411
G2 X-363.28 Y-152.554 I2.068 J-2.068
G1 X-356.209
G2 X-354.141 Y-153.411 J-2.925
G1 X-332.676 Y-174.875
G2 X-331.819 Y-176.943 I-2.068 J-2.068
G1 Y-178.943
G2 X-332.676 Y-181.011 I-2.925
G1 X-335.676 Y-184.011
G2 X-337.744 Y-184.868 I-2.068 J2.068
G1 X-381.744
G3 X-382.329 Y-185.453 J-0.585 F1000.
G1 Y-186.038
G19 G2 Y-186.623 Z-2.115 K0.585
G0 Z5.
X-381.159
G1 Z-0.2 F1000.
Z-3.465 F333.3
G3 Y-186.038 Z-4.05 J0.585
G1 Y-185.453 F1000.
G17 G3 X-381.744 Y-184.868 I-0.585
G2 X-383.812 Y-184.011 J2.925 F800.
G1 X-386.812 Y-181.011
G2 X-387.669 Y-178.943 I2.068 J2.068
G1 Y-176.943
G2 X-386.812 Y-174.875 I2.925
G1 X-365.348 Y-153.411
G2 X-363.28 Y-152.554 I2.068 J-2.068
G1 X-356.209
G2 X-354.141 Y-153.411 J-2.925
G1 X-332.676 Y-174.875
G2 X-331.819 Y-176.943 I-2.068 J-2.068
G1 Y-178.943
G2 X-332.676 Y-181.011 I-2.925
G1 X-335.676 Y-184.011
G2 X-337.744 Y-184.868 I-2.068 J2.068
G1 X-381.744
G3 X-382.329 Y-185.453 J-0.585 F1000.
G1 Y-186.038
G19 G2 Y-186.623 Z-3.465 K0.585
G0 Z5.
X-381.159
G1 Z-1.55 F1000.
Z-4.815 F333.3
G3 Y-186.038 Z-5.4 J0.585
G1 Y-185.453 F1000.
G17 G3 X-381.744 Y-184.868 I-0.585
G2 X-383.812 Y-184.011 J2.925 F800.
G1 X-386.812 Y-181.011
G2 X-387.669 Y-178.943 I2.068 J2.068
G1 Y-176.943
G2 X-386.812 Y-174.875 I2.925
G1 X-365.348 Y-153.411
G2 X-363.28 Y-152.554 I2.068 J-2.068
G1 X-356.209
G2 X-354.141 Y-153.411 J-2.925
G1 X-332.676 Y-174.875
G2 X-331.819 Y-176.943 I-2.068 J-2.068
G1 Y-178.943
G2 X-332.676 Y-181.011 I-2.925
G1 X-335.676 Y-184.011
G2 X-337.744 Y-184.868 I-2.068 J2.068
G1 X-381.744
G3 X-382.329 Y-185.453 J-0.585 F1000.
G1 Y-186.038
G19 G2 Y-186.623 Z-4.815 K0.585
G0 Z5.
X-381.159
G1 Z-2.9 F1000.
Z-6.165 F333.3
G3 Y-186.038 Z-6.75 J0.585
G1 Y-185.453 F1000.
G17 G3 X-381.744 Y-184.868 I-0.585
G2 X-383.812 Y-184.011 J2.925 F800.
G1 X-386.812 Y-181.011
G2 X-387.669 Y-178.943 I2.068 J2.068
G1 Y-176.943
G2 X-386.812 Y-174.875 I2.925
G1 X-379.209 Y-167.272
Z-6.6
X-372.951 Y-161.014
Z-6.75 F333.3
X-365.348 Y-153.411 F800.
G2 X-363.28 Y-152.554 I2.068 J-2.068
G1 X-356.209
G2 X-354.141 Y-153.411 J-2.925
G1 X-346.537 Y-161.014
Z-6.6
X-340.279 Y-167.271
Z-6.75 F333.3
X-332.676 Y-174.875 F800.
G2 X-331.819 Y-176.943 I-2.068 J-2.068
G1 Y-178.943
G2 X-332.676 Y-181.011 I-2.925
G1 X-335.676 Y-184.011
G2 X-337.744 Y-184.868 I-2.068 J2.068
G1 X-355.319
Z-6.6
X-364.169
Z-6.75 F333.3
X-381.744 F800.
G3 X-382.329 Y-185.453 J-0.585 F1000.
G1 Y-186.038
G19 G2 Y-186.623 Z-6.165 K0.585
G0 Z5.
X-381.159
G1 Z-4.25 F1000.
Z-7.515 F333.3
G3 Y-186.038 Z-8.1 J0.585
G1 Y-185.453 F1000.
G17 G3 X-381.744 Y-184.868 I-0.585
G2 X-383.812 Y-184.011 J2.925 F800.
G1 X-386.812 Y-181.011
G2 X-387.669 Y-178.943 I2.068 J2.068
G1 Y-176.943
G2 X-386.812 Y-174.875 I2.925
G1 X-379.209 Y-167.272
Z-6.6
X-372.951 Y-161.014
Z-8.1 F333.3
X-365.348 Y-153.411 F800.
G2 X-363.28 Y-152.554 I2.068 J-2.068
G1 X-356.209
G2 X-354.141 Y-153.411 J-2.925
G1 X-346.537 Y-161.014
Z-6.6
X-340.279 Y-167.271
Z-8.1 F333.3
X-332.676 Y-174.875 F800.
G2 X-331.819 Y-176.943 I-2.068 J-2.068
G1 Y-178.943
G2 X-332.676 Y-181.011 I-2.925
G1 X-335.676 Y-184.011
G2 X-337.744 Y-184.868 I-2.068 J2.068
G1 X-355.319
Z-6.6
X-364.169
Z-8.1 F333.3
X-381.744 F800.
G3 X-382.329 Y-185.453 J-0.585 F1000.
G1 Y-186.038
G19 G2 Y-186.623 Z-7.515 K0.585
G0 Z5.
X-355.064 Y-185.328
G1 Z1.15 F1000.
Z-2.115 F333.3
X-355.069 Y-185.333 Z-2.207
X-355.085 Y-185.348 Z-2.296
X-355.109 Y-185.373 Z-2.381
X-355.143 Y-185.407 Z-2.459
X-355.186 Y-185.449 Z-2.529
X-355.235 Y-185.499 Z-2.588
X-355.29 Y-185.554 Z-2.636
X-355.35 Y-185.614 Z-2.671
X-355.413 Y-185.677 Z-2.693
X-355.478 Y-185.742 Z-2.7
X-355.892 Y-186.155 F1000.
G17 G3 Y-186.983 I0.414 J-0.414
G1 X-334.821 Y-208.054 F800.
G2 X-333.964 Y-210.122 I-2.068 J-2.068
G1 Y-212.122
G2 X-334.821 Y-214.19 I-2.925
G1 X-337.821 Y-217.19
G2 X-339.889 Y-218.047 I-2.068 J2.068
G1 X-383.889
G2 X-385.957 Y-217.19 J2.925
G1 X-388.957 Y-214.19
G2 X-389.814 Y-212.122 I2.068 J2.068
G1 Y-210.122
G2 X-388.957 Y-208.054 I2.925
G1 X-367.493 Y-186.589
G2 X-365.425 Y-185.732 I2.068 J-2.068
G1 X-358.354
G2 X-356.286 Y-186.589 J-2.925
G1 X-355.892 Y-186.983
G3 X-355.064 I0.414 J0.414 F1000.
G1 X-354.651 Y-186.569
X-354.586 Y-186.504 Z-2.693
X-354.523 Y-186.441 Z-2.671
X-354.463 Y-186.381 Z-2.636
X-354.408 Y-186.326 Z-2.588
X-354.358 Y-186.277 Z-2.529
X-354.316 Y-186.234 Z-2.459
X-354.282 Y-186.2 Z-2.381
X-354.257 Y-186.176 Z-2.296
X-354.242 Y-186.161 Z-2.207
X-354.237 Y-186.155 Z-2.115
G0 Z5.
X-355.064 Y-185.328
G1 Z-0.2 F1000.
Z-3.465 F333.3
X-355.069 Y-185.333 Z-3.557
X-355.085 Y-185.348 Z-3.646
X-355.109 Y-185.373 Z-3.731
X-355.143 Y-185.407 Z-3.809
X-355.186 Y-185.449 Z-3.879
X-355.235 Y-185.499 Z-3.938
X-355.29 Y-185.554 Z-3.986
X-355.35 Y-185.614 Z-4.021
X-355.413 Y-185.677 Z-4.043
X-355.478 Y-185.742 Z-4.05
X-355.892 Y-186.155 F1000.
G3 Y-186.983 I0.414 J-0.414
G1 X-334.821 Y-208.054 F800.
G2 X-333.964 Y-210.122 I-2.068 J-2.068
G1 Y-212.122
G2 X-334.821 Y-214.19 I-2.925
G1 X-337.821 Y-217.19
G2 X-339.889 Y-218.047 I-2.068 J2.068
G1 X-383.889
G2 X-385.957 Y-217.19 J2.925
G1 X-388.957 Y-214.19
G2 X-389.814 Y-212.122 I2.068 J2.068
G1 Y-210.122
G2 X-388.957 Y-208.054 I2.925
G1 X-367.493 Y-186.589
G2 X-365.425 Y-185.732 I2.068 J-2.068
G1 X-358.354
G2 X-356.286 Y-186.589 J-2.925
G1 X-355.892 Y-186.983
G3 X-355.064 I0.414 J0.414 F1000.
G1 X-354.651 Y-186.569
X-354.586 Y-186.504 Z-4.043
X-354.523 Y-186.441 Z-4.021
X-354.463 Y-186.381 Z-3.986
X-354.408 Y-186.326 Z-3.938
X-354.358 Y-186.277 Z-3.879
X-354.316 Y-186.234 Z-3.809
X-354.282 Y-186.2 Z-3.731
X-354.257 Y-186.176 Z-3.646
X-354.242 Y-186.161 Z-3.557
X-354.237 Y-186.155 Z-3.465
G0 Z5.
X-355.064 Y-185.328
G1 Z-1.55 F1000.
Z-4.815 F333.3
X-355.069 Y-185.333 Z-4.907
X-355.085 Y-185.348 Z-4.996
X-355.109 Y-185.373 Z-5.081
X-355.143 Y-185.407 Z-5.159
X-355.186 Y-185.449 Z-5.229
X-355.235 Y-185.499 Z-5.288
X-355.29 Y-185.554 Z-5.336
X-355.35 Y-185.614 Z-5.371
X-355.413 Y-185.677 Z-5.393
X-355.478 Y-185.742 Z-5.4
X-355.892 Y-186.155 F1000.
G3 Y-186.983 I0.414 J-0.414
G1 X-334.821 Y-208.054 F800.
G2 X-333.964 Y-210.122 I-2.068 J-2.068
G1 Y-212.122
G2 X-334.821 Y-214.19 I-2.925
G1 X-337.821 Y-217.19
G2 X-339.889 Y-218.047 I-2.068 J2.068
G1 X-383.889
G2 X-385.957 Y-217.19 J2.925
G1 X-388.957 Y-214.19
G2 X-389.814 Y-212.122 I2.068 J2.068
G1 Y-210.122
G2 X-388.957 Y-208.054 I2.925
G1 X-367.493 Y-186.589
G2 X-365.425 Y-185.732 I2.068 J-2.068
G1 X-358.354
G2 X-356.286 Y-186.589 J-2.925
G1 X-355.892 Y-186.983
G3 X-355.064 I0.414 J0.414 F1000.
G1 X-354.651 Y-186.569
X-354.586 Y-186.504 Z-5.393
X-354.523 Y-186.441 Z-5.371
X-354.463 Y-186.381 Z-5.336
X-354.408 Y-186.326 Z-5.288
X-354.358 Y-186.277 Z-5.229
X-354.316 Y-186.234 Z-5.159
X-354.282 Y-186.2 Z-5.081
X-354.257 Y-186.176 Z-4.996
X-354.242 Y-186.161 Z-4.907
X-354.237 Y-186.155 Z-4.815
G0 Z5.
X-355.064 Y-185.328
G1 Z-2.9 F1000.
Z-6.165 F333.3
X-355.069 Y-185.333 Z-6.251
X-355.082 Y-185.346 Z-6.335
X-355.104 Y-185.368 Z-6.415
X-355.134 Y-185.398 Z-6.49
X-355.171 Y-185.435 Z-6.557
X-355.215 Y-185.479 Z-6.617
X-355.265 Y-185.528 Z-6.666
X-355.319 Y-185.583 Z-6.705
Z-6.6
X-355.478 Y-185.742
X-355.892 Y-186.155 F1000.
G3 Y-186.983 I0.414 J-0.414
G1 X-355.319 Y-187.555 F800.
Z-6.75 F333.3
X-348.682 Y-194.192 F800.
Z-6.6
X-342.424 Y-200.45
Z-6.75 F333.3
X-334.821 Y-208.054 F800.
G2 X-333.964 Y-210.122 I-2.068 J-2.068
G1 Y-212.122
G2 X-334.821 Y-214.19 I-2.925
G1 X-337.821 Y-217.19
G2 X-339.889 Y-218.047 I-2.068 J2.068
G1 X-357.464
Z-6.6
X-366.314
Z-6.75 F333.3
X-383.889 F800.
G2 X-385.957 Y-217.19 J2.925
G1 X-388.957 Y-214.19
G2 X-389.814 Y-212.122 I2.068 J2.068
G1 Y-210.122
G2 X-388.957 Y-208.054 I2.925
G1 X-381.354 Y-200.45
Z-6.6
X-375.096 Y-194.192
Z-6.75 F333.3
X-367.493 Y-186.589 F800.
G2 X-365.425 Y-185.732 I2.068 J-2.068
G1 X-364.169
Z-6.6
X-358.354
G2 X-356.286 Y-186.589 J-2.925
G1 X-355.892 Y-186.983
G3 X-355.319 Y-187.132 I0.414 J0.414 F1000.
G1 Z-6.75 F333.3
G3 X-355.064 Y-186.983 I-0.159 J0.563 F1000.
G1 X-354.651 Y-186.569
X-354.586 Y-186.504 Z-6.743
X-354.523 Y-186.441 Z-6.721
X-354.463 Y-186.381 Z-6.686
X-354.408 Y-186.326 Z-6.638
X-354.358 Y-186.277 Z-6.579
X-354.316 Y-186.234 Z-6.509
X-354.282 Y-186.2 Z-6.431
X-354.257 Y-186.176 Z-6.346
X-354.242 Y-186.161 Z-6.257
X-354.237 Y-186.155 Z-6.165
G0 Z5.
X-355.064 Y-185.328
G1 Z-4.25 F1000.
Z-7.515 F333.3
X-355.069 Y-185.333 Z-7.601
X-355.082 Y-185.346 Z-7.685
X-355.104 Y-185.368 Z-7.765
X-355.134 Y-185.398 Z-7.84
X-355.171 Y-185.435 Z-7.907
X-355.215 Y-185.479 Z-7.967
X-355.265 Y-185.528 Z-8.016
X-355.319 Y-185.583 Z-8.055
Z-6.6
X-355.478 Y-185.742
X-355.892 Y-186.155 F1000.
G3 Y-186.983 I0.414 J-0.414
G1 X-355.319 Y-187.555 F800.
Z-8.1 F333.3
X-348.682 Y-194.192 F800.
Z-6.6
X-342.424 Y-200.45
Z-8.1 F333.3
X-334.821 Y-208.054 F800.
G2 X-333.964 Y-210.122 I-2.068 J-2.068
G1 Y-212.122
G2 X-334.821 Y-214.19 I-2.925
G1 X-337.821 Y-217.19
G2 X-339.889 Y-218.047 I-2.068 J2.068
G1 X-357.464
Z-6.6
X-366.314
Z-8.1 F333.3
X-383.889 F800.
G2 X-385.957 Y-217.19 J2.925
G1 X-388.957 Y-214.19
G2 X-389.814 Y-212.122 I2.068 J2.068
G1 Y-210.122
G2 X-388.957 Y-208.054 I2.925
G1 X-381.354 Y-200.45
Z-6.6
X-375.096 Y-194.192
Z-8.1 F333.3
X-367.493 Y-186.589 F800.
G2 X-365.425 Y-185.732 I2.068 J-2.068
G1 X-364.169
Z-6.6
X-358.354
G2 X-356.286 Y-186.589 J-2.925
G1 X-355.892 Y-186.983
G3 X-355.319 Y-187.132 I0.414 J0.414 F1000.
G1 Z-8.1 F333.3
G3 X-355.064 Y-186.983 I-0.159 J0.563 F1000.
G1 X-354.651 Y-186.569
X-354.586 Y-186.504 Z-8.093
X-354.523 Y-186.441 Z-8.071
X-354.463 Y-186.381 Z-8.036
X-354.408 Y-186.326 Z-7.988
X-354.358 Y-186.277 Z-7.929
X-354.316 Y-186.234 Z-7.859
X-354.282 Y-186.2 Z-7.781
X-354.257 Y-186.176 Z-7.696
X-354.242 Y-186.161 Z-7.607
X-354.237 Y-186.155 Z-7.515
G0 Z5.
X-354.992 Y-218.617
G1 Z2.5 F1000.
Z-0.765 F333.3
X-354.997 Y-218.622 Z-0.857
X-355.013 Y-218.637 Z-0.946
X-355.037 Y-218.662 Z-1.031
X-355.071 Y-218.696 Z-1.109
X-355.113 Y-218.738 Z-1.179
X-355.163 Y-218.788 Z-1.238
X-355.218 Y-218.843 Z-1.286
X-355.278 Y-218.903 Z-1.321
X-355.341 Y-218.966 Z-1.343
X-355.406 Y-219.031 Z-1.35
X-355.82 Y-219.444 F1000.
G3 Y-220.272 I0.414 J-0.414
G1 X-334.356 Y-241.737 F800.
G2 X-333.499 Y-243.805 I-2.068 J-2.068
G1 Y-245.805
G2 X-334.356 Y-247.873 I-2.925
G1 X-337.356 Y-250.873
G2 X-339.424 Y-251.73 I-2.068 J2.068
G1 X-383.424
G2 X-385.492 Y-250.873 J2.925
G1 X-388.492 Y-247.873
G2 X-389.349 Y-245.805 I2.068 J2.068
G1 Y-243.805
G2 X-388.492 Y-241.737 I2.925
G1 X-367.027 Y-220.272
G2 X-364.959 Y-219.415 I2.068 J-2.068
G1 X-357.888
G2 X-355.82 Y-220.272 J-2.925
G3 X-354.992 I0.414 J0.414 F1000.
G1 X-354.579 Y-219.858
X-354.514 Y-219.793 Z-1.343
X-354.451 Y-219.73 Z-1.321
X-354.391 Y-219.67 Z-1.286
X-354.336 Y-219.615 Z-1.238
X-354.286 Y-219.566 Z-1.179
X-354.244 Y-219.523 Z-1.109
X-354.21 Y-219.49 Z-1.031
X-354.185 Y-219.465 Z-0.946
X-354.17 Y-219.45 Z-0.857
X-354.165 Y-219.444 Z-0.765
G0 Z5.
X-354.992 Y-218.617
G1 Z1.15 F1000.
Z-2.115 F333.3
X-354.997 Y-218.622 Z-2.207
X-355.013 Y-218.637 Z-2.296
X-355.037 Y-218.662 Z-2.381
X-355.071 Y-218.696 Z-2.459
X-355.113 Y-218.738 Z-2.529
X-355.163 Y-218.788 Z-2.588
X-355.218 Y-218.843 Z-2.636
X-355.278 Y-218.903 Z-2.671
X-355.341 Y-218.966 Z-2.693
X-355.406 Y-219.031 Z-2.7
X-355.82 Y-219.444 F1000.
G3 Y-220.272 I0.414 J-0.414
G1 X-334.356 Y-241.737 F800.
G2 X-333.499 Y-243.805 I-2.068 J-2.068
G1 Y-245.805
G2 X-334.356 Y-247.873 I-2.925
G1 X-337.356 Y-250.873
G2 X-339.424 Y-251.73 I-2.068 J2.068
G1 X-383.424
G2 X-385.492 Y-250.873 J2.925
G1 X-388.492 Y-247.873
G2 X-389.349 Y-245.805 I2.068 J2.068
G1 Y-243.805
G2 X-388.492 Y-241.737 I2.925
G1 X-367.027 Y-220.272
G2 X-364.959 Y-219.415 I2.068 J-2.068
G1 X-357.888
G2 X-355.82 Y-220.272 J-2.925
G3 X-354.992 I0.414 J0.414 F1000.
G1 X-354.579 Y-219.858
X-354.514 Y-219.793 Z-2.693
X-354.451 Y-219.73 Z-2.671
X-354.391 Y-219.67 Z-2.636
X-354.336 Y-219.615 Z-2.588
X-354.286 Y-219.566 Z-2.529
X-354.244 Y-219.523 Z-2.459
X-354.21 Y-219.49 Z-2.381
X-354.185 Y-219.465 Z-2.296
X-354.17 Y-219.45 Z-2.207
X-354.165 Y-219.444 Z-2.115
G0 Z5.
X-354.992 Y-218.617
G1 Z-0.2 F1000.
Z-3.465 F333.3
X-354.997 Y-218.622 Z-3.557
X-355.013 Y-218.637 Z-3.646
X-355.037 Y-218.662 Z-3.731
X-355.071 Y-218.696 Z-3.809
X-355.113 Y-218.738 Z-3.879
X-355.163 Y-218.788 Z-3.938
X-355.218 Y-218.843 Z-3.986
X-355.278 Y-218.903 Z-4.021
X-355.341 Y-218.966 Z-4.043
X-355.406 Y-219.031 Z-4.05
X-355.82 Y-219.444 F1000.
G3 Y-220.272 I0.414 J-0.414
G1 X-334.356 Y-241.737 F800.
G2 X-333.499 Y-243.805 I-2.068 J-2.068
G1 Y-245.805
G2 X-334.356 Y-247.873 I-2.925
G1 X-337.356 Y-250.873
G2 X-339.424 Y-251.73 I-2.068 J2.068
G1 X-383.424
G2 X-385.492 Y-250.873 J2.925
G1 X-388.492 Y-247.873
G2 X-389.349 Y-245.805 I2.068 J2.068
G1 Y-243.805
G2 X-388.492 Y-241.737 I2.925
G1 X-367.027 Y-220.272
G2 X-364.959 Y-219.415 I2.068 J-2.068
G1 X-357.888
G2 X-355.82 Y-220.272 J-2.925
G3 X-354.992 I0.414 J0.414 F1000.
G1 X-354.579 Y-219.858
X-354.514 Y-219.793 Z-4.043
X-354.451 Y-219.73 Z-4.021
X-354.391 Y-219.67 Z-3.986
X-354.336 Y-219.615 Z-3.938
X-354.286 Y-219.566 Z-3.879
X-354.244 Y-219.523 Z-3.809
X-354.21 Y-219.49 Z-3.731
X-354.185 Y-219.465 Z-3.646
X-354.17 Y-219.45 Z-3.557
X-354.165 Y-219.444 Z-3.465
G0 Z5.
X-354.992 Y-218.617
G1 Z-1.55 F1000.
Z-4.815 F333.3
X-354.997 Y-218.622 Z-4.907
X-355.013 Y-218.637 Z-4.996
X-355.037 Y-218.662 Z-5.081
X-355.071 Y-218.696 Z-5.159
X-355.113 Y-218.738 Z-5.229
X-355.163 Y-218.788 Z-5.288
X-355.218 Y-218.843 Z-5.336
X-355.278 Y-218.903 Z-5.371
X-355.341 Y-218.966 Z-5.393
X-355.406 Y-219.031 Z-5.4
X-355.82 Y-219.444 F1000.
G3 Y-220.272 I0.414 J-0.414
G1 X-334.356 Y-241.737 F800.
G2 X-333.499 Y-243.805 I-2.068 J-2.068
G1 Y-245.805
G2 X-334.356 Y-247.873 I-2.925
G1 X-337.356 Y-250.873
G2 X-339.424 Y-251.73 I-2.068 J2.068
G1 X-383.424
G2 X-385.492 Y-250.873 J2.925
G1 X-388.492 Y-247.873
G2 X-389.349 Y-245.805 I2.068 J2.068
G1 Y-243.805
G2 X-388.492 Y-241.737 I2.925
G1 X-367.027 Y-220.272
G2 X-364.959 Y-219.415 I2.068 J-2.068
G1 X-357.888
G2 X-355.82 Y-220.272 J-2.925
G3 X-354.992 I0.414 J0.414 F1000.
G1 X-354.579 Y-219.858
X-354.514 Y-219.793 Z-5.393
X-354.451 Y-219.73 Z-5.371
X-354.391 Y-219.67 Z-5.336
X-354.336 Y-219.615 Z-5.288
X-354.286 Y-219.566 Z-5.229
X-354.244 Y-219.523 Z-5.159
X-354.21 Y-219.49 Z-5.081
X-354.185 Y-219.465 Z-4.996
X-354.17 Y-219.45 Z-4.907
X-354.165 Y-219.444 Z-4.815
G0 Z5.
X-354.992 Y-218.617
G1 Z-2.9 F1000.
Z-6.165 F333.3
X-354.997 Y-218.622 Z-6.257
X-355.013 Y-218.637 Z-6.346
X-355.037 Y-218.662 Z-6.431
X-355.071 Y-218.696 Z-6.509
X-355.113 Y-218.738 Z-6.579
X-355.163 Y-218.788 Z-6.638
X-355.218 Y-218.843 Z-6.686
X-355.278 Y-218.903 Z-6.721
X-355.341 Y-218.966 Z-6.743
X-355.406 Y-219.031 Z-6.75
X-355.82 Y-219.444 F1000.
G3 Y-220.272 I0.414 J-0.414
G1 X-348.216 Y-227.875 F800.
Z-6.6
X-341.959 Y-234.133
Z-6.75 F333.3
X-334.356 Y-241.737 F800.
G2 X-333.499 Y-243.805 I-2.068 J-2.068
G1 Y-245.805
G2 X-334.356 Y-247.873 I-2.925
G1 X-337.356 Y-250.873
G2 X-339.424 Y-251.73 I-2.068 J2.068
G1 X-356.999
Z-6.6
X-365.849
Z-6.75 F333.3
X-383.424 F800.
G2 X-385.492 Y-250.873 J2.925
G1 X-388.492 Y-247.873
G2 X-389.349 Y-245.805 I2.068 J2.068
G1 Y-243.805
G2 X-388.492 Y-241.737 I2.925
G1 X-380.889 Y-234.134
Z-6.6
X-374.631 Y-227.876
Z-6.75 F333.3
X-367.027 Y-220.272 F800.
G2 X-366.314 Y-219.748 I2.068 J-2.068
G1 Z-6.6
G2 X-364.959 Y-219.415 I1.355 J-2.592
G1 X-357.888
G2 X-357.464 Y-219.446 J-2.925
G1 Z-6.75 F333.3
G2 X-355.82 Y-220.272 I-0.424 J-2.894 F800.
G3 X-354.992 I0.414 J0.414 F1000.
G1 X-354.579 Y-219.858
X-354.514 Y-219.793 Z-6.743
X-354.451 Y-219.73 Z-6.721
X-354.391 Y-219.67 Z-6.686
X-354.336 Y-219.615 Z-6.638
X-354.286 Y-219.566 Z-6.579
X-354.244 Y-219.523 Z-6.509
X-354.21 Y-219.49 Z-6.431
X-354.185 Y-219.465 Z-6.346
X-354.17 Y-219.45 Z-6.257
X-354.165 Y-219.444 Z-6.165
G0 Z5.
X-354.992 Y-218.617
G1 Z-4.25 F1000.
Z-7.515 F333.3
X-354.997 Y-218.622 Z-7.607
X-355.013 Y-218.637 Z-7.696
X-355.037 Y-218.662 Z-7.781
X-355.071 Y-218.696 Z-7.859
X-355.113 Y-218.738 Z-7.929
X-355.163 Y-218.788 Z-7.988
X-355.218 Y-218.843 Z-8.036
X-355.278 Y-218.903 Z-8.071
X-355.341 Y-218.966 Z-8.093
X-355.406 Y-219.031 Z-8.1
X-355.82 Y-219.444 F1000.
G3 Y-220.272 I0.414 J-0.414
G1 X-348.216 Y-227.875 F800.
Z-6.6
X-341.959 Y-234.133
Z-8.1 F333.3
X-334.356 Y-241.737 F800.
G2 X-333.499 Y-243.805 I-2.068 J-2.068
G1 Y-245.805
G2 X-334.356 Y-247.873 I-2.925
G1 X-337.356 Y-250.873
G2 X-339.424 Y-251.73 I-2.068 J2.068
G1 X-356.999
Z-6.6
X-365.849
Z-8.1 F333.3
X-383.424 F800.
G2 X-385.492 Y-250.873 J2.925
G1 X-388.492 Y-247.873
G2 X-389.349 Y-245.805 I2.068 J2.068
G1 Y-243.805
G2 X-388.492 Y-241.737 I2.925
G1 X-380.889 Y-234.134
Z-6.6
X-374.631 Y-227.876
Z-8.1 F333.3
X-367.027 Y-220.272 F800.
G2 X-366.314 Y-219.748 I2.068 J-2.068
G1 Z-6.6
G2 X-364.959 Y-219.415 I1.355 J-2.592
G1 X-357.888
G2 X-357.464 Y-219.446 J-2.925
G1 Z-8.1 F333.3
G2 X-355.82 Y-220.272 I-0.424 J-2.894 F800.
G3 X-354.992 I0.414 J0.414 F1000.
G1 X-354.579 Y-219.858
X-354.514 Y-219.793 Z-8.093
X-354.451 Y-219.73 Z-8.071
X-354.391 Y-219.67 Z-8.036
X-354.336 Y-219.615 Z-7.988
X-354.286 Y-219.566 Z-7.929
X-354.244 Y-219.523 Z-7.859
X-354.21 Y-219.49 Z-7.781
X-354.185 Y-219.465 Z-7.696
X-354.17 Y-219.45 Z-7.607
X-354.165 Y-219.444 Z-7.515
G0 Z15.
G91
G28 Z0.
M5
G28 X0. Y0.
M30
%
