%
O00001001
(T4  D=2. CR=0. TAPER=118DEG - ZMIN=-6. - DRILL)
G90 G94 G17
G21
G91
G28 Z0.
G90
(DRILL1)
T4 M6
S9700 M3
G54
G0 X188. Y11.
G43 Z15. H4
G0 Z5.
G98 G81 X188. Y11. Z-6. R5. F485.
X175. Y24.
X128. Y11.
X81. Y24.
X68. Y11.
Y71.
X128.
X188.
X212. Y118.
Y134.
X188. Y131.
X175. Y118.
X143.
Y134.
X128. Y131.
X81. Y118.
X74.
X68. Y131.
X74. Y134.
X5. Y118.
Y134.
X13.5 Y179.
X4. Y198.
Y214.
X68. Y281.508
X84.
X179. Y219.
X187. Y211.
X179. Y203.
X171. Y211.
X144. Y219.
X152. Y211.
X144. Y203.
X136. Y211.
X117.
X109. Y203.
X101. Y211.
X109. Y219.
X84. Y235.508
X68.
X74. Y219.
X81. Y211.
X74. Y203.
X66. Y211.
X50. Y214.
Y198.
X38.5 Y179.
X51. Y168.
X63.5 Y179.
X88.5
X113.5
X111. Y168.
X138.5 Y179.
X165.75 Y181.
Y173.
X171. Y168.
X188.5 Y179.
X213.5
X231. Y168.
X238.5 Y179.
X263.5
X281. Y134.
Y118.
G80
Z15.
G91
G28 Z0.
M5
G28 X0. Y0.
M30
%
