%
O00001002
(T3  D=5.85 CR=0. - ZMIN=-6.05 - FLAT END MILL)
G90 G94 G17
G21
G91
G28 Z0.
G90
(BORE1)
T3 M6
S5000 M3
G54
G0 X235.074 Y280.259
G43 Z15. H3
G0 Z2.
G1 Z0.585 F1000.
G18 G2 X235.659 Z0. I0.585
G1 X235.951
G17 G3 X236.536 Y280.844 J0.585
X228.386 Z-0.5 I-4.075 F800.
X236.536 Z-1. I4.075
X228.386 Z-1.5 I-4.075
X236.536 Z-2. I4.075
X228.386 Z-2.5 I-4.075
X236.536 Z-3. I4.075
X228.386 Z-3.5 I-4.075
X236.536 Z-4. I4.075
X228.386 Z-4.5 I-4.075
X236.536 Z-5. I4.075
X228.386 Z-5.5 I-4.075
X236.536 Z-6. I4.075
X236.337 Y282.104 Z-6.05 I-4.075
X228.586 Y279.585 I-3.876 J-1.259
X236.337 Y282.104 I3.876 J1.259
X235.6 Y282.479 I-0.556 J-0.181 F1000.
G1 X235.322 Y282.389
X235.235 Y282.36 Z-6.043
X235.15 Y282.333 Z-6.021
X235.069 Y282.307 Z-5.986
X234.995 Y282.282 Z-5.938
X234.928 Y282.261 Z-5.879
X234.872 Y282.242 Z-5.809
X234.826 Y282.228 Z-5.731
X234.792 Y282.217 Z-5.646
X234.772 Y282.21 Z-5.557
X234.765 Y282.208 Z-5.465
G0 Z5.
X250.349 Y245.922
Z2.
G1 Z0.585 F1000.
G18 G3 X249.764 Z0. I-0.585
G1 X249.471
G17 G3 X248.886 Y245.337 J-0.585
X257.036 Z-0.5 I4.075 F800.
X248.886 Z-1. I-4.075
X257.036 Z-1.5 I4.075
X248.886 Z-2. I-4.075
X257.036 Z-2.5 I4.075
X248.886 Z-3. I-4.075
X257.036 Z-3.5 I4.075
X248.886 Z-4. I-4.075
X257.036 Z-4.5 I4.075
X248.886 Z-5. I-4.075
X257.036 Z-5.5 I4.075
X252.324 Y249.362 Z-5.775 I-4.075
X249.086 Y244.078 Z-6.05 I0.637 J-4.025
X256.837 Y246.596 I3.876 J1.259
X249.086 Y244.078 I-3.876 J-1.259
X249.823 Y243.702 I0.556 J0.181 F1000.
G1 X250.101 Y243.793
X250.188 Y243.821 Z-6.043
X250.273 Y243.849 Z-6.021
X250.354 Y243.875 Z-5.986
X250.428 Y243.899 Z-5.938
X250.495 Y243.921 Z-5.879
X250.551 Y243.939 Z-5.809
X250.597 Y243.954 Z-5.731
X250.63 Y243.965 Z-5.646
X250.651 Y243.971 Z-5.557
X250.658 Y243.974 Z-5.465
G0 Z5.
X235.074 Y256.588
Z2.
G1 Z0.585 F1000.
G18 G2 X235.659 Z0. I0.585
G1 X235.951
G17 G3 X236.536 Y257.173 J0.585
X228.386 Z-0.5 I-4.075 F800.
X236.536 Z-1. I4.075
X228.386 Z-1.5 I-4.075
X236.536 Z-2. I4.075
X228.386 Z-2.5 I-4.075
X236.536 Z-3. I4.075
X228.386 Z-3.5 I-4.075
X236.536 Z-4. I4.075
X228.386 Z-4.5 I-4.075
X236.536 Z-5. I4.075
X228.386 Z-5.5 I-4.075
X236.536 Z-6. I4.075
X236.337 Y258.432 Z-6.05 I-4.075
X228.586 Y255.914 I-3.876 J-1.259
X236.337 Y258.432 I3.876 J1.259
X235.6 Y258.808 I-0.556 J-0.181 F1000.
G1 X235.322 Y258.717
X235.235 Y258.689 Z-6.043
X235.15 Y258.662 Z-6.021
X235.069 Y258.635 Z-5.986
X234.995 Y258.611 Z-5.938
X234.928 Y258.59 Z-5.879
X234.872 Y258.571 Z-5.809
X234.826 Y258.556 Z-5.731
X234.792 Y258.545 Z-5.646
X234.772 Y258.539 Z-5.557
X234.765 Y258.537 Z-5.465
G0 Z5.
X209.349 Y245.922
Z2.
G1 Z0.585 F1000.
G18 G3 X208.764 Z0. I-0.585
G1 X208.471
G17 G3 X207.886 Y245.337 J-0.585
X216.036 Z-0.5 I4.075 F800.
X207.886 Z-1. I-4.075
X216.036 Z-1.5 I4.075
X207.886 Z-2. I-4.075
X216.036 Z-2.5 I4.075
X207.886 Z-3. I-4.075
X216.036 Z-3.5 I4.075
X207.886 Z-4. I-4.075
X216.036 Z-4.5 I4.075
X207.886 Z-5. I-4.075
X216.036 Z-5.5 I4.075
X211.324 Y249.362 Z-5.775 I-4.075
X208.086 Y244.078 Z-6.05 I0.637 J-4.025
X215.837 Y246.596 I3.876 J1.259
X208.086 Y244.078 I-3.876 J-1.259
X208.823 Y243.702 I0.556 J0.181 F1000.
G1 X209.101 Y243.793
X209.188 Y243.821 Z-6.043
X209.273 Y243.849 Z-6.021
X209.354 Y243.875 Z-5.986
X209.428 Y243.899 Z-5.938
X209.495 Y243.921 Z-5.879
X209.551 Y243.939 Z-5.809
X209.597 Y243.954 Z-5.731
X209.63 Y243.965 Z-5.646
X209.651 Y243.971 Z-5.557
X209.658 Y243.974 Z-5.465
G0 Z5.
X177.887 Y211.585
Z2.
G1 Z0.585 F1000.
G18 G3 X177.303 Z0. I-0.585
G1 X177.01
G17 G3 X176.425 Y211. J-0.585
X181.575 Z-0.5 I2.575 F800.
X176.425 Z-1. I-2.575
X181.575 Z-1.5 I2.575
X176.425 Z-2. I-2.575
X181.575 Z-2.5 I2.575
X176.425 Z-3. I-2.575
X181.575 Z-3.5 I2.575
X176.425 Z-4. I-2.575
X181.575 Z-4.5 I2.575
X176.425 Z-5. I-2.575
X181.575 Z-5.5 I2.575
X178.597 Y213.543 Z-5.775 I-2.575
X176.551 Y210.204 Z-6.05 I0.403 J-2.543
X181.449 Y211.796 I2.449 J0.796
X176.551 Y210.204 I-2.449 J-0.796
X177.288 Y209.829 I0.556 J0.181 F1000.
G1 X177.566 Y209.919
X177.653 Y209.947 Z-6.043
X177.738 Y209.975 Z-6.021
X177.819 Y210.001 Z-5.986
X177.893 Y210.025 Z-5.938
X177.96 Y210.047 Z-5.879
X178.016 Y210.065 Z-5.809
X178.062 Y210.08 Z-5.731
X178.095 Y210.091 Z-5.646
X178.116 Y210.098 Z-5.557
X178.123 Y210.1 Z-5.465
G0 Z5.
X144.585 Y212.113
Z2.
G1 Z0.585 F1000.
G19 G3 Y212.697 Z0. J0.585
G1 Y212.99
G17 G3 X144. Y213.575 I-0.585
Y208.425 Z-0.5 J-2.575 F800.
Y213.575 Z-1. J2.575
Y208.425 Z-1.5 J-2.575
Y213.575 Z-2. J2.575
Y208.425 Z-2.5 J-2.575
Y213.575 Z-3. J2.575
Y208.425 Z-3.5 J-2.575
Y213.575 Z-4. J2.575
Y208.425 Z-4.5 J-2.575
Y213.575 Z-5. J2.575
Y208.425 Z-5.5 J-2.575
X146.543 Y211.403 Z-5.775 J2.575
X143.204 Y213.449 Z-6.05 I-2.543 J-0.403
X144.796 Y208.551 I0.796 J-2.449
X143.204 Y213.449 I-0.796 J2.449
X142.829 Y212.712 I0.181 J-0.556 F1000.
G1 X142.919 Y212.434
X142.947 Y212.347 Z-6.043
X142.975 Y212.262 Z-6.021
X143.001 Y212.181 Z-5.986
X143.025 Y212.107 Z-5.938
X143.047 Y212.04 Z-5.879
X143.065 Y211.984 Z-5.809
X143.08 Y211.938 Z-5.731
X143.091 Y211.905 Z-5.646
X143.098 Y211.884 Z-5.557
X143.1 Y211.877 Z-5.465
G0 Z5.
X109.585 Y212.113
Z2.
G1 Z0.585 F1000.
G19 G3 Y212.697 Z0. J0.585
G1 Y212.99
G17 G3 X109. Y213.575 I-0.585
Y208.425 Z-0.5 J-2.575 F800.
Y213.575 Z-1. J2.575
Y208.425 Z-1.5 J-2.575
Y213.575 Z-2. J2.575
Y208.425 Z-2.5 J-2.575
Y213.575 Z-3. J2.575
Y208.425 Z-3.5 J-2.575
Y213.575 Z-4. J2.575
Y208.425 Z-4.5 J-2.575
Y213.575 Z-5. J2.575
Y208.425 Z-5.5 J-2.575
X111.543 Y211.403 Z-5.775 J2.575
X108.204 Y213.449 Z-6.05 I-2.543 J-0.403
X109.796 Y208.551 I0.796 J-2.449
X108.204 Y213.449 I-0.796 J2.449
X107.829 Y212.712 I0.181 J-0.556 F1000.
G1 X107.919 Y212.434
X107.947 Y212.347 Z-6.043
X107.975 Y212.262 Z-6.021
X108.001 Y212.181 Z-5.986
X108.025 Y212.107 Z-5.938
X108.047 Y212.04 Z-5.879
X108.065 Y211.984 Z-5.809
X108.08 Y211.938 Z-5.731
X108.091 Y211.905 Z-5.646
X108.098 Y211.884 Z-5.557
X108.1 Y211.877 Z-5.465
G0 Z5.
X72.887 Y211.585
Z2.
G1 Z0.585 F1000.
G18 G3 X72.302 Z0. I-0.585
G1 X72.01
G17 G3 X71.425 Y211. J-0.585
X76.575 Z-0.5 I2.575 F800.
X71.425 Z-1. I-2.575
X76.575 Z-1.5 I2.575
X71.425 Z-2. I-2.575
X76.575 Z-2.5 I2.575
X71.425 Z-3. I-2.575
X76.575 Z-3.5 I2.575
X71.425 Z-4. I-2.575
X76.575 Z-4.5 I2.575
X71.425 Z-5. I-2.575
X76.575 Z-5.5 I2.575
X73.597 Y213.543 Z-5.775 I-2.575
X71.551 Y210.204 Z-6.05 I0.403 J-2.543
X76.449 Y211.796 I2.449 J0.796
X71.551 Y210.204 I-2.449 J-0.796
X72.288 Y209.829 I0.556 J0.181 F1000.
G1 X72.566 Y209.919
X72.653 Y209.947 Z-6.043
X72.738 Y209.975 Z-6.021
X72.819 Y210.001 Z-5.986
X72.893 Y210.025 Z-5.938
X72.96 Y210.047 Z-5.879
X73.016 Y210.065 Z-5.809
X73.062 Y210.08 Z-5.731
X73.095 Y210.091 Z-5.646
X73.116 Y210.098 Z-5.557
X73.123 Y210.1 Z-5.465
G0 Z15.
(2D CONTOUR1)
G0 X250.707 Y228.8
Z15.
Z5.
G1 Z2. F1000.
Z-0.279 F333.3
X250.708 Y228.807 Z-0.371
X250.712 Y228.828 Z-0.46
X250.718 Y228.863 Z-0.545
X250.726 Y228.91 Z-0.623
X250.736 Y228.969 Z-0.693
X250.748 Y229.038 Z-0.753
X250.761 Y229.115 Z-0.801
X250.776 Y229.198 Z-0.836
X250.791 Y229.286 Z-0.857
X250.806 Y229.377 Z-0.864
X250.906 Y229.953 F1000.
G3 X250.428 Y230.629 I-0.577 J0.099
G2 X242.408 Y234.784 I2.533 J14.708 F800.
G1 X236.757 Y240.435
G3 X228.165 I-4.296 J-4.296
G1 X222.515 Y234.784
G2 X201.407 Y255.89 I-10.554 J10.553
X208.099 Y259.753 I10.554 J-10.553
G1 X215.818 Y261.822
G3 X220.114 Y269.262 I-1.572 J5.868
G1 X218.045 Y276.981
G2 X232.461 Y295.769 I14.416 J3.863
X246.877 Y276.981 J-14.925
G1 X244.809 Y269.262
G3 X249.105 Y261.822 I5.868 J-1.572
G1 X256.824 Y259.753
G2 X250.428 Y230.629 I-3.863 J-14.416
G3 X249.753 Y230.152 I-0.099 J-0.577 F1000.
G1 X249.653 Y229.575
X249.638 Y229.485 Z-0.857
X249.623 Y229.397 Z-0.836
X249.608 Y229.313 Z-0.801
X249.595 Y229.236 Z-0.753
X249.583 Y229.167 Z-0.693
X249.573 Y229.109 Z-0.623
X249.565 Y229.061 Z-0.545
X249.559 Y229.027 Z-0.46
X249.555 Y229.006 Z-0.371
X249.554 Y228.999 Z-0.279
G0 Z5.
X250.707 Y228.8
G1 Z1.136 F1000.
Z-1.144 F333.3
X250.708 Y228.807 Z-1.235
X250.712 Y228.828 Z-1.324
X250.718 Y228.863 Z-1.409
X250.726 Y228.91 Z-1.487
X250.736 Y228.969 Z-1.557
X250.748 Y229.038 Z-1.617
X250.761 Y229.115 Z-1.665
X250.776 Y229.198 Z-1.7
X250.791 Y229.286 Z-1.721
X250.806 Y229.377 Z-1.729
X250.906 Y229.953 F1000.
G3 X250.428 Y230.629 I-0.577 J0.099
G2 X242.408 Y234.784 I2.533 J14.708 F800.
G1 X236.757 Y240.435
G3 X228.165 I-4.296 J-4.296
G1 X222.515 Y234.784
G2 X201.407 Y255.89 I-10.554 J10.553
X208.099 Y259.753 I10.554 J-10.553
G1 X215.818 Y261.822
G3 X220.114 Y269.262 I-1.572 J5.868
G1 X218.045 Y276.981
G2 X232.461 Y295.769 I14.416 J3.863
X246.877 Y276.981 J-14.925
G1 X244.809 Y269.262
G3 X249.105 Y261.822 I5.868 J-1.572
G1 X256.824 Y259.753
G2 X250.428 Y230.629 I-3.863 J-14.416
G3 X249.753 Y230.152 I-0.099 J-0.577 F1000.
G1 X249.653 Y229.575
X249.638 Y229.485 Z-1.721
X249.623 Y229.397 Z-1.7
X249.608 Y229.313 Z-1.665
X249.595 Y229.236 Z-1.617
X249.583 Y229.167 Z-1.557
X249.573 Y229.109 Z-1.487
X249.565 Y229.061 Z-1.409
X249.559 Y229.027 Z-1.324
X249.555 Y229.006 Z-1.235
X249.554 Y228.999 Z-1.144
G0 Z5.
X250.707 Y228.8
G1 Z0.271 F1000.
Z-2.008 F333.3
X250.708 Y228.807 Z-2.099
X250.712 Y228.828 Z-2.189
X250.718 Y228.863 Z-2.273
X250.726 Y228.91 Z-2.352
X250.736 Y228.969 Z-2.422
X250.748 Y229.038 Z-2.481
X250.761 Y229.115 Z-2.529
X250.776 Y229.198 Z-2.564
X250.791 Y229.286 Z-2.586
X250.806 Y229.377 Z-2.593
X250.906 Y229.953 F1000.
G3 X250.428 Y230.629 I-0.577 J0.099
G2 X242.408 Y234.784 I2.533 J14.708 F800.
G1 X236.757 Y240.435
G3 X228.165 I-4.296 J-4.296
G1 X222.515 Y234.784
G2 X201.407 Y255.89 I-10.554 J10.553
X208.099 Y259.753 I10.554 J-10.553
G1 X215.818 Y261.822
G3 X220.114 Y269.262 I-1.572 J5.868
G1 X218.045 Y276.981
G2 X232.461 Y295.769 I14.416 J3.863
X246.877 Y276.981 J-14.925
G1 X244.809 Y269.262
G3 X249.105 Y261.822 I5.868 J-1.572
G1 X256.824 Y259.753
G2 X250.428 Y230.629 I-3.863 J-14.416
G3 X249.753 Y230.152 I-0.099 J-0.577 F1000.
G1 X249.653 Y229.575
X249.638 Y229.485 Z-2.586
X249.623 Y229.397 Z-2.564
X249.608 Y229.313 Z-2.529
X249.595 Y229.236 Z-2.481
X249.583 Y229.167 Z-2.422
X249.573 Y229.109 Z-2.352
X249.565 Y229.061 Z-2.273
X249.559 Y229.027 Z-2.189
X249.555 Y229.006 Z-2.099
X249.554 Y228.999 Z-2.008
G0 Z5.
X250.707 Y228.8
G1 Z-0.593 F1000.
Z-2.872 F333.3
X250.708 Y228.807 Z-2.964
X250.712 Y228.828 Z-3.053
X250.718 Y228.863 Z-3.138
X250.726 Y228.91 Z-3.216
X250.736 Y228.969 Z-3.286
X250.748 Y229.038 Z-3.345
X250.761 Y229.115 Z-3.393
X250.776 Y229.198 Z-3.429
X250.791 Y229.286 Z-3.45
X250.806 Y229.377 Z-3.457
X250.906 Y229.953 F1000.
G3 X250.428 Y230.629 I-0.577 J0.099
G2 X242.408 Y234.784 I2.533 J14.708 F800.
G1 X236.757 Y240.435
G3 X228.165 I-4.296 J-4.296
G1 X222.515 Y234.784
G2 X201.407 Y255.89 I-10.554 J10.553
X208.099 Y259.753 I10.554 J-10.553
G1 X215.818 Y261.822
G3 X220.114 Y269.262 I-1.572 J5.868
G1 X218.045 Y276.981
G2 X232.461 Y295.769 I14.416 J3.863
X246.877 Y276.981 J-14.925
G1 X244.809 Y269.262
G3 X249.105 Y261.822 I5.868 J-1.572
G1 X256.824 Y259.753
G2 X250.428 Y230.629 I-3.863 J-14.416
G3 X249.753 Y230.152 I-0.099 J-0.577 F1000.
G1 X249.653 Y229.575
X249.638 Y229.485 Z-3.45
X249.623 Y229.397 Z-3.429
X249.608 Y229.313 Z-3.393
X249.595 Y229.236 Z-3.345
X249.583 Y229.167 Z-3.286
X249.573 Y229.109 Z-3.216
X249.565 Y229.061 Z-3.138
X249.559 Y229.027 Z-3.053
X249.555 Y229.006 Z-2.964
X249.554 Y228.999 Z-2.872
G0 Z5.
X250.707 Y228.8
G1 Z-1.457 F1000.
Z-3.736 F333.3
X250.708 Y228.807 Z-3.828
X250.712 Y228.828 Z-3.917
X250.718 Y228.863 Z-4.002
X250.726 Y228.91 Z-4.08
X250.736 Y228.969 Z-4.15
X250.748 Y229.038 Z-4.21
X250.761 Y229.115 Z-4.258
X250.776 Y229.198 Z-4.293
X250.791 Y229.286 Z-4.314
X250.806 Y229.377 Z-4.321
X250.906 Y229.953 F1000.
G3 X250.428 Y230.629 I-0.577 J0.099
G2 X242.408 Y234.784 I2.533 J14.708 F800.
G1 X236.757 Y240.435
G3 X228.165 I-4.296 J-4.296
G1 X222.515 Y234.784
G2 X201.407 Y255.89 I-10.554 J10.553
X208.099 Y259.753 I10.554 J-10.553
G1 X215.818 Y261.822
G3 X220.114 Y269.262 I-1.572 J5.868
G1 X218.045 Y276.981
G2 X232.461 Y295.769 I14.416 J3.863
X246.877 Y276.981 J-14.925
G1 X244.809 Y269.262
G3 X249.105 Y261.822 I5.868 J-1.572
G1 X256.824 Y259.753
G2 X250.428 Y230.629 I-3.863 J-14.416
G3 X249.753 Y230.152 I-0.099 J-0.577 F1000.
G1 X249.653 Y229.575
X249.638 Y229.485 Z-4.314
X249.623 Y229.397 Z-4.293
X249.608 Y229.313 Z-4.258
X249.595 Y229.236 Z-4.21
X249.583 Y229.167 Z-4.15
X249.573 Y229.109 Z-4.08
X249.565 Y229.061 Z-4.002
X249.559 Y229.027 Z-3.917
X249.555 Y229.006 Z-3.828
X249.554 Y228.999 Z-3.736
G0 Z5.
X250.707 Y228.8
G1 Z-2.321 F1000.
Z-4.601 F333.3
X250.708 Y228.807 Z-4.692
X250.712 Y228.828 Z-4.781
X250.718 Y228.863 Z-4.866
X250.726 Y228.91 Z-4.945
X250.736 Y228.969 Z-5.014
X250.748 Y229.038 Z-5.074
X250.761 Y229.115 Z-5.122
X250.776 Y229.198 Z-5.157
X250.791 Y229.286 Z-5.179
X250.806 Y229.377 Z-5.186
X250.906 Y229.953 F1000.
G3 X250.428 Y230.629 I-0.577 J0.099
G2 X242.408 Y234.784 I2.533 J14.708 F800.
G1 X236.757 Y240.435
G3 X228.165 I-4.296 J-4.296
G1 X222.515 Y234.784
G2 X201.453 Y234.738 I-10.554 J10.553
G1 Z-5.05
G2 X199.036 Y237.874 I10.508 J10.599
X197.528 Y241.536 I12.925 J7.463
G1 Z-5.186 F333.3
G2 X208.099 Y259.753 I14.433 J3.8 F800.
G1 X215.818 Y261.822
G3 X220.114 Y269.262 I-1.572 J5.868
G1 X218.045 Y276.981
G2 X228.536 Y295.244 I14.416 J3.863
G1 Z-5.05
G2 X232.461 Y295.769 I3.925 J-14.4
X236.386 Y295.244 J-14.925
G1 Z-5.186 F333.3
G2 X246.877 Y276.981 I-3.925 J-14.4 F800.
G1 X244.809 Y269.262
G3 X249.105 Y261.822 I5.868 J-1.572
G1 X256.824 Y259.753
G2 X267.394 Y241.537 I-3.863 J-14.416
G1 Z-5.05
G2 X265.886 Y237.875 I-14.433 J3.8
X263.469 Y234.738 I-12.925 J7.462
G1 Z-5.186 F333.3
G2 X250.428 Y230.629 I-10.508 J10.599 F800.
G3 X249.753 Y230.152 I-0.099 J-0.577 F1000.
G1 X249.653 Y229.575
X249.638 Y229.485 Z-5.179
X249.623 Y229.397 Z-5.157
X249.608 Y229.313 Z-5.122
X249.595 Y229.236 Z-5.074
X249.583 Y229.167 Z-5.014
X249.573 Y229.109 Z-4.945
X249.565 Y229.061 Z-4.866
X249.559 Y229.027 Z-4.781
X249.555 Y229.006 Z-4.692
X249.554 Y228.999 Z-4.601
G0 Z5.
X250.707 Y228.8
G1 Z-3.186 F1000.
Z-5.465 F333.3
X250.708 Y228.807 Z-5.557
X250.712 Y228.828 Z-5.646
X250.718 Y228.863 Z-5.731
X250.726 Y228.91 Z-5.809
X250.736 Y228.969 Z-5.879
X250.748 Y229.038 Z-5.938
X250.761 Y229.115 Z-5.986
X250.776 Y229.198 Z-6.021
X250.791 Y229.286 Z-6.043
X250.806 Y229.377 Z-6.05
X250.906 Y229.953 F1000.
G3 X250.428 Y230.629 I-0.577 J0.099
G2 X242.408 Y234.784 I2.533 J14.708 F800.
G1 X236.757 Y240.435
G3 X228.165 I-4.296 J-4.296
G1 X222.515 Y234.784
G2 X201.453 Y234.738 I-10.554 J10.553
G1 Z-5.05
G2 X199.036 Y237.874 I10.508 J10.599
X197.528 Y241.536 I12.925 J7.463
G1 Z-6.05 F333.3
G2 X208.099 Y259.753 I14.433 J3.8 F800.
G1 X215.818 Y261.822
G3 X220.114 Y269.262 I-1.572 J5.868
G1 X218.045 Y276.981
G2 X228.536 Y295.244 I14.416 J3.863
G1 Z-5.05
G2 X232.461 Y295.769 I3.925 J-14.4
X236.386 Y295.244 J-14.925
G1 Z-6.05 F333.3
G2 X246.877 Y276.981 I-3.925 J-14.4 F800.
G1 X244.809 Y269.262
G3 X249.105 Y261.822 I5.868 J-1.572
G1 X256.824 Y259.753
G2 X267.394 Y241.537 I-3.863 J-14.416
G1 Z-5.05
G2 X265.886 Y237.875 I-14.433 J3.8
X263.469 Y234.738 I-12.925 J7.462
G1 Z-6.05 F333.3
G2 X250.428 Y230.629 I-10.508 J10.599 F800.
G3 X249.753 Y230.152 I-0.099 J-0.577 F1000.
G1 X249.653 Y229.575
X249.638 Y229.485 Z-6.043
X249.623 Y229.397 Z-6.021
X249.608 Y229.313 Z-5.986
X249.595 Y229.236 Z-5.938
X249.583 Y229.167 Z-5.879
X249.573 Y229.109 Z-5.809
X249.565 Y229.061 Z-5.731
X249.559 Y229.027 Z-5.646
X249.555 Y229.006 Z-5.557
X249.554 Y228.999 Z-5.465
G0 Z15.
G91
G28 Z0.
M5
G28 X0. Y0.
M30
%
