%
O00001003
(T3  D=5.85 CR=0. - ZMIN=-6.1 - FLAT END MILL)
G90 G94 G17
G21
G91
G28 Z0.
G90
(2D CONTOUR1 (3))
T3 M6
S5000 M3
G54
G0 X214.215 Y228.799
G43 Z15. H3
G0 Z5.
G1 Z1. F1000.
Z-5.515 F333.3
X214.214 Y228.806 Z-5.607
X214.21 Y228.828 Z-5.696
X214.204 Y228.862 Z-5.781
X214.196 Y228.909 Z-5.859
X214.186 Y228.968 Z-5.929
X214.174 Y229.037 Z-5.988
X214.161 Y229.114 Z-6.036
X214.147 Y229.198 Z-6.071
X214.132 Y229.286 Z-6.093
X214.116 Y229.376 Z-6.1
X214.017 Y229.952 F1000.
G2 X214.494 Y230.628 I0.577 J0.099
G3 X222.515 Y234.784 I-2.533 J14.709 F800.
G1 X228.165 Y240.435
G2 X236.757 I4.296 J-4.296
G1 X242.408 Y234.784
G3 X263.469 Y234.738 I10.553 J10.553
G1 Z-5.1
G3 X265.886 Y237.875 I-10.508 J10.599
X267.394 Y241.537 I-12.925 J7.462
G1 Z-6.1 F333.3
G3 X256.824 Y259.753 I-14.433 J3.8 F800.
G1 X249.105 Y261.822
G2 X244.809 Y269.262 I1.572 J5.868
G1 X246.877 Y276.981
G3 X236.386 Y295.244 I-14.416 J3.863
G1 Z-5.1
G3 X232.461 Y295.769 I-3.925 J-14.4
X228.536 Y295.244 J-14.925
G1 Z-6.1 F333.3
G3 X218.045 Y276.981 I3.925 J-14.4 F800.
G1 X220.114 Y269.262
G2 X215.818 Y261.822 I-5.868 J-1.572
G1 X208.099 Y259.753
G3 X197.528 Y241.536 I3.862 J-14.417
G1 Z-5.1
G3 X199.036 Y237.874 I14.433 J3.8
X201.453 Y234.738 I12.925 J7.463
G1 Z-6.1 F333.3
G3 X214.494 Y230.628 I10.508 J10.599 F800.
G2 X215.17 Y230.151 I0.099 J-0.577 F1000.
G1 X215.269 Y229.574
X215.285 Y229.484 Z-6.093
X215.3 Y229.396 Z-6.071
X215.314 Y229.313 Z-6.036
X215.327 Y229.236 Z-5.988
X215.339 Y229.167 Z-5.929
X215.349 Y229.108 Z-5.859
X215.357 Y229.061 Z-5.781
X215.363 Y229.026 Z-5.696
X215.367 Y229.005 Z-5.607
X215.368 Y228.998 Z-5.515
G0 Z15.
G91
G28 Z0.
M5
G28 X0. Y0.
M30
%
