%
O00001004
(T3  D=5.85 CR=0. - ZMIN=-6.05 - FLAT END MILL)
G90 G94 G17
G21
G91
G28 Z0.
G90
(2D CONTOUR1 (2))
T3 M6
S5000 M3
G54
G0 X284.415 Y145.68
G43 Z15. H3
G0 Z5.
G1 Z2. F1000.
Z-0.279 F333.3
G19 G2 Y145.095 Z-0.864 J-0.585
G1 Y144.51 F1000.
G17 G3 X285. Y143.925 I0.585
G2 X287.925 Y141. J-2.925 F800.
G1 Y111.
G2 X285. Y108.075 I-2.925
G1 X219.212
X205.925 Y94.788
Y1.
G2 X203. Y-1.925 I-2.925
G1 X53.
G2 X50.075 Y1. J2.925
G1 Y94.788
X36.788 Y108.075
X1.
G2 X-1.925 Y111. J2.925
G1 Y141.
G2 X1. Y143.925 I2.925
G1 X285.
G3 X285.585 Y144.51 J0.585 F1000.
G1 Y145.095
G19 G3 Y145.68 Z-0.279 K0.585
G0 Z5.
X160.915 Y189.68
G1 Z2. F1000.
Z-0.279 F333.3
G2 Y189.095 Z-0.864 J-0.585
G1 Y188.51 F1000.
G17 G3 X161.5 Y187.925 I0.585
G1 X281. F800.
G2 X283.925 Y185. J-2.925
G1 Y147.
G2 X281. Y144.075 I-2.925
G1 X1.
G2 X-1.925 Y147. J2.925
G1 Y185.
G2 X1. Y187.925 I2.925
G1 X161.5
G3 X162.085 Y188.51 J0.585 F1000.
G1 Y189.095
G19 G3 Y189.68 Z-0.279 K0.585
G0 Z5.
X161.607 Y188.724
G1 Z2. F1000.
Z-0.279 F333.3
X161.613 Y188.728 Z-0.371
X161.63 Y188.741 Z-0.46
X161.658 Y188.762 Z-0.545
X161.696 Y188.791 Z-0.623
X161.744 Y188.827 Z-0.693
X161.8 Y188.869 Z-0.753
X161.863 Y188.916 Z-0.801
X161.93 Y188.967 Z-0.836
X162.002 Y189.02 Z-0.857
X162.075 Y189.075 Z-0.864
X162.543 Y189.426 F1000.
G17 G3 X162.66 Y190.245 I-0.351 J0.468
G2 X162.075 Y192. I2.34 J1.755 F800.
G1 Y211.
G2 X162.083 Y211.216 I2.925
X195.917 I16.917 J-1.254
X195.925 Y211. I-2.917 J-0.216
G1 Y192.
G2 X193. Y189.075 I-2.925
G1 X165.
G2 X162.66 Y190.245 J2.925
G3 X161.841 Y190.362 I-0.468 J-0.351 F1000.
G1 X161.373 Y190.011
X161.3 Y189.956 Z-0.857
X161.228 Y189.903 Z-0.836
X161.161 Y189.852 Z-0.801
X161.098 Y189.805 Z-0.753
X161.042 Y189.763 Z-0.693
X160.994 Y189.727 Z-0.623
X160.956 Y189.698 Z-0.545
X160.928 Y189.677 Z-0.46
X160.911 Y189.664 Z-0.371
X160.905 Y189.66 Z-0.279
G0 Z5.
X162.095
G1 Z2. F1000.
Z-0.279 F333.3
X162.089 Y189.664 Z-0.371
X162.072 Y189.677 Z-0.46
X162.044 Y189.698 Z-0.545
X162.006 Y189.727 Z-0.623
X161.958 Y189.763 Z-0.693
X161.902 Y189.805 Z-0.753
X161.839 Y189.852 Z-0.801
X161.772 Y189.903 Z-0.836
X161.7 Y189.956 Z-0.857
X161.627 Y190.011 Z-0.864
X161.159 Y190.362 F1000.
G3 X160.34 Y190.245 I-0.351 J-0.468
G2 X158. Y189.075 I-2.34 J1.755 F800.
G1 X130.
G2 X127.075 Y192. J2.925
G1 Y211.
G2 X127.083 Y211.216 I2.925
X160.917 I16.917 J-1.254
X160.925 Y211. I-2.917 J-0.216
G1 Y192.
G2 X160.34 Y190.245 I-2.925
G3 X160.457 Y189.426 I0.468 J-0.351 F1000.
G1 X160.925 Y189.075
X160.998 Y189.02 Z-0.857
X161.07 Y188.967 Z-0.836
X161.137 Y188.916 Z-0.801
X161.2 Y188.869 Z-0.753
X161.256 Y188.827 Z-0.693
X161.304 Y188.791 Z-0.623
X161.342 Y188.762 Z-0.545
X161.37 Y188.741 Z-0.46
X161.387 Y188.728 Z-0.371
X161.393 Y188.724 Z-0.279
G0 Z5.
X160.915 Y189.68
G1 Z1.136 F1000.
Z-1.144 F333.3
G19 G2 Y189.095 Z-1.729 J-0.585
G1 Y188.51 F1000.
G17 G3 X161.5 Y187.925 I0.585
G1 X281. F800.
G2 X283.925 Y185. J-2.925
G1 Y147.
G2 X281. Y144.075 I-2.925
G1 X1.
G2 X-1.925 Y147. J2.925
G1 Y185.
G2 X1. Y187.925 I2.925
G1 X161.5
G3 X162.085 Y188.51 J0.585 F1000.
G1 Y189.095
G19 G3 Y189.68 Z-1.144 K0.585
G0 Z5.
X161.607 Y188.724
G1 Z1.136 F1000.
Z-1.144 F333.3
X161.613 Y188.728 Z-1.235
X161.63 Y188.741 Z-1.324
X161.658 Y188.762 Z-1.409
X161.696 Y188.791 Z-1.487
X161.744 Y188.827 Z-1.557
X161.8 Y188.869 Z-1.617
X161.863 Y188.916 Z-1.665
X161.93 Y188.967 Z-1.7
X162.002 Y189.02 Z-1.721
X162.075 Y189.075 Z-1.729
X162.543 Y189.426 F1000.
G17 G3 X162.66 Y190.245 I-0.351 J0.468
G2 X162.075 Y192. I2.34 J1.755 F800.
G1 Y211.
G2 X162.083 Y211.216 I2.925
X195.917 I16.917 J-1.254
X195.925 Y211. I-2.917 J-0.216
G1 Y192.
G2 X193. Y189.075 I-2.925
G1 X165.
G2 X162.66 Y190.245 J2.925
G3 X161.841 Y190.362 I-0.468 J-0.351 F1000.
G1 X161.373 Y190.011
X161.3 Y189.956 Z-1.721
X161.228 Y189.903 Z-1.7
X161.161 Y189.852 Z-1.665
X161.098 Y189.805 Z-1.617
X161.042 Y189.763 Z-1.557
X160.994 Y189.727 Z-1.487
X160.956 Y189.698 Z-1.409
X160.928 Y189.677 Z-1.324
X160.911 Y189.664 Z-1.235
X160.905 Y189.66 Z-1.144
G0 Z5.
X162.095
G1 Z1.136 F1000.
Z-1.144 F333.3
X162.089 Y189.664 Z-1.235
X162.072 Y189.677 Z-1.324
X162.044 Y189.698 Z-1.409
X162.006 Y189.727 Z-1.487
X161.958 Y189.763 Z-1.557
X161.902 Y189.805 Z-1.617
X161.839 Y189.852 Z-1.665
X161.772 Y189.903 Z-1.7
X161.7 Y189.956 Z-1.721
X161.627 Y190.011 Z-1.729
X161.159 Y190.362 F1000.
G3 X160.34 Y190.245 I-0.351 J-0.468
G2 X158. Y189.075 I-2.34 J1.755 F800.
G1 X130.
G2 X127.075 Y192. J2.925
G1 Y211.
G2 X127.083 Y211.216 I2.925
X160.917 I16.917 J-1.254
X160.925 Y211. I-2.917 J-0.216
G1 Y192.
G2 X160.34 Y190.245 I-2.925
G3 X160.457 Y189.426 I0.468 J-0.351 F1000.
G1 X160.925 Y189.075
X160.998 Y189.02 Z-1.721
X161.07 Y188.967 Z-1.7
X161.137 Y188.916 Z-1.665
X161.2 Y188.869 Z-1.617
X161.256 Y188.827 Z-1.557
X161.304 Y188.791 Z-1.487
X161.342 Y188.762 Z-1.409
X161.37 Y188.741 Z-1.324
X161.387 Y188.728 Z-1.235
X161.393 Y188.724 Z-1.144
G0 Z5.
X160.915 Y189.68
G1 Z0.271 F1000.
Z-2.008 F333.3
G19 G2 Y189.095 Z-2.593 J-0.585
G1 Y188.51 F1000.
G17 G3 X161.5 Y187.925 I0.585
G1 X281. F800.
G2 X283.925 Y185. J-2.925
G1 Y147.
G2 X281. Y144.075 I-2.925
G1 X1.
G2 X-1.925 Y147. J2.925
G1 Y185.
G2 X1. Y187.925 I2.925
G1 X161.5
G3 X162.085 Y188.51 J0.585 F1000.
G1 Y189.095
G19 G3 Y189.68 Z-2.008 K0.585
G0 Z5.
X161.607 Y188.724
G1 Z0.271 F1000.
Z-2.008 F333.3
X161.613 Y188.728 Z-2.099
X161.63 Y188.741 Z-2.189
X161.658 Y188.762 Z-2.273
X161.696 Y188.791 Z-2.352
X161.744 Y188.827 Z-2.422
X161.8 Y188.869 Z-2.481
X161.863 Y188.916 Z-2.529
X161.93 Y188.967 Z-2.564
X162.002 Y189.02 Z-2.586
X162.075 Y189.075 Z-2.593
X162.543 Y189.426 F1000.
G17 G3 X162.66 Y190.245 I-0.351 J0.468
G2 X162.075 Y192. I2.34 J1.755 F800.
G1 Y211.
G2 X162.083 Y211.216 I2.925
X195.917 I16.917 J-1.254
X195.925 Y211. I-2.917 J-0.216
G1 Y192.
G2 X193. Y189.075 I-2.925
G1 X165.
G2 X162.66 Y190.245 J2.925
G3 X161.841 Y190.362 I-0.468 J-0.351 F1000.
G1 X161.373 Y190.011
X161.3 Y189.956 Z-2.586
X161.228 Y189.903 Z-2.564
X161.161 Y189.852 Z-2.529
X161.098 Y189.805 Z-2.481
X161.042 Y189.763 Z-2.422
X160.994 Y189.727 Z-2.352
X160.956 Y189.698 Z-2.273
X160.928 Y189.677 Z-2.189
X160.911 Y189.664 Z-2.099
X160.905 Y189.66 Z-2.008
G0 Z5.
X162.095
G1 Z0.271 F1000.
Z-2.008 F333.3
X162.089 Y189.664 Z-2.099
X162.072 Y189.677 Z-2.189
X162.044 Y189.698 Z-2.273
X162.006 Y189.727 Z-2.352
X161.958 Y189.763 Z-2.422
X161.902 Y189.805 Z-2.481
X161.839 Y189.852 Z-2.529
X161.772 Y189.903 Z-2.564
X161.7 Y189.956 Z-2.586
X161.627 Y190.011 Z-2.593
X161.159 Y190.362 F1000.
G3 X160.34 Y190.245 I-0.351 J-0.468
G2 X158. Y189.075 I-2.34 J1.755 F800.
G1 X130.
G2 X127.075 Y192. J2.925
G1 Y211.
G2 X127.083 Y211.216 I2.925
X160.917 I16.917 J-1.254
X160.925 Y211. I-2.917 J-0.216
G1 Y192.
G2 X160.34 Y190.245 I-2.925
G3 X160.457 Y189.426 I0.468 J-0.351 F1000.
G1 X160.925 Y189.075
X160.998 Y189.02 Z-2.586
X161.07 Y188.967 Z-2.564
X161.137 Y188.916 Z-2.529
X161.2 Y188.869 Z-2.481
X161.256 Y188.827 Z-2.422
X161.304 Y188.791 Z-2.352
X161.342 Y188.762 Z-2.273
X161.37 Y188.741 Z-2.189
X161.387 Y188.728 Z-2.099
X161.393 Y188.724 Z-2.008
G0 Z5.
X160.915 Y189.68
G1 Z-0.593 F1000.
Z-2.872 F333.3
G19 G2 Y189.095 Z-3.457 J-0.585
G1 Y188.51 F1000.
G17 G3 X161.5 Y187.925 I0.585
G1 X281. F800.
G2 X283.925 Y185. J-2.925
G1 Y147.
G2 X281. Y144.075 I-2.925
G1 X1.
G2 X-1.925 Y147. J2.925
G1 Y185.
G2 X1. Y187.925 I2.925
G1 X161.5
G3 X162.085 Y188.51 J0.585 F1000.
G1 Y189.095
G19 G3 Y189.68 Z-2.872 K0.585
G0 Z5.
X161.607 Y188.724
G1 Z-0.593 F1000.
Z-2.872 F333.3
X161.613 Y188.728 Z-2.964
X161.63 Y188.741 Z-3.053
X161.658 Y188.762 Z-3.138
X161.696 Y188.791 Z-3.216
X161.744 Y188.827 Z-3.286
X161.8 Y188.869 Z-3.345
X161.863 Y188.916 Z-3.393
X161.93 Y188.967 Z-3.429
X162.002 Y189.02 Z-3.45
X162.075 Y189.075 Z-3.457
X162.543 Y189.426 F1000.
G17 G3 X162.66 Y190.245 I-0.351 J0.468
G2 X162.075 Y192. I2.34 J1.755 F800.
G1 Y211.
G2 X162.083 Y211.216 I2.925
X195.917 I16.917 J-1.254
X195.925 Y211. I-2.917 J-0.216
G1 Y192.
G2 X193. Y189.075 I-2.925
G1 X165.
G2 X162.66 Y190.245 J2.925
G3 X161.841 Y190.362 I-0.468 J-0.351 F1000.
G1 X161.373 Y190.011
X161.3 Y189.956 Z-3.45
X161.228 Y189.903 Z-3.429
X161.161 Y189.852 Z-3.393
X161.098 Y189.805 Z-3.345
X161.042 Y189.763 Z-3.286
X160.994 Y189.727 Z-3.216
X160.956 Y189.698 Z-3.138
X160.928 Y189.677 Z-3.053
X160.911 Y189.664 Z-2.964
X160.905 Y189.66 Z-2.872
G0 Z5.
X162.095
G1 Z-0.593 F1000.
Z-2.872 F333.3
X162.089 Y189.664 Z-2.964
X162.072 Y189.677 Z-3.053
X162.044 Y189.698 Z-3.138
X162.006 Y189.727 Z-3.216
X161.958 Y189.763 Z-3.286
X161.902 Y189.805 Z-3.345
X161.839 Y189.852 Z-3.393
X161.772 Y189.903 Z-3.429
X161.7 Y189.956 Z-3.45
X161.627 Y190.011 Z-3.457
X161.159 Y190.362 F1000.
G3 X160.34 Y190.245 I-0.351 J-0.468
G2 X158. Y189.075 I-2.34 J1.755 F800.
G1 X130.
G2 X127.075 Y192. J2.925
G1 Y211.
G2 X127.083 Y211.216 I2.925
X160.917 I16.917 J-1.254
X160.925 Y211. I-2.917 J-0.216
G1 Y192.
G2 X160.34 Y190.245 I-2.925
G3 X160.457 Y189.426 I0.468 J-0.351 F1000.
G1 X160.925 Y189.075
X160.998 Y189.02 Z-3.45
X161.07 Y188.967 Z-3.429
X161.137 Y188.916 Z-3.393
X161.2 Y188.869 Z-3.345
X161.256 Y188.827 Z-3.286
X161.304 Y188.791 Z-3.216
X161.342 Y188.762 Z-3.138
X161.37 Y188.741 Z-3.053
X161.387 Y188.728 Z-2.964
X161.393 Y188.724 Z-2.872
G0 Z5.
X160.915 Y189.68
G1 Z-1.457 F1000.
Z-3.736 F333.3
G19 G2 Y189.095 Z-4.321 J-0.585
G1 Y188.51 F1000.
G17 G3 X161.5 Y187.925 I0.585
G1 X281. F800.
G2 X283.925 Y185. J-2.925
G1 Y147.
G2 X281. Y144.075 I-2.925
G1 X1.
G2 X-1.925 Y147. J2.925
G1 Y185.
G2 X1. Y187.925 I2.925
G1 X161.5
G3 X162.085 Y188.51 J0.585 F1000.
G1 Y189.095
G19 G3 Y189.68 Z-3.736 K0.585
G0 Z5.
X161.607 Y188.724
G1 Z-1.457 F1000.
Z-3.736 F333.3
X161.613 Y188.728 Z-3.828
X161.63 Y188.741 Z-3.917
X161.658 Y188.762 Z-4.002
X161.696 Y188.791 Z-4.08
X161.744 Y188.827 Z-4.15
X161.8 Y188.869 Z-4.21
X161.863 Y188.916 Z-4.258
X161.93 Y188.967 Z-4.293
X162.002 Y189.02 Z-4.314
X162.075 Y189.075 Z-4.321
X162.543 Y189.426 F1000.
G17 G3 X162.66 Y190.245 I-0.351 J0.468
G2 X162.075 Y192. I2.34 J1.755 F800.
G1 Y211.
G2 X162.083 Y211.216 I2.925
X195.917 I16.917 J-1.254
X195.925 Y211. I-2.917 J-0.216
G1 Y192.
G2 X193. Y189.075 I-2.925
G1 X165.
G2 X162.66 Y190.245 J2.925
G3 X161.841 Y190.362 I-0.468 J-0.351 F1000.
G1 X161.373 Y190.011
X161.3 Y189.956 Z-4.314
X161.228 Y189.903 Z-4.293
X161.161 Y189.852 Z-4.258
X161.098 Y189.805 Z-4.21
X161.042 Y189.763 Z-4.15
X160.994 Y189.727 Z-4.08
X160.956 Y189.698 Z-4.002
X160.928 Y189.677 Z-3.917
X160.911 Y189.664 Z-3.828
X160.905 Y189.66 Z-3.736
G0 Z5.
X162.095
G1 Z-1.457 F1000.
Z-3.736 F333.3
X162.089 Y189.664 Z-3.828
X162.072 Y189.677 Z-3.917
X162.044 Y189.698 Z-4.002
X162.006 Y189.727 Z-4.08
X161.958 Y189.763 Z-4.15
X161.902 Y189.805 Z-4.21
X161.839 Y189.852 Z-4.258
X161.772 Y189.903 Z-4.293
X161.7 Y189.956 Z-4.314
X161.627 Y190.011 Z-4.321
X161.159 Y190.362 F1000.
G3 X160.34 Y190.245 I-0.351 J-0.468
G2 X158. Y189.075 I-2.34 J1.755 F800.
G1 X130.
G2 X127.075 Y192. J2.925
G1 Y211.
G2 X127.083 Y211.216 I2.925
X160.917 I16.917 J-1.254
X160.925 Y211. I-2.917 J-0.216
G1 Y192.
G2 X160.34 Y190.245 I-2.925
G3 X160.457 Y189.426 I0.468 J-0.351 F1000.
G1 X160.925 Y189.075
X160.998 Y189.02 Z-4.314
X161.07 Y188.967 Z-4.293
X161.137 Y188.916 Z-4.258
X161.2 Y188.869 Z-4.21
X161.256 Y188.827 Z-4.15
X161.304 Y188.791 Z-4.08
X161.342 Y188.762 Z-4.002
X161.37 Y188.741 Z-3.917
X161.387 Y188.728 Z-3.828
X161.393 Y188.724 Z-3.736
G0 Z5.
X160.915 Y189.68
G1 Z-2.321 F1000.
Z-4.601 F333.3
G19 G2 Y189.095 Z-5.186 J-0.585
G1 Y188.51 F1000.
G17 G3 X161.5 Y187.925 I0.585
G1 X174.219 F800.
Z-5.05
X182.348
Z-5.186 F333.3
X230.936 F800.
Z-5.05
X238.786
Z-5.186 F333.3
X277.075 F800.
Z-5.05
X281.
G2 X283.925 Y185. J-2.925
G1 Y182.075
Z-5.186 F333.3
Y169.594 F800.
Z-5.05
Y161.744
Z-5.186 F333.3
Y147. F800.
G2 X281. Y144.075 I-2.925
G1 X178.378
Z-5.05
X170.005
Z-5.186 F333.3
X76.442 F800.
Z-5.05
X68.592
Z-5.186 F333.3
X1. F800.
G2 X-1.925 Y147. J2.925
G1 Y160.872
Z-5.05
Y168.722
Z-5.186 F333.3
Y185. F800.
G2 X1. Y187.925 I2.925
G1 X23.776
Z-5.05
X31.626
Z-5.186 F333.3
X70.139 F800.
Z-5.05
X78.084
Z-5.186 F333.3
X105.363 F800.
Z-5.05
X113.213
Z-5.186 F333.3
X138.955 F800.
Z-5.05
X146.944
Z-5.186 F333.3
X161.5 F800.
G3 X162.085 Y188.51 J0.585 F1000.
G1 Y189.095
G19 G3 Y189.68 Z-4.601 K0.585
G0 Z5.
X161.607 Y188.724
G1 Z-2.321 F1000.
Z-4.601 F333.3
X161.613 Y188.728 Z-4.692
X161.63 Y188.741 Z-4.781
X161.658 Y188.762 Z-4.866
X161.696 Y188.791 Z-4.945
X161.744 Y188.827 Z-5.014
X161.8 Y188.869 Z-5.074
X161.863 Y188.916 Z-5.122
X161.93 Y188.967 Z-5.157
X162.002 Y189.02 Z-5.179
X162.075 Y189.075 Z-5.186
X162.543 Y189.426 F1000.
G17 G3 X162.66 Y190.245 I-0.351 J0.468
G2 X162.075 Y192. I2.34 J1.755 F800.
G1 Y197.612
Z-5.05
Y205.968
Z-5.186 F333.3
Y211. F800.
G2 X162.083 Y211.216 I2.925
X174.598 Y226.344 I16.917 J-1.254
G1 Z-5.05
G2 X182.925 Y226.465 I4.402 J-16.382
G1 Z-5.186 F333.3
G2 X195.917 Y211.216 I-3.925 J-16.503 F800.
X195.925 Y211. I-2.917 J-0.216
G1 Y192.
G2 X193. Y189.075 I-2.925
G1 X182.348
Z-5.05
X174.219
Z-5.186 F333.3
X165. F800.
G2 X162.66 Y190.245 J2.925
G3 X161.841 Y190.362 I-0.468 J-0.351 F1000.
G1 X161.373 Y190.011
X161.3 Y189.956 Z-5.179
X161.228 Y189.903 Z-5.157
X161.161 Y189.852 Z-5.122
X161.098 Y189.805 Z-5.074
X161.042 Y189.763 Z-5.014
X160.994 Y189.727 Z-4.945
X160.956 Y189.698 Z-4.866
X160.928 Y189.677 Z-4.781
X160.911 Y189.664 Z-4.692
X160.905 Y189.66 Z-4.601
G0 Z5.
X162.095
G1 Z-2.321 F1000.
Z-4.601 F333.3
X162.089 Y189.664 Z-4.692
X162.072 Y189.677 Z-4.781
X162.044 Y189.698 Z-4.866
X162.006 Y189.727 Z-4.945
X161.958 Y189.763 Z-5.014
X161.902 Y189.805 Z-5.074
X161.839 Y189.852 Z-5.122
X161.772 Y189.903 Z-5.157
X161.7 Y189.956 Z-5.179
X161.627 Y190.011 Z-5.186
X161.159 Y190.362 F1000.
G3 X160.34 Y190.245 I-0.351 J-0.468
G2 X158. Y189.075 I-2.34 J1.755 F800.
G1 X146.944
Z-5.05
X138.955
Z-5.186 F333.3
X130. F800.
G2 X127.075 Y192. J2.925
G1 Y199.299
Z-5.05
Y207.149
Z-5.186 F333.3
Y211. F800.
G2 X127.083 Y211.216 I2.925
X139.66 Y226.361 I16.917 J-1.254
G1 Z-5.05
G2 X147.925 Y226.465 I4.34 J-16.399
G1 Z-5.186 F333.3
G2 X160.917 Y211.216 I-3.925 J-16.503 F800.
X160.925 Y211. I-2.917 J-0.216
G1 Y205.968
Z-5.05
Y197.612
Z-5.186 F333.3
Y192. F800.
G2 X160.34 Y190.245 I-2.925
G3 X160.457 Y189.426 I0.468 J-0.351 F1000.
G1 X160.925 Y189.075
X160.998 Y189.02 Z-5.179
X161.07 Y188.967 Z-5.157
X161.137 Y188.916 Z-5.122
X161.2 Y188.869 Z-5.074
X161.256 Y188.827 Z-5.014
X161.304 Y188.791 Z-4.945
X161.342 Y188.762 Z-4.866
X161.37 Y188.741 Z-4.781
X161.387 Y188.728 Z-4.692
X161.393 Y188.724 Z-4.601
G0 Z5.
X160.915 Y189.68
G1 Z-3.186 F1000.
Z-5.465 F333.3
G19 G2 Y189.095 Z-6.05 J-0.585
G1 Y188.51 F1000.
G17 G3 X161.5 Y187.925 I0.585
G1 X174.219 F800.
Z-5.05
X182.348
Z-6.05 F333.3
X230.936 F800.
Z-5.05
X238.786
Z-6.05 F333.3
X277.075 F800.
Z-5.05
X281.
G2 X283.925 Y185. J-2.925
G1 Y182.075
Z-6.05 F333.3
Y169.594 F800.
Z-5.05
Y161.744
Z-6.05 F333.3
Y147. F800.
G2 X281. Y144.075 I-2.925
G1 X178.378
Z-5.05
X170.005
Z-6.05 F333.3
X76.442 F800.
Z-5.05
X68.592
Z-6.05 F333.3
X1. F800.
G2 X-1.925 Y147. J2.925
G1 Y160.872
Z-5.05
Y168.722
Z-6.05 F333.3
Y185. F800.
G2 X1. Y187.925 I2.925
G1 X23.776
Z-5.05
X31.626
Z-6.05 F333.3
X70.139 F800.
Z-5.05
X78.084
Z-6.05 F333.3
X105.363 F800.
Z-5.05
X113.213
Z-6.05 F333.3
X138.955 F800.
Z-5.05
X146.944
Z-6.05 F333.3
X161.5 F800.
G3 X162.085 Y188.51 J0.585 F1000.
G1 Y189.095
G19 G3 Y189.68 Z-5.465 K0.585
G0 Z5.
X161.607 Y188.724
G1 Z-3.186 F1000.
Z-5.465 F333.3
X161.613 Y188.728 Z-5.557
X161.63 Y188.741 Z-5.646
X161.658 Y188.762 Z-5.731
X161.696 Y188.791 Z-5.809
X161.744 Y188.827 Z-5.879
X161.8 Y188.869 Z-5.938
X161.863 Y188.916 Z-5.986
X161.93 Y188.967 Z-6.021
X162.002 Y189.02 Z-6.043
X162.075 Y189.075 Z-6.05
X162.543 Y189.426 F1000.
G17 G3 X162.66 Y190.245 I-0.351 J0.468
G2 X162.075 Y192. I2.34 J1.755 F800.
G1 Y197.612
Z-5.05
Y205.968
Z-6.05 F333.3
Y211. F800.
G2 X162.083 Y211.216 I2.925
X174.598 Y226.344 I16.917 J-1.254
G1 Z-5.05
G2 X182.925 Y226.465 I4.402 J-16.382
G1 Z-6.05 F333.3
G2 X195.917 Y211.216 I-3.925 J-16.503 F800.
X195.925 Y211. I-2.917 J-0.216
G1 Y192.
G2 X193. Y189.075 I-2.925
G1 X182.348
Z-5.05
X174.219
Z-6.05 F333.3
X165. F800.
G2 X162.66 Y190.245 J2.925
G3 X161.841 Y190.362 I-0.468 J-0.351 F1000.
G1 X161.373 Y190.011
X161.3 Y189.956 Z-6.043
X161.228 Y189.903 Z-6.021
X161.161 Y189.852 Z-5.986
X161.098 Y189.805 Z-5.938
X161.042 Y189.763 Z-5.879
X160.994 Y189.727 Z-5.809
X160.956 Y189.698 Z-5.731
X160.928 Y189.677 Z-5.646
X160.911 Y189.664 Z-5.557
X160.905 Y189.66 Z-5.465
G0 Z5.
X162.095
G1 Z-3.186 F1000.
Z-5.465 F333.3
X162.089 Y189.664 Z-5.557
X162.072 Y189.677 Z-5.646
X162.044 Y189.698 Z-5.731
X162.006 Y189.727 Z-5.809
X161.958 Y189.763 Z-5.879
X161.902 Y189.805 Z-5.938
X161.839 Y189.852 Z-5.986
X161.772 Y189.903 Z-6.021
X161.7 Y189.956 Z-6.043
X161.627 Y190.011 Z-6.05
X161.159 Y190.362 F1000.
G3 X160.34 Y190.245 I-0.351 J-0.468
G2 X158. Y189.075 I-2.34 J1.755 F800.
G1 X146.944
Z-5.05
X138.955
Z-6.05 F333.3
X130. F800.
G2 X127.075 Y192. J2.925
G1 Y199.299
Z-5.05
Y207.149
Z-6.05 F333.3
Y211. F800.
G2 X127.083 Y211.216 I2.925
X139.66 Y226.361 I16.917 J-1.254
G1 Z-5.05
G2 X147.925 Y226.465 I4.34 J-16.399
G1 Z-6.05 F333.3
G2 X160.917 Y211.216 I-3.925 J-16.503 F800.
X160.925 Y211. I-2.917 J-0.216
G1 Y205.968
Z-5.05
Y197.612
Z-6.05 F333.3
Y192. F800.
G2 X160.34 Y190.245 I-2.925
G3 X160.457 Y189.426 I0.468 J-0.351 F1000.
G1 X160.925 Y189.075
X160.998 Y189.02 Z-6.043
X161.07 Y188.967 Z-6.021
X161.137 Y188.916 Z-5.986
X161.2 Y188.869 Z-5.938
X161.256 Y188.827 Z-5.879
X161.304 Y188.791 Z-5.809
X161.342 Y188.762 Z-5.731
X161.37 Y188.741 Z-5.646
X161.387 Y188.728 Z-5.557
X161.393 Y188.724 Z-5.465
G0 Z5.
X127.095 Y189.66
G1 Z2. F1000.
Z-0.279 F333.3
X127.089 Y189.664 Z-0.371
X127.072 Y189.677 Z-0.46
X127.044 Y189.698 Z-0.545
X127.006 Y189.727 Z-0.623
X126.958 Y189.763 Z-0.693
X126.902 Y189.805 Z-0.753
X126.839 Y189.852 Z-0.801
X126.772 Y189.903 Z-0.836
X126.7 Y189.956 Z-0.857
X126.627 Y190.011 Z-0.864
X126.159 Y190.362 F1000.
G3 X125.34 Y190.245 I-0.351 J-0.468
G2 X123. Y189.075 I-2.34 J1.755 F800.
G1 X95.
G2 X92.075 Y192. J2.925
G1 Y211.
G2 X92.083 Y211.216 I2.925
X125.917 I16.917 J-1.254
X125.925 Y211. I-2.917 J-0.216
G1 Y192.
G2 X125.34 Y190.245 I-2.925
G3 X125.457 Y189.426 I0.468 J-0.351 F1000.
G1 X125.925 Y189.075
X125.998 Y189.02 Z-0.857
X126.07 Y188.967 Z-0.836
X126.137 Y188.916 Z-0.801
X126.2 Y188.869 Z-0.753
X126.256 Y188.827 Z-0.693
X126.304 Y188.791 Z-0.623
X126.342 Y188.762 Z-0.545
X126.37 Y188.741 Z-0.46
X126.387 Y188.728 Z-0.371
X126.393 Y188.724 Z-0.279
G0 Z5.
X127.095 Y189.66
G1 Z1.136 F1000.
Z-1.144 F333.3
X127.089 Y189.664 Z-1.235
X127.072 Y189.677 Z-1.324
X127.044 Y189.698 Z-1.409
X127.006 Y189.727 Z-1.487
X126.958 Y189.763 Z-1.557
X126.902 Y189.805 Z-1.617
X126.839 Y189.852 Z-1.665
X126.772 Y189.903 Z-1.7
X126.7 Y189.956 Z-1.721
X126.627 Y190.011 Z-1.729
X126.159 Y190.362 F1000.
G3 X125.34 Y190.245 I-0.351 J-0.468
G2 X123. Y189.075 I-2.34 J1.755 F800.
G1 X95.
G2 X92.075 Y192. J2.925
G1 Y211.
G2 X92.083 Y211.216 I2.925
X125.917 I16.917 J-1.254
X125.925 Y211. I-2.917 J-0.216
G1 Y192.
G2 X125.34 Y190.245 I-2.925
G3 X125.457 Y189.426 I0.468 J-0.351 F1000.
G1 X125.925 Y189.075
X125.998 Y189.02 Z-1.721
X126.07 Y188.967 Z-1.7
X126.137 Y188.916 Z-1.665
X126.2 Y188.869 Z-1.617
X126.256 Y188.827 Z-1.557
X126.304 Y188.791 Z-1.487
X126.342 Y188.762 Z-1.409
X126.37 Y188.741 Z-1.324
X126.387 Y188.728 Z-1.235
X126.393 Y188.724 Z-1.144
G0 Z5.
X127.095 Y189.66
G1 Z0.271 F1000.
Z-2.008 F333.3
X127.089 Y189.664 Z-2.099
X127.072 Y189.677 Z-2.189
X127.044 Y189.698 Z-2.273
X127.006 Y189.727 Z-2.352
X126.958 Y189.763 Z-2.422
X126.902 Y189.805 Z-2.481
X126.839 Y189.852 Z-2.529
X126.772 Y189.903 Z-2.564
X126.7 Y189.956 Z-2.586
X126.627 Y190.011 Z-2.593
X126.159 Y190.362 F1000.
G3 X125.34 Y190.245 I-0.351 J-0.468
G2 X123. Y189.075 I-2.34 J1.755 F800.
G1 X95.
G2 X92.075 Y192. J2.925
G1 Y211.
G2 X92.083 Y211.216 I2.925
X125.917 I16.917 J-1.254
X125.925 Y211. I-2.917 J-0.216
G1 Y192.
G2 X125.34 Y190.245 I-2.925
G3 X125.457 Y189.426 I0.468 J-0.351 F1000.
G1 X125.925 Y189.075
X125.998 Y189.02 Z-2.586
X126.07 Y188.967 Z-2.564
X126.137 Y188.916 Z-2.529
X126.2 Y188.869 Z-2.481
X126.256 Y188.827 Z-2.422
X126.304 Y188.791 Z-2.352
X126.342 Y188.762 Z-2.273
X126.37 Y188.741 Z-2.189
X126.387 Y188.728 Z-2.099
X126.393 Y188.724 Z-2.008
G0 Z5.
X127.095 Y189.66
G1 Z-0.593 F1000.
Z-2.872 F333.3
X127.089 Y189.664 Z-2.964
X127.072 Y189.677 Z-3.053
X127.044 Y189.698 Z-3.138
X127.006 Y189.727 Z-3.216
X126.958 Y189.763 Z-3.286
X126.902 Y189.805 Z-3.345
X126.839 Y189.852 Z-3.393
X126.772 Y189.903 Z-3.429
X126.7 Y189.956 Z-3.45
X126.627 Y190.011 Z-3.457
X126.159 Y190.362 F1000.
G3 X125.34 Y190.245 I-0.351 J-0.468
G2 X123. Y189.075 I-2.34 J1.755 F800.
G1 X95.
G2 X92.075 Y192. J2.925
G1 Y211.
G2 X92.083 Y211.216 I2.925
X125.917 I16.917 J-1.254
X125.925 Y211. I-2.917 J-0.216
G1 Y192.
G2 X125.34 Y190.245 I-2.925
G3 X125.457 Y189.426 I0.468 J-0.351 F1000.
G1 X125.925 Y189.075
X125.998 Y189.02 Z-3.45
X126.07 Y188.967 Z-3.429
X126.137 Y188.916 Z-3.393
X126.2 Y188.869 Z-3.345
X126.256 Y188.827 Z-3.286
X126.304 Y188.791 Z-3.216
X126.342 Y188.762 Z-3.138
X126.37 Y188.741 Z-3.053
X126.387 Y188.728 Z-2.964
X126.393 Y188.724 Z-2.872
G0 Z5.
X127.095 Y189.66
G1 Z-1.457 F1000.
Z-3.736 F333.3
X127.089 Y189.664 Z-3.828
X127.072 Y189.677 Z-3.917
X127.044 Y189.698 Z-4.002
X127.006 Y189.727 Z-4.08
X126.958 Y189.763 Z-4.15
X126.902 Y189.805 Z-4.21
X126.839 Y189.852 Z-4.258
X126.772 Y189.903 Z-4.293
X126.7 Y189.956 Z-4.314
X126.627 Y190.011 Z-4.321
X126.159 Y190.362 F1000.
G3 X125.34 Y190.245 I-0.351 J-0.468
G2 X123. Y189.075 I-2.34 J1.755 F800.
G1 X95.
G2 X92.075 Y192. J2.925
G1 Y211.
G2 X92.083 Y211.216 I2.925
X125.917 I16.917 J-1.254
X125.925 Y211. I-2.917 J-0.216
G1 Y192.
G2 X125.34 Y190.245 I-2.925
G3 X125.457 Y189.426 I0.468 J-0.351 F1000.
G1 X125.925 Y189.075
X125.998 Y189.02 Z-4.314
X126.07 Y188.967 Z-4.293
X126.137 Y188.916 Z-4.258
X126.2 Y188.869 Z-4.21
X126.256 Y188.827 Z-4.15
X126.304 Y188.791 Z-4.08
X126.342 Y188.762 Z-4.002
X126.37 Y188.741 Z-3.917
X126.387 Y188.728 Z-3.828
X126.393 Y188.724 Z-3.736
G0 Z5.
X127.095 Y189.66
G1 Z-2.321 F1000.
Z-4.601 F333.3
X127.089 Y189.664 Z-4.692
X127.072 Y189.677 Z-4.781
X127.044 Y189.698 Z-4.866
X127.006 Y189.727 Z-4.945
X126.958 Y189.763 Z-5.014
X126.902 Y189.805 Z-5.074
X126.839 Y189.852 Z-5.122
X126.772 Y189.903 Z-5.157
X126.7 Y189.956 Z-5.179
X126.627 Y190.011 Z-5.186
X126.159 Y190.362 F1000.
G3 X125.34 Y190.245 I-0.351 J-0.468
G2 X123. Y189.075 I-2.34 J1.755 F800.
G1 X113.213
Z-5.05
X105.363
Z-5.186 F333.3
X95. F800.
G2 X92.075 Y192. J2.925
G1 Y199.468
Z-5.05
Y207.486
Z-5.186 F333.3
Y211. F800.
G2 X92.083 Y211.216 I2.925
X104.802 Y226.398 I16.917 J-1.254
G1 Z-5.05
G2 X116.075 Y225.379 I4.198 J-16.436
G1 Z-5.186 F333.3
G2 X125.917 Y211.216 I-7.075 J-15.417 F800.
X125.925 Y211. I-2.917 J-0.216
G1 Y207.149
Z-5.05
Y199.299
Z-5.186 F333.3
Y192. F800.
G2 X125.34 Y190.245 I-2.925
G3 X125.457 Y189.426 I0.468 J-0.351 F1000.
G1 X125.925 Y189.075
X125.998 Y189.02 Z-5.179
X126.07 Y188.967 Z-5.157
X126.137 Y188.916 Z-5.122
X126.2 Y188.869 Z-5.074
X126.256 Y188.827 Z-5.014
X126.304 Y188.791 Z-4.945
X126.342 Y188.762 Z-4.866
X126.37 Y188.741 Z-4.781
X126.387 Y188.728 Z-4.692
X126.393 Y188.724 Z-4.601
G0 Z5.
X127.095 Y189.66
G1 Z-3.186 F1000.
Z-5.465 F333.3
X127.089 Y189.664 Z-5.557
X127.072 Y189.677 Z-5.646
X127.044 Y189.698 Z-5.731
X127.006 Y189.727 Z-5.809
X126.958 Y189.763 Z-5.879
X126.902 Y189.805 Z-5.938
X126.839 Y189.852 Z-5.986
X126.772 Y189.903 Z-6.021
X126.7 Y189.956 Z-6.043
X126.627 Y190.011 Z-6.05
X126.159 Y190.362 F1000.
G3 X125.34 Y190.245 I-0.351 J-0.468
G2 X123. Y189.075 I-2.34 J1.755 F800.
G1 X113.213
Z-5.05
X105.363
Z-6.05 F333.3
X95. F800.
G2 X92.075 Y192. J2.925
G1 Y199.468
Z-5.05
Y207.486
Z-6.05 F333.3
Y211. F800.
G2 X92.083 Y211.216 I2.925
X104.802 Y226.398 I16.917 J-1.254
G1 Z-5.05
G2 X116.075 Y225.379 I4.198 J-16.436
G1 Z-6.05 F333.3
G2 X125.917 Y211.216 I-7.075 J-15.417 F800.
X125.925 Y211. I-2.917 J-0.216
G1 Y207.149
Z-5.05
Y199.299
Z-6.05 F333.3
Y192. F800.
G2 X125.34 Y190.245 I-2.925
G3 X125.457 Y189.426 I0.468 J-0.351 F1000.
G1 X125.925 Y189.075
X125.998 Y189.02 Z-6.043
X126.07 Y188.967 Z-6.021
X126.137 Y188.916 Z-5.986
X126.2 Y188.869 Z-5.938
X126.256 Y188.827 Z-5.879
X126.304 Y188.791 Z-5.809
X126.342 Y188.762 Z-5.731
X126.37 Y188.741 Z-5.646
X126.387 Y188.728 Z-5.557
X126.393 Y188.724 Z-5.465
G0 Z5.
X92.095 Y189.66
G1 Z2. F1000.
Z-0.279 F333.3
X92.089 Y189.664 Z-0.371
X92.072 Y189.677 Z-0.46
X92.044 Y189.698 Z-0.545
X92.006 Y189.727 Z-0.623
X91.958 Y189.763 Z-0.693
X91.902 Y189.805 Z-0.753
X91.839 Y189.852 Z-0.801
X91.772 Y189.903 Z-0.836
X91.7 Y189.956 Z-0.857
X91.627 Y190.011 Z-0.864
X91.159 Y190.362 F1000.
G3 X90.34 Y190.245 I-0.351 J-0.468
G2 X88. Y189.075 I-2.34 J1.755 F800.
G1 X60.
G2 X57.075 Y192. J2.925
G1 Y211.
G2 X57.083 Y211.216 I2.925
X90.917 I16.917 J-1.254
X90.925 Y211. I-2.917 J-0.216
G1 Y192.
G2 X90.34 Y190.245 I-2.925
G3 X90.457 Y189.426 I0.468 J-0.351 F1000.
G1 X90.925 Y189.075
X90.998 Y189.02 Z-0.857
X91.07 Y188.967 Z-0.836
X91.137 Y188.916 Z-0.801
X91.2 Y188.869 Z-0.753
X91.256 Y188.827 Z-0.693
X91.304 Y188.791 Z-0.623
X91.342 Y188.762 Z-0.545
X91.37 Y188.741 Z-0.46
X91.387 Y188.728 Z-0.371
X91.393 Y188.724 Z-0.279
G0 Z5.
X92.095 Y189.66
G1 Z1.136 F1000.
Z-1.144 F333.3
X92.089 Y189.664 Z-1.235
X92.072 Y189.677 Z-1.324
X92.044 Y189.698 Z-1.409
X92.006 Y189.727 Z-1.487
X91.958 Y189.763 Z-1.557
X91.902 Y189.805 Z-1.617
X91.839 Y189.852 Z-1.665
X91.772 Y189.903 Z-1.7
X91.7 Y189.956 Z-1.721
X91.627 Y190.011 Z-1.729
X91.159 Y190.362 F1000.
G3 X90.34 Y190.245 I-0.351 J-0.468
G2 X88. Y189.075 I-2.34 J1.755 F800.
G1 X60.
G2 X57.075 Y192. J2.925
G1 Y211.
G2 X57.083 Y211.216 I2.925
X90.917 I16.917 J-1.254
X90.925 Y211. I-2.917 J-0.216
G1 Y192.
G2 X90.34 Y190.245 I-2.925
G3 X90.457 Y189.426 I0.468 J-0.351 F1000.
G1 X90.925 Y189.075
X90.998 Y189.02 Z-1.721
X91.07 Y188.967 Z-1.7
X91.137 Y188.916 Z-1.665
X91.2 Y188.869 Z-1.617
X91.256 Y188.827 Z-1.557
X91.304 Y188.791 Z-1.487
X91.342 Y188.762 Z-1.409
X91.37 Y188.741 Z-1.324
X91.387 Y188.728 Z-1.235
X91.393 Y188.724 Z-1.144
G0 Z5.
X92.095 Y189.66
G1 Z0.271 F1000.
Z-2.008 F333.3
X92.089 Y189.664 Z-2.099
X92.072 Y189.677 Z-2.189
X92.044 Y189.698 Z-2.273
X92.006 Y189.727 Z-2.352
X91.958 Y189.763 Z-2.422
X91.902 Y189.805 Z-2.481
X91.839 Y189.852 Z-2.529
X91.772 Y189.903 Z-2.564
X91.7 Y189.956 Z-2.586
X91.627 Y190.011 Z-2.593
X91.159 Y190.362 F1000.
G3 X90.34 Y190.245 I-0.351 J-0.468
G2 X88. Y189.075 I-2.34 J1.755 F800.
G1 X60.
G2 X57.075 Y192. J2.925
G1 Y211.
G2 X57.083 Y211.216 I2.925
X90.917 I16.917 J-1.254
X90.925 Y211. I-2.917 J-0.216
G1 Y192.
G2 X90.34 Y190.245 I-2.925
G3 X90.457 Y189.426 I0.468 J-0.351 F1000.
G1 X90.925 Y189.075
X90.998 Y189.02 Z-2.586
X91.07 Y188.967 Z-2.564
X91.137 Y188.916 Z-2.529
X91.2 Y188.869 Z-2.481
X91.256 Y188.827 Z-2.422
X91.304 Y188.791 Z-2.352
X91.342 Y188.762 Z-2.273
X91.37 Y188.741 Z-2.189
X91.387 Y188.728 Z-2.099
X91.393 Y188.724 Z-2.008
G0 Z5.
X92.095 Y189.66
G1 Z-0.593 F1000.
Z-2.872 F333.3
X92.089 Y189.664 Z-2.964
X92.072 Y189.677 Z-3.053
X92.044 Y189.698 Z-3.138
X92.006 Y189.727 Z-3.216
X91.958 Y189.763 Z-3.286
X91.902 Y189.805 Z-3.345
X91.839 Y189.852 Z-3.393
X91.772 Y189.903 Z-3.429
X91.7 Y189.956 Z-3.45
X91.627 Y190.011 Z-3.457
X91.159 Y190.362 F1000.
G3 X90.34 Y190.245 I-0.351 J-0.468
G2 X88. Y189.075 I-2.34 J1.755 F800.
G1 X60.
G2 X57.075 Y192. J2.925
G1 Y211.
G2 X57.083 Y211.216 I2.925
X90.917 I16.917 J-1.254
X90.925 Y211. I-2.917 J-0.216
G1 Y192.
G2 X90.34 Y190.245 I-2.925
G3 X90.457 Y189.426 I0.468 J-0.351 F1000.
G1 X90.925 Y189.075
X90.998 Y189.02 Z-3.45
X91.07 Y188.967 Z-3.429
X91.137 Y188.916 Z-3.393
X91.2 Y188.869 Z-3.345
X91.256 Y188.827 Z-3.286
X91.304 Y188.791 Z-3.216
X91.342 Y188.762 Z-3.138
X91.37 Y188.741 Z-3.053
X91.387 Y188.728 Z-2.964
X91.393 Y188.724 Z-2.872
G0 Z5.
X92.095 Y189.66
G1 Z-1.457 F1000.
Z-3.736 F333.3
X92.089 Y189.664 Z-3.828
X92.072 Y189.677 Z-3.917
X92.044 Y189.698 Z-4.002
X92.006 Y189.727 Z-4.08
X91.958 Y189.763 Z-4.15
X91.902 Y189.805 Z-4.21
X91.839 Y189.852 Z-4.258
X91.772 Y189.903 Z-4.293
X91.7 Y189.956 Z-4.314
X91.627 Y190.011 Z-4.321
X91.159 Y190.362 F1000.
G3 X90.34 Y190.245 I-0.351 J-0.468
G2 X88. Y189.075 I-2.34 J1.755 F800.
G1 X60.
G2 X57.075 Y192. J2.925
G1 Y211.
G2 X57.083 Y211.216 I2.925
X90.917 I16.917 J-1.254
X90.925 Y211. I-2.917 J-0.216
G1 Y192.
G2 X90.34 Y190.245 I-2.925
G3 X90.457 Y189.426 I0.468 J-0.351 F1000.
G1 X90.925 Y189.075
X90.998 Y189.02 Z-4.314
X91.07 Y188.967 Z-4.293
X91.137 Y188.916 Z-4.258
X91.2 Y188.869 Z-4.21
X91.256 Y188.827 Z-4.15
X91.304 Y188.791 Z-4.08
X91.342 Y188.762 Z-4.002
X91.37 Y188.741 Z-3.917
X91.387 Y188.728 Z-3.828
X91.393 Y188.724 Z-3.736
G0 Z5.
X92.095 Y189.66
G1 Z-2.321 F1000.
Z-4.601 F333.3
X92.089 Y189.664 Z-4.692
X92.072 Y189.677 Z-4.781
X92.044 Y189.698 Z-4.866
X92.006 Y189.727 Z-4.945
X91.958 Y189.763 Z-5.014
X91.902 Y189.805 Z-5.074
X91.839 Y189.852 Z-5.122
X91.772 Y189.903 Z-5.157
X91.7 Y189.956 Z-5.179
X91.627 Y190.011 Z-5.186
X91.159 Y190.362 F1000.
G3 X90.34 Y190.245 I-0.351 J-0.468
G2 X88. Y189.075 I-2.34 J1.755 F800.
G1 X78.084
Z-5.05
X70.139
Z-5.186 F333.3
X60. F800.
G2 X57.075 Y192. J2.925
G1 Y199.491
Z-5.05
Y207.584
Z-5.186 F333.3
Y211. F800.
G2 X57.083 Y211.216 I2.925
X69.004 Y226.173 I16.917 J-1.254
G1 Z-5.05
G2 X77.189 Y226.623 I4.996 J-16.211
G1 Z-5.186 F333.3
G2 X90.917 Y211.216 I-3.189 J-16.661 F800.
X90.925 Y211. I-2.917 J-0.216
G1 Y207.486
Z-5.05
Y199.468
Z-5.186 F333.3
Y192. F800.
G2 X90.34 Y190.245 I-2.925
G3 X90.457 Y189.426 I0.468 J-0.351 F1000.
G1 X90.925 Y189.075
X90.998 Y189.02 Z-5.179
X91.07 Y188.967 Z-5.157
X91.137 Y188.916 Z-5.122
X91.2 Y188.869 Z-5.074
X91.256 Y188.827 Z-5.014
X91.304 Y188.791 Z-4.945
X91.342 Y188.762 Z-4.866
X91.37 Y188.741 Z-4.781
X91.387 Y188.728 Z-4.692
X91.393 Y188.724 Z-4.601
G0 Z5.
X92.095 Y189.66
G1 Z-3.186 F1000.
Z-5.465 F333.3
X92.089 Y189.664 Z-5.557
X92.072 Y189.677 Z-5.646
X92.044 Y189.698 Z-5.731
X92.006 Y189.727 Z-5.809
X91.958 Y189.763 Z-5.879
X91.902 Y189.805 Z-5.938
X91.839 Y189.852 Z-5.986
X91.772 Y189.903 Z-6.021
X91.7 Y189.956 Z-6.043
X91.627 Y190.011 Z-6.05
X91.159 Y190.362 F1000.
G3 X90.34 Y190.245 I-0.351 J-0.468
G2 X88. Y189.075 I-2.34 J1.755 F800.
G1 X78.084
Z-5.05
X70.139
Z-6.05 F333.3
X60. F800.
G2 X57.075 Y192. J2.925
G1 Y199.491
Z-5.05
Y207.584
Z-6.05 F333.3
Y211. F800.
G2 X57.083 Y211.216 I2.925
X69.004 Y226.173 I16.917 J-1.254
G1 Z-5.05
G2 X77.189 Y226.623 I4.996 J-16.211
G1 Z-6.05 F333.3
G2 X90.917 Y211.216 I-3.189 J-16.661 F800.
X90.925 Y211. I-2.917 J-0.216
G1 Y207.486
Z-5.05
Y199.468
Z-6.05 F333.3
Y192. F800.
G2 X90.34 Y190.245 I-2.925
G3 X90.457 Y189.426 I0.468 J-0.351 F1000.
G1 X90.925 Y189.075
X90.998 Y189.02 Z-6.043
X91.07 Y188.967 Z-6.021
X91.137 Y188.916 Z-5.986
X91.2 Y188.869 Z-5.938
X91.256 Y188.827 Z-5.879
X91.304 Y188.791 Z-5.809
X91.342 Y188.762 Z-5.731
X91.37 Y188.741 Z-5.646
X91.387 Y188.728 Z-5.557
X91.393 Y188.724 Z-5.465
G0 Z5.
X57.095 Y189.66
G1 Z2. F1000.
Z-0.279 F333.3
X57.089 Y189.664 Z-0.371
X57.072 Y189.677 Z-0.46
X57.044 Y189.698 Z-0.545
X57.006 Y189.727 Z-0.623
X56.958 Y189.763 Z-0.693
X56.902 Y189.805 Z-0.753
X56.839 Y189.852 Z-0.801
X56.772 Y189.903 Z-0.836
X56.7 Y189.956 Z-0.857
X56.627 Y190.011 Z-0.864
X56.159 Y190.362 F1000.
G3 X55.34 Y190.245 I-0.351 J-0.468
G2 X53. Y189.075 I-2.34 J1.755 F800.
G1 X1.
G2 X-1.925 Y192. J2.925
G1 Y228.732
G2 X9. Y239.657 I10.925
G1 X11.
G3 X16.075 Y244.732 J5.075
G1 Y254.916
G2 X37.925 I10.925
G1 Y244.732
G3 X43. Y239.657 I5.075
G1 X45.
G2 X55.925 Y228.732 J-10.925
G1 Y192.
G2 X55.34 Y190.245 I-2.925
G3 X55.457 Y189.426 I0.468 J-0.351 F1000.
G1 X55.925 Y189.075
X55.998 Y189.02 Z-0.857
X56.07 Y188.967 Z-0.836
X56.137 Y188.916 Z-0.801
X56.2 Y188.869 Z-0.753
X56.256 Y188.827 Z-0.693
X56.304 Y188.791 Z-0.623
X56.342 Y188.762 Z-0.545
X56.37 Y188.741 Z-0.46
X56.387 Y188.728 Z-0.371
X56.393 Y188.724 Z-0.279
G0 Z5.
X57.095 Y189.66
G1 Z1.136 F1000.
Z-1.144 F333.3
X57.089 Y189.664 Z-1.235
X57.072 Y189.677 Z-1.324
X57.044 Y189.698 Z-1.409
X57.006 Y189.727 Z-1.487
X56.958 Y189.763 Z-1.557
X56.902 Y189.805 Z-1.617
X56.839 Y189.852 Z-1.665
X56.772 Y189.903 Z-1.7
X56.7 Y189.956 Z-1.721
X56.627 Y190.011 Z-1.729
X56.159 Y190.362 F1000.
G3 X55.34 Y190.245 I-0.351 J-0.468
G2 X53. Y189.075 I-2.34 J1.755 F800.
G1 X1.
G2 X-1.925 Y192. J2.925
G1 Y228.732
G2 X9. Y239.657 I10.925
G1 X11.
G3 X16.075 Y244.732 J5.075
G1 Y254.916
G2 X37.925 I10.925
G1 Y244.732
G3 X43. Y239.657 I5.075
G1 X45.
G2 X55.925 Y228.732 J-10.925
G1 Y192.
G2 X55.34 Y190.245 I-2.925
G3 X55.457 Y189.426 I0.468 J-0.351 F1000.
G1 X55.925 Y189.075
X55.998 Y189.02 Z-1.721
X56.07 Y188.967 Z-1.7
X56.137 Y188.916 Z-1.665
X56.2 Y188.869 Z-1.617
X56.256 Y188.827 Z-1.557
X56.304 Y188.791 Z-1.487
X56.342 Y188.762 Z-1.409
X56.37 Y188.741 Z-1.324
X56.387 Y188.728 Z-1.235
X56.393 Y188.724 Z-1.144
G0 Z5.
X57.095 Y189.66
G1 Z0.271 F1000.
Z-2.008 F333.3
X57.089 Y189.664 Z-2.099
X57.072 Y189.677 Z-2.189
X57.044 Y189.698 Z-2.273
X57.006 Y189.727 Z-2.352
X56.958 Y189.763 Z-2.422
X56.902 Y189.805 Z-2.481
X56.839 Y189.852 Z-2.529
X56.772 Y189.903 Z-2.564
X56.7 Y189.956 Z-2.586
X56.627 Y190.011 Z-2.593
X56.159 Y190.362 F1000.
G3 X55.34 Y190.245 I-0.351 J-0.468
G2 X53. Y189.075 I-2.34 J1.755 F800.
G1 X1.
G2 X-1.925 Y192. J2.925
G1 Y228.732
G2 X9. Y239.657 I10.925
G1 X11.
G3 X16.075 Y244.732 J5.075
G1 Y254.916
G2 X37.925 I10.925
G1 Y244.732
G3 X43. Y239.657 I5.075
G1 X45.
G2 X55.925 Y228.732 J-10.925
G1 Y192.
G2 X55.34 Y190.245 I-2.925
G3 X55.457 Y189.426 I0.468 J-0.351 F1000.
G1 X55.925 Y189.075
X55.998 Y189.02 Z-2.586
X56.07 Y188.967 Z-2.564
X56.137 Y188.916 Z-2.529
X56.2 Y188.869 Z-2.481
X56.256 Y188.827 Z-2.422
X56.304 Y188.791 Z-2.352
X56.342 Y188.762 Z-2.273
X56.37 Y188.741 Z-2.189
X56.387 Y188.728 Z-2.099
X56.393 Y188.724 Z-2.008
G0 Z5.
X57.095 Y189.66
G1 Z-0.593 F1000.
Z-2.872 F333.3
X57.089 Y189.664 Z-2.964
X57.072 Y189.677 Z-3.053
X57.044 Y189.698 Z-3.138
X57.006 Y189.727 Z-3.216
X56.958 Y189.763 Z-3.286
X56.902 Y189.805 Z-3.345
X56.839 Y189.852 Z-3.393
X56.772 Y189.903 Z-3.429
X56.7 Y189.956 Z-3.45
X56.627 Y190.011 Z-3.457
X56.159 Y190.362 F1000.
G3 X55.34 Y190.245 I-0.351 J-0.468
G2 X53. Y189.075 I-2.34 J1.755 F800.
G1 X1.
G2 X-1.925 Y192. J2.925
G1 Y228.732
G2 X9. Y239.657 I10.925
G1 X11.
G3 X16.075 Y244.732 J5.075
G1 Y254.916
G2 X37.925 I10.925
G1 Y244.732
G3 X43. Y239.657 I5.075
G1 X45.
G2 X55.925 Y228.732 J-10.925
G1 Y192.
G2 X55.34 Y190.245 I-2.925
G3 X55.457 Y189.426 I0.468 J-0.351 F1000.
G1 X55.925 Y189.075
X55.998 Y189.02 Z-3.45
X56.07 Y188.967 Z-3.429
X56.137 Y188.916 Z-3.393
X56.2 Y188.869 Z-3.345
X56.256 Y188.827 Z-3.286
X56.304 Y188.791 Z-3.216
X56.342 Y188.762 Z-3.138
X56.37 Y188.741 Z-3.053
X56.387 Y188.728 Z-2.964
X56.393 Y188.724 Z-2.872
G0 Z5.
X57.095 Y189.66
G1 Z-1.457 F1000.
Z-3.736 F333.3
X57.089 Y189.664 Z-3.828
X57.072 Y189.677 Z-3.917
X57.044 Y189.698 Z-4.002
X57.006 Y189.727 Z-4.08
X56.958 Y189.763 Z-4.15
X56.902 Y189.805 Z-4.21
X56.839 Y189.852 Z-4.258
X56.772 Y189.903 Z-4.293
X56.7 Y189.956 Z-4.314
X56.627 Y190.011 Z-4.321
X56.159 Y190.362 F1000.
G3 X55.34 Y190.245 I-0.351 J-0.468
G2 X53. Y189.075 I-2.34 J1.755 F800.
G1 X1.
G2 X-1.925 Y192. J2.925
G1 Y228.732
G2 X9. Y239.657 I10.925
G1 X11.
G3 X16.075 Y244.732 J5.075
G1 Y254.916
G2 X37.925 I10.925
G1 Y244.732
G3 X43. Y239.657 I5.075
G1 X45.
G2 X55.925 Y228.732 J-10.925
G1 Y192.
G2 X55.34 Y190.245 I-2.925
G3 X55.457 Y189.426 I0.468 J-0.351 F1000.
G1 X55.925 Y189.075
X55.998 Y189.02 Z-4.314
X56.07 Y188.967 Z-4.293
X56.137 Y188.916 Z-4.258
X56.2 Y188.869 Z-4.21
X56.256 Y188.827 Z-4.15
X56.304 Y188.791 Z-4.08
X56.342 Y188.762 Z-4.002
X56.37 Y188.741 Z-3.917
X56.387 Y188.728 Z-3.828
X56.393 Y188.724 Z-3.736
G0 Z5.
X57.095 Y189.66
G1 Z-2.321 F1000.
Z-4.601 F333.3
X57.089 Y189.664 Z-4.692
X57.072 Y189.677 Z-4.781
X57.044 Y189.698 Z-4.866
X57.006 Y189.727 Z-4.945
X56.958 Y189.763 Z-5.014
X56.902 Y189.805 Z-5.074
X56.839 Y189.852 Z-5.122
X56.772 Y189.903 Z-5.157
X56.7 Y189.956 Z-5.179
X56.627 Y190.011 Z-5.186
X56.159 Y190.362 F1000.
G3 X55.34 Y190.245 I-0.351 J-0.468
G2 X53. Y189.075 I-2.34 J1.755 F800.
G1 X31.626
Z-5.05
X23.776
Z-5.186 F333.3
X1. F800.
G2 X-1.925 Y192. J2.925
G1 Y228.732
G2 X9. Y239.657 I10.925
G1 X11.
G3 X16.075 Y244.732 J5.075
G1 Y254.916
G2 X37.925 I10.925
G1 Y244.732
G3 X43. Y239.657 I5.075
G1 X45.
G2 X46.935 Y239.484 J-10.925
G1 Z-5.05
G2 X53.645 Y235.411 I-1.935 J-10.752
G1 Z-5.186 F333.3
G2 X55.925 Y228.732 I-8.645 J-6.679 F800.
G1 Y207.584
Z-5.05
Y199.491
Z-5.186 F333.3
Y192. F800.
G2 X55.34 Y190.245 I-2.925
G3 X55.457 Y189.426 I0.468 J-0.351 F1000.
G1 X55.925 Y189.075
X55.998 Y189.02 Z-5.179
X56.07 Y188.967 Z-5.157
X56.137 Y188.916 Z-5.122
X56.2 Y188.869 Z-5.074
X56.256 Y188.827 Z-5.014
X56.304 Y188.791 Z-4.945
X56.342 Y188.762 Z-4.866
X56.37 Y188.741 Z-4.781
X56.387 Y188.728 Z-4.692
X56.393 Y188.724 Z-4.601
G0 Z5.
X57.095 Y189.66
G1 Z-3.186 F1000.
Z-5.465 F333.3
X57.089 Y189.664 Z-5.557
X57.072 Y189.677 Z-5.646
X57.044 Y189.698 Z-5.731
X57.006 Y189.727 Z-5.809
X56.958 Y189.763 Z-5.879
X56.902 Y189.805 Z-5.938
X56.839 Y189.852 Z-5.986
X56.772 Y189.903 Z-6.021
X56.7 Y189.956 Z-6.043
X56.627 Y190.011 Z-6.05
X56.159 Y190.362 F1000.
G3 X55.34 Y190.245 I-0.351 J-0.468
G2 X53. Y189.075 I-2.34 J1.755 F800.
G1 X31.626
Z-5.05
X23.776
Z-6.05 F333.3
X1. F800.
G2 X-1.925 Y192. J2.925
G1 Y228.732
G2 X9. Y239.657 I10.925
G1 X11.
G3 X16.075 Y244.732 J5.075
G1 Y254.916
G2 X37.925 I10.925
G1 Y244.732
G3 X43. Y239.657 I5.075
G1 X45.
G2 X46.935 Y239.484 J-10.925
G1 Z-5.05
G2 X53.645 Y235.411 I-1.935 J-10.752
G1 Z-6.05 F333.3
G2 X55.925 Y228.732 I-8.645 J-6.679 F800.
G1 Y207.584
Z-5.05
Y199.491
Z-6.05 F333.3
Y192. F800.
G2 X55.34 Y190.245 I-2.925
G3 X55.457 Y189.426 I0.468 J-0.351 F1000.
G1 X55.925 Y189.075
X55.998 Y189.02 Z-6.043
X56.07 Y188.967 Z-6.021
X56.137 Y188.916 Z-5.986
X56.2 Y188.869 Z-5.938
X56.256 Y188.827 Z-5.879
X56.304 Y188.791 Z-5.809
X56.342 Y188.762 Z-5.731
X56.37 Y188.741 Z-5.646
X56.387 Y188.728 Z-5.557
X56.393 Y188.724 Z-5.465
G0 Z5.
X284.415 Y145.68
G1 Z1.136 F1000.
Z-1.144 F333.3
G19 G2 Y145.095 Z-1.729 J-0.585
G1 Y144.51 F1000.
G17 G3 X285. Y143.925 I0.585
G2 X287.925 Y141. J-2.925 F800.
G1 Y111.
G2 X285. Y108.075 I-2.925
G1 X219.212
X205.925 Y94.788
Y1.
G2 X203. Y-1.925 I-2.925
G1 X53.
G2 X50.075 Y1. J2.925
G1 Y94.788
X36.788 Y108.075
X1.
G2 X-1.925 Y111. J2.925
G1 Y141.
G2 X1. Y143.925 I2.925
G1 X285.
G3 X285.585 Y144.51 J0.585 F1000.
G1 Y145.095
G19 G3 Y145.68 Z-1.144 K0.585
G0 Z5.
X284.415
G1 Z0.271 F1000.
Z-2.008 F333.3
G2 Y145.095 Z-2.593 J-0.585
G1 Y144.51 F1000.
G17 G3 X285. Y143.925 I0.585
G2 X287.925 Y141. J-2.925 F800.
G1 Y111.
G2 X285. Y108.075 I-2.925
G1 X219.212
X205.925 Y94.788
Y1.
G2 X203. Y-1.925 I-2.925
G1 X53.
G2 X50.075 Y1. J2.925
G1 Y94.788
X36.788 Y108.075
X1.
G2 X-1.925 Y111. J2.925
G1 Y141.
G2 X1. Y143.925 I2.925
G1 X285.
G3 X285.585 Y144.51 J0.585 F1000.
G1 Y145.095
G19 G3 Y145.68 Z-2.008 K0.585
G0 Z5.
X284.415
G1 Z-0.593 F1000.
Z-2.872 F333.3
G2 Y145.095 Z-3.457 J-0.585
G1 Y144.51 F1000.
G17 G3 X285. Y143.925 I0.585
G2 X287.925 Y141. J-2.925 F800.
G1 Y111.
G2 X285. Y108.075 I-2.925
G1 X219.212
X205.925 Y94.788
Y1.
G2 X203. Y-1.925 I-2.925
G1 X53.
G2 X50.075 Y1. J2.925
G1 Y94.788
X36.788 Y108.075
X1.
G2 X-1.925 Y111. J2.925
G1 Y141.
G2 X1. Y143.925 I2.925
G1 X285.
G3 X285.585 Y144.51 J0.585 F1000.
G1 Y145.095
G19 G3 Y145.68 Z-2.872 K0.585
G0 Z5.
X284.415
G1 Z-1.457 F1000.
Z-3.736 F333.3
G2 Y145.095 Z-4.321 J-0.585
G1 Y144.51 F1000.
G17 G3 X285. Y143.925 I0.585
G2 X287.925 Y141. J-2.925 F800.
G1 Y111.
G2 X285. Y108.075 I-2.925
G1 X219.212
X205.925 Y94.788
Y1.
G2 X203. Y-1.925 I-2.925
G1 X53.
G2 X50.075 Y1. J2.925
G1 Y94.788
X36.788 Y108.075
X1.
G2 X-1.925 Y111. J2.925
G1 Y141.
G2 X1. Y143.925 I2.925
G1 X285.
G3 X285.585 Y144.51 J0.585 F1000.
G1 Y145.095
G19 G3 Y145.68 Z-3.736 K0.585
G0 Z5.
X284.415
G1 Z-2.321 F1000.
Z-4.601 F333.3
G2 Y145.095 Z-5.186 J-0.585
G1 Y144.51 F1000.
G17 G3 X285. Y143.925 I0.585
G2 X287.925 Y141. J-2.925 F800.
G1 Y128.035
Z-5.05
Y120.185
Z-5.186 F333.3
Y111. F800.
G2 X285. Y108.075 I-2.925
G1 X219.212
X205.925 Y94.788
Y43.551
Z-5.05
Y35.701
Z-5.186 F333.3
Y1. F800.
G2 X203. Y-1.925 I-2.925
G1 X163.471
Z-5.05
X155.621
Z-5.186 F333.3
X89.55 F800.
Z-5.05
X81.701
Z-5.186 F333.3
X53. F800.
G2 X50.075 Y1. J2.925
G1 Y34.002
Z-5.05
Y41.852
Z-5.186 F333.3
Y94.788 F800.
X36.788 Y108.075
X1.
G2 X-1.925 Y111. J2.925
G1 Y120.766
Z-5.05
Y128.616
Z-5.186 F333.3
Y141. F800.
G2 X1. Y143.925 I2.925
G1 X68.592
Z-5.05
X76.442
Z-5.186 F333.3
X170.005 F800.
Z-5.05
X178.378
Z-5.186 F333.3
X285. F800.
G3 X285.585 Y144.51 J0.585 F1000.
G1 Y145.095
G19 G3 Y145.68 Z-4.601 K0.585
G0 Z5.
X284.415
G1 Z-3.186 F1000.
Z-5.465 F333.3
G2 Y145.095 Z-6.05 J-0.585
G1 Y144.51 F1000.
G17 G3 X285. Y143.925 I0.585
G2 X287.925 Y141. J-2.925 F800.
G1 Y128.035
Z-5.05
Y120.185
Z-6.05 F333.3
Y111. F800.
G2 X285. Y108.075 I-2.925
G1 X219.212
X205.925 Y94.788
Y43.551
Z-5.05
Y35.701
Z-6.05 F333.3
Y1. F800.
G2 X203. Y-1.925 I-2.925
G1 X163.471
Z-5.05
X155.621
Z-6.05 F333.3
X89.55 F800.
Z-5.05
X81.701
Z-6.05 F333.3
X53. F800.
G2 X50.075 Y1. J2.925
G1 Y34.002
Z-5.05
Y41.852
Z-6.05 F333.3
Y94.788 F800.
X36.788 Y108.075
X1.
G2 X-1.925 Y111. J2.925
G1 Y120.766
Z-5.05
Y128.616
Z-6.05 F333.3
Y141. F800.
G2 X1. Y143.925 I2.925
G1 X68.592
Z-5.05
X76.442
Z-6.05 F333.3
X170.005 F800.
Z-5.05
X178.378
Z-6.05 F333.3
X285. F800.
G3 X285.585 Y144.51 J0.585 F1000.
G1 Y145.095
G19 G3 Y145.68 Z-5.465 K0.585
G0 Z15.
G17
G91
G28 Z0.
M5
G0
G28 X0. Y0.
M30
%
