%
O00001005
(T3  D=5.85 CR=0. - ZMIN=-6.1 - FLAT END MILL)
G90 G94 G17
G21
G91
G28 Z0.
G90
(2D CONTOUR1 (4))
T3 M6
S5000 M3
G54
G0 X289.68 Y110.415
G43 Z15. H3
G0 Z5.
G1 Z1. F1000.
Z-5.515 F333.3
G18 G3 X289.095 Z-6.1 I-0.585
G1 X288.51 F1000.
G17 G2 X287.925 Y111. J0.585
G1 Y120.185 F800.
Z-5.1
Y128.035
Z-6.1 F333.3
Y141. F800.
G3 X285. Y143.925 I-2.925
G1 X178.378
Z-5.1
X170.005
Z-6.1 F333.3
X76.442 F800.
Z-5.1
X68.592
Z-6.1 F333.3
X1. F800.
G3 X-1.925 Y141. J-2.925
G1 Y128.616
Z-5.1
Y120.766
Z-6.1 F333.3
Y111. F800.
G3 X1. Y108.075 I2.925
G1 X36.788
X50.075 Y94.788
Y41.852
Z-5.1
Y34.002
Z-6.1 F333.3
Y1. F800.
G3 X53. Y-1.925 I2.925
G1 X81.701
Z-5.1
X89.55
Z-6.1 F333.3
X155.621 F800.
Z-5.1
X163.471
Z-6.1 F333.3
X203. F800.
G3 X205.925 Y1. J2.925
G1 Y35.701
Z-5.1
Y43.551
Z-6.1 F333.3
Y94.788 F800.
X219.212 Y108.075
X285.
G3 X287.925 Y111. J2.925
G2 X288.51 Y111.585 I0.585 F1000.
G1 X289.095
G18 G2 X289.68 Z-5.515 K0.585
G0 Z5.
X285.68 Y146.415
G1 Z1. F1000.
Z-5.515 F333.3
G3 X285.095 Z-6.1 I-0.585
G1 X284.51 F1000.
G17 G2 X283.925 Y147. J0.585
G1 Y161.744 F800.
Z-5.1
Y169.594
Z-6.1 F333.3
Y182.075 F800.
Z-5.1
Y185.
G3 X281. Y187.925 I-2.925
G1 X277.075
Z-6.1 F333.3
X238.786 F800.
Z-5.1
X230.936
Z-6.1 F333.3
X182.348 F800.
Z-5.1
X174.219
Z-6.1 F333.3
X146.944 F800.
Z-5.1
X138.955
Z-6.1 F333.3
X113.213 F800.
Z-5.1
X105.363
Z-6.1 F333.3
X78.084 F800.
Z-5.1
X70.139
Z-6.1 F333.3
X31.626 F800.
Z-5.1
X23.776
Z-6.1 F333.3
X1. F800.
G3 X-1.925 Y185. J-2.925
G1 Y168.722
Z-5.1
Y160.872
Z-6.1 F333.3
Y147. F800.
G3 X1. Y144.075 I2.925
G1 X68.592
Z-5.1
X76.442
Z-6.1 F333.3
X170.005 F800.
Z-5.1
X178.378
Z-6.1 F333.3
X281. F800.
G3 X283.925 Y147. J2.925
G2 X284.51 Y147.585 I0.585 F1000.
G1 X285.095
G18 G2 X285.68 Z-5.515 K0.585
G0 Z5.
X160.905 Y189.66
G1 Z1. F1000.
Z-5.515 F333.3
X160.911 Y189.664 Z-5.607
X160.928 Y189.677 Z-5.696
X160.956 Y189.698 Z-5.781
X160.994 Y189.727 Z-5.859
X161.042 Y189.763 Z-5.929
X161.098 Y189.805 Z-5.988
X161.161 Y189.852 Z-6.036
X161.228 Y189.903 Z-6.071
X161.3 Y189.956 Z-6.093
X161.373 Y190.011 Z-6.1
X161.841 Y190.362 F1000.
G17 G2 X162.66 Y190.245 I0.351 J-0.468
G3 X165. Y189.075 I2.34 J1.755 F800.
G1 X174.219
Z-5.1
X182.348
Z-6.1 F333.3
X193. F800.
G3 X195.925 Y192. J2.925
G1 Y211.
G3 X195.917 Y211.216 I-2.925
X182.925 Y226.465 I-16.917 J-1.254
G1 Z-5.1
G3 X174.598 Y226.344 I-3.925 J-16.503
G1 Z-6.1 F333.3
G3 X162.083 Y211.216 I4.402 J-16.382 F800.
X162.075 Y211. I2.917 J-0.216
G1 Y205.968
Z-5.1
Y197.612
Z-6.1 F333.3
Y192. F800.
G3 X162.66 Y190.245 I2.925
G2 X162.543 Y189.426 I-0.468 J-0.351 F1000.
G1 X162.075 Y189.075
X162.002 Y189.02 Z-6.093
X161.93 Y188.967 Z-6.071
X161.863 Y188.916 Z-6.036
X161.8 Y188.869 Z-5.988
X161.744 Y188.827 Z-5.929
X161.696 Y188.791 Z-5.859
X161.658 Y188.762 Z-5.781
X161.63 Y188.741 Z-5.696
X161.613 Y188.728 Z-5.607
X161.607 Y188.724 Z-5.515
G0 Z5.
X161.393
G1 Z1. F1000.
Z-5.515 F333.3
X161.387 Y188.728 Z-5.607
X161.37 Y188.741 Z-5.696
X161.342 Y188.762 Z-5.781
X161.304 Y188.791 Z-5.859
X161.256 Y188.827 Z-5.929
X161.2 Y188.869 Z-5.988
X161.137 Y188.916 Z-6.036
X161.07 Y188.967 Z-6.071
X160.998 Y189.02 Z-6.093
X160.925 Y189.075 Z-6.1
X160.457 Y189.426 F1000.
G2 X160.34 Y190.245 I0.351 J0.468
G3 X160.925 Y192. I-2.34 J1.755 F800.
G1 Y197.612
Z-5.1
Y205.968
Z-6.1 F333.3
Y211. F800.
G3 X160.917 Y211.216 I-2.925
X147.925 Y226.465 I-16.917 J-1.254
G1 Z-5.1
G3 X139.66 Y226.361 I-3.925 J-16.503
G1 Z-6.1 F333.3
G3 X127.083 Y211.216 I4.34 J-16.399 F800.
X127.075 Y211. I2.917 J-0.216
G1 Y207.149
Z-5.1
Y199.299
Z-6.1 F333.3
Y192. F800.
G3 X130. Y189.075 I2.925
G1 X138.955
Z-5.1
X146.944
Z-6.1 F333.3
X158. F800.
G3 X160.34 Y190.245 J2.925
G2 X161.159 Y190.362 I0.468 J-0.351 F1000.
G1 X161.627 Y190.011
X161.7 Y189.956 Z-6.093
X161.772 Y189.903 Z-6.071
X161.839 Y189.852 Z-6.036
X161.902 Y189.805 Z-5.988
X161.958 Y189.763 Z-5.929
X162.006 Y189.727 Z-5.859
X162.044 Y189.698 Z-5.781
X162.072 Y189.677 Z-5.696
X162.089 Y189.664 Z-5.607
X162.095 Y189.66 Z-5.515
G0 Z5.
X126.393 Y188.724
G1 Z1. F1000.
Z-5.515 F333.3
X126.387 Y188.728 Z-5.607
X126.37 Y188.741 Z-5.696
X126.342 Y188.762 Z-5.781
X126.304 Y188.791 Z-5.859
X126.256 Y188.827 Z-5.929
X126.2 Y188.869 Z-5.988
X126.137 Y188.916 Z-6.036
X126.07 Y188.967 Z-6.071
X125.998 Y189.02 Z-6.093
X125.925 Y189.075 Z-6.1
X125.457 Y189.426 F1000.
G2 X125.34 Y190.245 I0.351 J0.468
G3 X125.925 Y192. I-2.34 J1.755 F800.
G1 Y199.299
Z-5.1
Y207.149
Z-6.1 F333.3
Y211. F800.
G3 X125.917 Y211.216 I-2.925
X116.075 Y225.379 I-16.917 J-1.254
G1 Z-5.1
G3 X101.925 Y194.545 I-7.075 J-15.417
X116.075 Y225.379 I7.075 J15.417
X104.802 Y226.398 I-7.075 J-15.417
G1 Z-6.1 F333.3
G3 X92.083 Y211.216 I4.198 J-16.436 F800.
X92.075 Y211. I2.917 J-0.216
G1 Y207.486
Z-5.1
Y199.468
Z-6.1 F333.3
Y192. F800.
G3 X95. Y189.075 I2.925
G1 X105.363
Z-5.1
X113.213
Z-6.1 F333.3
X123. F800.
G3 X125.34 Y190.245 J2.925
G2 X126.159 Y190.362 I0.468 J-0.351 F1000.
G1 X126.627 Y190.011
X126.7 Y189.956 Z-6.093
X126.772 Y189.903 Z-6.071
X126.839 Y189.852 Z-6.036
X126.902 Y189.805 Z-5.988
X126.958 Y189.763 Z-5.929
X127.006 Y189.727 Z-5.859
X127.044 Y189.698 Z-5.781
X127.072 Y189.677 Z-5.696
X127.089 Y189.664 Z-5.607
X127.095 Y189.66 Z-5.515
G0 Z5.
X91.393 Y188.724
G1 Z1. F1000.
Z-5.515 F333.3
X91.387 Y188.728 Z-5.607
X91.37 Y188.741 Z-5.696
X91.342 Y188.762 Z-5.781
X91.304 Y188.791 Z-5.859
X91.256 Y188.827 Z-5.929
X91.2 Y188.869 Z-5.988
X91.137 Y188.916 Z-6.036
X91.07 Y188.967 Z-6.071
X90.998 Y189.02 Z-6.093
X90.925 Y189.075 Z-6.1
X90.457 Y189.426 F1000.
G2 X90.34 Y190.245 I0.351 J0.468
G3 X90.925 Y192. I-2.34 J1.755 F800.
G1 Y199.468
Z-5.1
Y207.486
Z-6.1 F333.3
Y211. F800.
G3 X90.917 Y211.216 I-2.925
X77.189 Y226.623 I-16.917 J-1.254
G1 Z-5.1
G3 X69.004 Y226.173 I-3.189 J-16.661
G1 Z-6.1 F333.3
G3 X57.083 Y211.216 I4.996 J-16.211 F800.
X57.075 Y211. I2.917 J-0.216
G1 Y207.584
Z-5.1
Y199.491
Z-6.1 F333.3
Y192. F800.
G3 X60. Y189.075 I2.925
G1 X70.139
Z-5.1
X78.084
Z-6.1 F333.3
X88. F800.
G3 X90.34 Y190.245 J2.925
G2 X91.159 Y190.362 I0.468 J-0.351 F1000.
G1 X91.627 Y190.011
X91.7 Y189.956 Z-6.093
X91.772 Y189.903 Z-6.071
X91.839 Y189.852 Z-6.036
X91.902 Y189.805 Z-5.988
X91.958 Y189.763 Z-5.929
X92.006 Y189.727 Z-5.859
X92.044 Y189.698 Z-5.781
X92.072 Y189.677 Z-5.696
X92.089 Y189.664 Z-5.607
X92.095 Y189.66 Z-5.515
G0 Z5.
X56.393 Y188.724
G1 Z1. F1000.
Z-5.515 F333.3
X56.387 Y188.728 Z-5.607
X56.37 Y188.741 Z-5.696
X56.342 Y188.762 Z-5.781
X56.304 Y188.791 Z-5.859
X56.256 Y188.827 Z-5.929
X56.2 Y188.869 Z-5.988
X56.137 Y188.916 Z-6.036
X56.07 Y188.967 Z-6.071
X55.998 Y189.02 Z-6.093
X55.925 Y189.075 Z-6.1
X55.457 Y189.426 F1000.
G2 X55.34 Y190.245 I0.351 J0.468
G3 X55.925 Y192. I-2.34 J1.755 F800.
G1 Y199.491
Z-5.1
Y207.584
Z-6.1 F333.3
Y228.732 F800.
G3 X53.645 Y235.411 I-10.925
G1 Z-5.1
G3 X46.935 Y239.484 I-8.645 J-6.679
G1 Z-6.1 F333.3
G3 X45. Y239.657 I-1.935 J-10.752 F800.
G1 X43.
G2 X37.925 Y244.732 J5.075
G1 Y254.916
G3 X16.075 I-10.925
G1 Y244.732
G2 X11. Y239.657 I-5.075
G1 X9.
G3 X-1.925 Y228.732 J-10.925
G1 Y192.
G3 X1. Y189.075 I2.925
G1 X23.776
Z-5.1
X31.626
Z-6.1 F333.3
X53. F800.
G3 X55.34 Y190.245 J2.925
G2 X56.159 Y190.362 I0.468 J-0.351 F1000.
G1 X56.627 Y190.011
X56.7 Y189.956 Z-6.093
X56.772 Y189.903 Z-6.071
X56.839 Y189.852 Z-6.036
X56.902 Y189.805 Z-5.988
X56.958 Y189.763 Z-5.929
X57.006 Y189.727 Z-5.859
X57.044 Y189.698 Z-5.781
X57.072 Y189.677 Z-5.696
X57.089 Y189.664 Z-5.607
X57.095 Y189.66 Z-5.515
G0 Z15.
G91
G28 Z0.
M5
G28 X0. Y0.
M30
%
