%
O00001006
(T2  D=2. CR=0. - ZMIN=-3. - FLAT END MILL)
G90 G94 G17
G21
G91
G28 Z0.
G90
(2D POCKET2)
T2 M6
S8000 M3
G54
G0 X-1.094 Y221.584
G43 Z15. H2
G0 Z5.
G1 Z2. F1500.
Z-0.96
X-1.092 Y221.579 Z-0.98
X-1.088 Y221.565 Z-0.995
X-1.081 Y221.546 Z-1.
G3 X-0.891 Y221.408 I0.19 J0.062
G1 X55.435 F800.
Y222.508
X-0.89
X55.435 Z-1.495 F1500.
Y221.408 Z-1.505
X-0.891 Z-2.
X55.435 F800.
Y222.508
X-0.89
X55.435 Z-2.495 F1500.
Y221.408 Z-2.505
X-0.891 Z-3.
X55.435 F800.
Y222.508
X-0.89
G3 X-0.922 Y222.506 J-0.2 F1500.
G1 X-1.909 Y222.349
X-1.961 Y222.341 Z-2.993
X-2.008 Y222.333 Z-2.973
X-2.049 Y222.327 Z-2.941
X-2.08 Y222.322 Z-2.9
X-2.1 Y222.319 Z-2.852
X-2.107 Y222.318 Z-2.8
G0 Z15.
(2D POCKET2 (2))
G0 X26.855 Y255.766
Z15.
Z5.
G1 Z2.7 F1500.
G3 X26.831 Y255.778 Z2.602 I-0.423 J-0.85
X26.767 Y255.805 Z2.529 I-0.4 J-0.862
X26.674 Y255.834 Z2.5 I-0.335 J-0.889
X26.188 Y253.998 Z2.396 I-0.243 J-0.918
X26.674 Y255.834 Z2.292 I0.243 J0.918
X26.188 Y253.998 Z2.187 I-0.243 J-0.918
X26.674 Y255.834 Z2.083 I0.243 J0.918
X26.188 Y253.998 Z1.979 I-0.243 J-0.918
X26.674 Y255.834 Z1.875 I0.243 J0.918
X26.188 Y253.998 Z1.77 I-0.243 J-0.918
X26.674 Y255.834 Z1.666 I0.243 J0.918
X26.188 Y253.998 Z1.562 I-0.243 J-0.918
X26.674 Y255.834 Z1.458 I0.243 J0.918
X26.188 Y253.998 Z1.354 I-0.243 J-0.918
X26.674 Y255.834 Z1.249 I0.243 J0.918
X26.188 Y253.998 Z1.145 I-0.243 J-0.918
X26.674 Y255.834 Z1.041 I0.243 J0.918
X26.188 Y253.998 Z0.937 I-0.243 J-0.918
X26.674 Y255.834 Z0.832 I0.243 J0.918
X26.188 Y253.998 Z0.728 I-0.243 J-0.918
X26.674 Y255.834 Z0.624 I0.243 J0.918
X26.188 Y253.998 Z0.52 I-0.243 J-0.918
X26.674 Y255.834 Z0.416 I0.243 J0.918
X26.188 Y253.998 Z0.311 I-0.243 J-0.918
X26.674 Y255.834 Z0.207 I0.243 J0.918
X26.188 Y253.998 Z0.103 I-0.243 J-0.918
X26.674 Y255.834 Z-0.001 I0.243 J0.918
X26.188 Y253.998 Z-0.106 I-0.243 J-0.918
X26.674 Y255.834 Z-0.21 I0.243 J0.918
X26.188 Y253.998 Z-0.314 I-0.243 J-0.918
X26.674 Y255.834 Z-0.418 I0.243 J0.918
X26.188 Y253.998 Z-0.522 I-0.243 J-0.918
X26.674 Y255.834 Z-0.627 I0.243 J0.918
X26.188 Y253.998 Z-0.731 I-0.243 J-0.918
X26.674 Y255.834 Z-0.835 I0.243 J0.918
X26.188 Y253.998 Z-0.939 I-0.243 J-0.918
X27.381 Y254.916 Z-1. I0.243 J0.918
X26.619 I-0.381 F800.
G2 X26.596 Y253.271 I-60.177
G3 X26.574 Y251.625 I60.154 J-1.645
X26.893 Y251.306 I0.319
G1 X27.107
G3 X27.426 Y251.625 J0.319
X27.404 Y253.271 I-60.177
G2 X27.381 Y254.916 I60.154 J1.645
X27.651 Y255.426 I0.617
G3 X27.631 Y256.003 I-0.192 J0.282
X25.743 Y254.916 I-0.631 J-1.087
G1 X25.698 Y250.75
G3 X26.018 Y250.43 I0.319
G1 X27.982
G3 X28.302 Y250.75 J0.319
X28.279 Y252.833 I-96.448
G2 X28.257 Y254.916 I96.425 J2.083
G3 X27.631 Y256.003 I-1.257
G2 X27.06 Y256.961 I0.576 J0.993
G3 X26.15 Y257.606 I-0.699 J-0.021
X24.179 Y254.916 I0.85 J-2.69
G1 X24.134 Y249.185
G3 X24.453 Y248.866 I0.319
G1 X29.547
G3 X29.866 Y249.185 J0.319
X29.844 Y252.051 I-182.467
G2 X29.821 Y254.916 I182.444 J2.865
G3 X26.15 Y257.606 I-2.821
G2 X24.956 Y257.886 I-0.362 J1.145
G3 X23.731 Y257.84 I-0.59 J-0.614
X22.614 Y254.916 I3.269 J-2.924
G1 X22.569 Y247.621
G3 X22.889 Y247.301 I0.319
G1 X31.111
G3 X31.431 Y247.621 J0.319
X31.408 Y251.268 I-295.679
G2 X31.386 Y254.916 I295.657 J3.648
G3 X23.731 Y257.84 I-4.386
G2 X22.473 Y257.461 I-0.939 J0.839
G3 X21.316 Y256.838 I-0.244 J-0.932
X21. Y254.916 I5.684 J-1.922
G1 Y246.232
G3 X21.5 Y245.732 I0.5
G1 X32.5
G3 X33. Y246.232 J0.5
G1 Y254.916
G3 X21.316 Y256.838 I-6.
X21.435 Y256.587 I0.189 J-0.064
G1 X25.971 Y254.872
G2 X26.092 Y254.626 I-0.071 J-0.187
G3 X27.908 Y254.068 Z-1.104 I0.908 J-0.279 F1500.
X26.092 Y254.626 Z-1.208 I-0.908 J0.279
X27.908 Y254.068 Z-1.313 I0.908 J-0.279
X26.092 Y254.626 Z-1.417 I-0.908 J0.279
X27.908 Y254.068 Z-1.521 I0.908 J-0.279
X26.092 Y254.626 Z-1.625 I-0.908 J0.279
X27.908 Y254.068 Z-1.73 I0.908 J-0.279
X26.092 Y254.626 Z-1.834 I-0.908 J0.279
X27.908 Y254.068 Z-1.938 I0.908 J-0.279
X27. Y255.297 Z-2. I-0.908 J0.279
X26.619 Y254.916 J-0.381 F800.
G2 X26.596 Y253.271 I-60.177
G3 X26.574 Y251.625 I60.154 J-1.645
X26.893 Y251.306 I0.319
G1 X27.107
G3 X27.426 Y251.625 J0.319
X27.404 Y253.271 I-60.177
G2 X27.381 Y254.916 I60.154 J1.645
G3 X27. Y255.297 I-0.381
G2 X26.49 Y255.567 J0.617
G3 X25.913 Y255.547 I-0.282 J-0.192
X25.743 Y254.916 I1.087 J-0.631
G1 X25.698 Y250.75
G3 X26.018 Y250.43 I0.319
G1 X27.982
G3 X28.302 Y250.75 J0.319
X28.279 Y252.833 I-96.448
G2 X28.257 Y254.916 I96.425 J2.083
G3 X25.913 Y255.547 I-1.257
G2 X24.945 Y254.913 I-1.115 J0.647
G3 X24.172 Y254.053 I0.1 J-0.867
G1 X24.134 Y249.185
G3 X24.453 Y248.866 I0.319
G1 X29.547
G3 X29.866 Y249.185 J0.319
X29.844 Y252.051 I-182.467
G2 X29.821 Y254.916 I182.444 J2.865
G3 X24.179 I-2.821
G1 X24.172 Y254.053
G2 X23.383 Y252.887 I-1.271 J0.01
G3 X22.595 Y251.721 I0.479 J-1.174
G1 X22.569 Y247.621
G3 X22.889 Y247.301 I0.319
G1 X31.111
G3 X31.431 Y247.621 J0.319
X31.408 Y251.268 I-295.679
G2 X31.386 Y254.916 I295.657 J3.648
G3 X22.614 I-4.386
G1 X22.595 Y251.721
G2 X21.797 Y250.53 I-1.3 J0.008
G3 X21. Y249.338 I0.491 J-1.191
G1 Y246.232
G3 X21.5 Y245.732 I0.5
G1 X32.5
G3 X33. Y246.232 J0.5
G1 Y254.916
G3 X21. I-6.
G1 Y249.338
G3 X21.024 Y249.242 Z-1.973 I0.2 F1500.
X21.07 Y249.186 Z-1.9 I0.176 J0.096
X21.092 Y249.17 Z-1.8 I0.13 J0.152
G0 Z15.
G91
G28 Z0.
M5
G28 X0. Y0.
M30
%
