%
O00001001
(T3  D=5.85 CR=0. - ZMIN=-5. - FLAT END MILL)
G90 G94 G17
G21
G91
G28 Z0.
G90
(2D POCKET1)
T3 M6
S5000 M3
G54
G0 X-301.92 Y26.953
G43 Z15. H3
G0 Z5.
G1 Z3.083 F1000.
G3 X-301.897 Y26.942 Z2.912 I1.213 J2.5 F333.3
X-301.829 Y26.911 Z2.756 I1.19 J2.511
X-301.722 Y26.866 Z2.628 I1.122 J2.542
X-301.582 Y26.816 Z2.54 I1.015 J2.587
X-301.42 Y26.768 Z2.5 I0.875 J2.638
X-299.993 Y32.139 Z1.736 I0.713 J2.686
X-301.42 Y26.768 Z0.972 I-0.713 J-2.686
X-299.993 Y32.139 Z0.209 I0.713 J2.686
X-301.42 Y26.768 Z-0.555 I-0.713 J-2.686
X-297.928 Y29.453 Z-1. I0.713 J2.686
X-302.517 I-2.295
X-297.925 I2.296 F1000.
X-308.075 I-5.075
X-297.925 I5.075
X-298.081 Y29.712 I-0.293
G1 X-301.972 Y31.765
G3 X-302.274 Y31.748 I-0.137 J-0.259
X-299.14 Y27.158 Z-1.764 I1.567 J-2.295 F333.3
X-297.928 Y29.453 Z-2. I-1.567 J2.295
X-302.517 I-2.295
X-297.925 I2.296 F1000.
X-308.075 I-5.075
X-297.925 I5.075
X-298.081 Y29.712 I-0.293
G1 X-301.972 Y31.765
G3 X-302.274 Y31.748 I-0.137 J-0.259
X-299.14 Y27.158 Z-2.764 I1.567 J-2.295 F333.3
X-297.928 Y29.453 Z-3. I-1.567 J2.295
X-302.517 I-2.295
X-297.925 I2.296 F1000.
X-308.075 I-5.075
X-297.925 I5.075
X-298.081 Y29.712 I-0.293
G1 X-301.972 Y31.765
G3 X-302.274 Y31.748 I-0.137 J-0.259
X-299.14 Y27.158 Z-3.764 I1.567 J-2.295 F333.3
X-297.928 Y29.453 Z-4. I-1.567 J2.295
X-302.517 I-2.295
X-297.925 I2.296 F1000.
X-308.075 I-5.075
X-297.925 I5.075
X-298.081 Y29.712 I-0.293
G1 X-301.972 Y31.765
G3 X-302.274 Y31.748 I-0.137 J-0.259
X-299.14 Y27.158 Z-4.764 I1.567 J-2.295 F333.3
X-297.928 Y29.453 Z-5. I-1.567 J2.295
X-302.517 I-2.295
X-297.925 I2.296 F1000.
X-308.075 I-5.075
X-297.925 I5.075
X-297.953 Y29.631 Z-4.971 I-0.585
X-298.023 Y29.778 Z-4.888 I-0.557 J-0.178
X-298.106 Y29.877 Z-4.759 I-0.487 J-0.324
X-298.17 Y29.929 Z-4.596 I-0.404 J-0.423
X-298.194 Y29.945 Z-4.415 I-0.34 J-0.476
G0 Z15.
G91
G28 Z0.
M5
G28 X0. Y0.
M30
%
