%
O00001002
(T3  D=5.85 CR=0. - ZMIN=-8.1 - FLAT END MILL)
G90 G94 G17
G21
G91
G28 Z0.
G90
(2D POCKET1 (2))
T3 M6
S5000 M3
G54
G0 X-302.948 Y26.953
G43 Z15. H3
G0 Z5.
G1 Z3.083 F1000.
G3 X-302.925 Y26.942 Z2.912 I1.213 J2.5 F333.3
X-302.857 Y26.911 Z2.756 I1.19 J2.511
X-302.75 Y26.866 Z2.628 I1.122 J2.542
X-302.609 Y26.816 Z2.54 I1.015 J2.587
X-302.448 Y26.768 Z2.5 I0.875 J2.638
X-298.956 Y29.453 Z2.055 I0.713 J2.686
X-303.402 Y31.676 Z1.517 I-2.779
Y27.23 Z1.066 I1.667 J-2.223
X-298.956 Y29.453 Z0.527 I1.667 J2.223
X-303.402 Y31.676 Z-0.011 I-2.779
Y27.23 Z-0.462 I1.667 J-2.223
X-298.956 Y29.453 Z-1. I1.667 J2.223
X-301.517 I-1.281
X-298.925 I1.296 F1000.
X-307.075 I-4.075
X-298.925 I4.075
X-299.082 Y29.712 I-0.293
G1 X-303.001 Y31.766
G3 X-303.302 Y31.748 I-0.136 J-0.259
X-303.402 Y27.23 Z-1.462 I1.567 J-2.295 F333.3
X-298.956 Y29.453 Z-2. I1.667 J2.223
X-301.517 I-1.281
X-298.925 I1.296 F1000.
X-307.075 I-4.075
X-298.925 I4.075
X-299.082 Y29.712 I-0.293
G1 X-303.001 Y31.766
G3 X-303.302 Y31.748 I-0.136 J-0.259
X-303.402 Y27.23 Z-2.462 I1.567 J-2.295 F333.3
X-298.956 Y29.453 Z-3. I1.667 J2.223
X-301.517 I-1.281
X-298.925 I1.296 F1000.
X-307.075 I-4.075
X-298.925 I4.075
X-299.082 Y29.712 I-0.293
G1 X-303.001 Y31.766
G3 X-303.302 Y31.748 I-0.136 J-0.259
X-303.402 Y27.23 Z-3.462 I1.567 J-2.295 F333.3
X-298.956 Y29.453 Z-4. I1.667 J2.223
X-301.517 I-1.281
X-298.925 I1.296 F1000.
X-307.075 I-4.075
X-298.925 I4.075
X-299.082 Y29.712 I-0.293
G1 X-303.001 Y31.766
G3 X-303.302 Y31.748 I-0.136 J-0.259
X-303.402 Y27.23 Z-4.462 I1.567 J-2.295 F333.3
X-298.956 Y29.453 Z-5. I1.667 J2.223
X-301.517 I-1.281
X-298.925 I1.296 F1000.
X-307.075 I-4.075
X-298.925 I4.075
X-299.082 Y29.712 I-0.293
G1 X-303.001 Y31.766
G3 X-303.302 Y31.748 I-0.136 J-0.259
X-303.402 Y27.23 Z-5.462 I1.567 J-2.295 F333.3
X-298.956 Y29.453 Z-6. I1.667 J2.223
X-301.517 I-1.281
X-298.925 I1.296 F1000.
X-307.075 I-4.075
X-298.925 I4.075
X-299.082 Y29.712 I-0.293
G1 X-303.001 Y31.766
G3 X-303.302 Y31.748 I-0.136 J-0.259
X-303.402 Y27.23 Z-6.462 I1.567 J-2.295 F333.3
X-298.956 Y29.453 Z-7. I1.667 J2.223
X-301.517 I-1.281
X-298.925 I1.296 F1000.
X-307.075 I-4.075
X-298.925 I4.075
X-299.341 Y29.718 I-0.293
G1 X-303.444 Y27.803
G3 X-303.507 Y27.313 I0.124 J-0.265
X-298.956 Y29.453 Z-7.55 I1.772 J2.14 F333.3
X-301.517 I-1.281
X-298.925 I1.296 F1000.
X-307.075 I-4.075
X-298.925 I4.075
X-299.341 Y29.718 I-0.293
G1 X-303.444 Y27.803
G3 X-303.507 Y27.313 I0.124 J-0.265
X-298.956 Y29.453 Z-8.1 I1.772 J2.14 F333.3
X-301.517 I-1.281
X-298.925 I1.296 F1000.
X-307.075 I-4.075
X-298.925 I4.075
X-298.953 Y29.631 Z-8.071 I-0.585
X-299.023 Y29.778 Z-7.988 I-0.557 J-0.178
X-299.106 Y29.877 Z-7.859 I-0.487 J-0.324
X-299.17 Y29.929 Z-7.696 I-0.404 J-0.423
X-299.194 Y29.945 Z-7.515 I-0.34 J-0.476
G0 Z5.
X-12.432 Y72.5
G1 Z3.083 F1000.
G3 X-12.409 Y72.489 Z2.912 I1.213 J2.5 F333.3
X-12.341 Y72.458 Z2.756 I1.19 J2.511
X-12.234 Y72.413 Z2.628 I1.123 J2.542
X-12.093 Y72.362 Z2.54 I1.015 J2.587
X-11.932 Y72.314 Z2.5 I0.875 J2.638
X-10.505 Y77.686 Z1.736 I0.713 J2.686
X-11.932 Y72.314 Z0.973 I-0.713 J-2.686
X-10.505 Y77.686 Z0.209 I0.713 J2.686
X-11.932 Y72.314 Z-0.555 I-0.713 J-2.686
X-8.44 Y75. Z-1. I0.713 J2.686
X-11.001 I-1.281
X-8.409 I1.296 F1000.
X-16.559 I-4.075
X-8.409 I4.075
X-8.566 Y75.259 I-0.293
G1 X-12.485 Y77.312
G3 X-12.786 Y77.295 I-0.136 J-0.259
X-9.652 Y72.705 Z-1.764 I1.567 J-2.295 F333.3
X-8.44 Y75. Z-2. I-1.567 J2.295
X-11.001 I-1.281
X-8.409 I1.296 F1000.
X-16.559 I-4.075
X-8.409 I4.075
X-8.566 Y75.259 I-0.293
G1 X-12.485 Y77.312
G3 X-12.786 Y77.295 I-0.136 J-0.259
X-9.652 Y72.705 Z-2.764 I1.567 J-2.295 F333.3
X-8.44 Y75. Z-3. I-1.567 J2.295
X-11.001 I-1.281
X-8.409 I1.296 F1000.
X-16.559 I-4.075
X-8.409 I4.075
X-8.566 Y75.259 I-0.293
G1 X-12.485 Y77.312
G3 X-12.786 Y77.295 I-0.136 J-0.259
X-9.652 Y72.705 Z-3.764 I1.567 J-2.295 F333.3
X-8.44 Y75. Z-4. I-1.567 J2.295
X-11.001 I-1.281
X-8.409 I1.296 F1000.
X-16.559 I-4.075
X-8.409 I4.075
X-8.566 Y75.259 I-0.293
G1 X-12.485 Y77.312
G3 X-12.786 Y77.295 I-0.136 J-0.259
X-9.652 Y72.705 Z-4.764 I1.567 J-2.295 F333.3
X-8.44 Y75. Z-5. I-1.567 J2.295
X-11.001 I-1.281
X-8.409 I1.296 F1000.
X-16.559 I-4.075
X-8.409 I4.075
X-8.566 Y75.259 I-0.293
G1 X-12.485 Y77.312
G3 X-12.786 Y77.295 I-0.136 J-0.259
X-9.652 Y72.705 Z-5.764 I1.567 J-2.295 F333.3
X-8.44 Y75. Z-6. I-1.567 J2.295
X-11.001 I-1.281
X-8.409 I1.296 F1000.
X-16.559 I-4.075
X-8.409 I4.075
X-8.566 Y75.259 I-0.293
G1 X-12.485 Y77.312
G3 X-12.786 Y77.295 I-0.136 J-0.259
X-9.652 Y72.705 Z-6.764 I1.567 J-2.295 F333.3
X-8.44 Y75. Z-7. I-1.567 J2.295
X-11.001 I-1.281
X-8.409 I1.296 F1000.
X-16.559 I-4.075
X-8.409 I4.075
X-8.825 Y75.265 I-0.293
G1 X-12.928 Y73.35
G3 X-12.991 Y72.86 I0.124 J-0.265
X-8.44 Y75. Z-7.55 I1.772 J2.14 F333.3
X-11.001 I-1.281
X-8.409 I1.296 F1000.
X-16.559 I-4.075
X-8.409 I4.075
X-8.825 Y75.265 I-0.293
G1 X-12.928 Y73.35
G3 X-12.991 Y72.86 I0.124 J-0.265
X-8.44 Y75. Z-8.1 I1.772 J2.14 F333.3
X-11.001 I-1.281
X-8.409 I1.296 F1000.
X-16.559 I-4.075
X-8.409 I4.075
X-8.437 Y75.178 Z-8.071 I-0.585
X-8.507 Y75.324 Z-7.988 I-0.557 J-0.178
X-8.59 Y75.423 Z-7.859 I-0.487 J-0.324
X-8.654 Y75.476 Z-7.696 I-0.404 J-0.423
X-8.678 Y75.492 Z-7.515 I-0.34 J-0.476
G0 Z15.
G91
G28 Z0.
M5
G28 X0. Y0.
M30
%
