%
O00001004
(T2  D=3. CR=0. TAPER=118DEG - ZMIN=-8. - DRILL)
G90 G94 G17
G21
G91
G28 Z0.
G90
(DRILL1)
T2 M6
S5000 M3
G54
G0 X-268. Y7.5
G43 Z15. H2
G0 Z5.
G98 G81 X-268. Y7.5 Z-8. R5. F80.
X-297. Y14.453
X-309.
Y44.453
X-297.
X-268. Y50.5
X-228.829 Y63.3
X-211.829
X-194.829
X-180.715
X-163.715
X-146.715
X-18.484 Y106.5
Y90.5
X-7.734 Y83.227
X-21.984 Y75.
X-7.734 Y66.773
X-20. Y50.5
Y7.5
G80
Z15.
G91
G28 Z0.
M5
G28 X0. Y0.
M30
%
