%
O00001005
(T3  D=5.85 CR=0. - ZMIN=-8.1 - FLAT END MILL)
G90 G94 G17
G21
G91
G28 Z0.
G90
(2D CONTOUR2)
T3 M6
S5000 M3
G54
G0 X-188.357 Y58.68
G43 Z15. H3
G0 Z5.
G1 Z2. F1000.
Z-0.315 F333.3
G19 G2 Y58.095 Z-0.9 J-0.585
G1 Y57.51 F1000.
G17 G3 X-187.772 Y56.925 I0.585
G1 X-35.212
X-34.068 Y58.068
G2 X-32. Y58.925 I2.068 J-2.068
G1 X-2.
G2 X0.925 Y56. J-2.925
G1 Y2.
G2 X-2. Y-0.925 I-2.925
G1 X-32.
G2 X-34.068 Y-0.068 J2.925
G1 X-35.212 Y1.075
X-252.788
X-253.932 Y-0.068
G2 X-256. Y-0.925 I-2.068 J2.068
G1 X-286.
G2 X-288.925 Y2. J2.925
G1 Y56.
G2 X-286. Y58.925 I2.925
G1 X-256.
G2 X-253.932 Y58.068 J-2.925
G1 X-252.788 Y56.925
X-187.772
G3 X-187.187 Y57.51 J0.585
G1 Y58.095
G19 G3 Y58.68 Z-0.315 K0.585
G0 Z5.
X-187.662 Y57.919
G1 Z2. F1000.
Z-0.315 F333.3
X-187.656 Y57.922 Z-0.407
X-187.637 Y57.931 Z-0.496
X-187.605 Y57.947 Z-0.581
X-187.562 Y57.968 Z-0.659
X-187.508 Y57.994 Z-0.729
X-187.446 Y58.024 Z-0.788
X-187.375 Y58.059 Z-0.836
X-187.299 Y58.096 Z-0.871
X-187.219 Y58.135 Z-0.893
X-187.137 Y58.176 Z-0.9
X-186.611 Y58.433 F1000.
G17 G3 X-186.343 Y59.215 I-0.257 J0.526
G2 X-186.64 Y60.5 I2.628 J1.285
G1 Y67.5
G2 X-183.715 Y70.425 I2.925
G1 X-143.715
G2 X-140.79 Y67.5 J-2.925
G1 Y60.5
G2 X-143.715 Y57.575 I-2.925
G1 X-183.715
G2 X-186.343 Y59.215 J2.925
G3 X-187.125 Y59.484 I-0.526 J-0.257
G1 X-187.651 Y59.227
X-187.733 Y59.186 Z-0.893
X-187.813 Y59.147 Z-0.871
X-187.889 Y59.11 Z-0.836
X-187.96 Y59.076 Z-0.788
X-188.022 Y59.045 Z-0.729
X-188.076 Y59.019 Z-0.659
X-188.119 Y58.998 Z-0.581
X-188.151 Y58.982 Z-0.496
X-188.17 Y58.973 Z-0.407
X-188.176 Y58.97 Z-0.315
G0 Z5.
X-187.368
G1 Z2. F1000.
Z-0.315 F333.3
X-187.374 Y58.973 Z-0.407
X-187.393 Y58.982 Z-0.496
X-187.425 Y58.998 Z-0.581
X-187.468 Y59.019 Z-0.659
X-187.522 Y59.045 Z-0.729
X-187.584 Y59.076 Z-0.788
X-187.655 Y59.11 Z-0.836
X-187.731 Y59.147 Z-0.871
X-187.811 Y59.186 Z-0.893
X-187.893 Y59.227 Z-0.9
X-188.419 Y59.484 F1000.
G3 X-189.201 Y59.215 I-0.257 J-0.526
G2 X-191.829 Y57.575 I-2.628 J1.285
G1 X-231.829
G2 X-234.754 Y60.5 J2.925
G1 Y67.5
G2 X-231.829 Y70.425 I2.925
G1 X-191.829
G2 X-188.904 Y67.5 J-2.925
G1 Y60.5
G2 X-189.201 Y59.215 I-2.925
G3 X-188.933 Y58.433 I0.526 J-0.257
G1 X-188.407 Y58.176
X-188.325 Y58.135 Z-0.893
X-188.245 Y58.096 Z-0.871
X-188.169 Y58.059 Z-0.836
X-188.098 Y58.024 Z-0.788
X-188.036 Y57.994 Z-0.729
X-187.982 Y57.968 Z-0.659
X-187.939 Y57.947 Z-0.581
X-187.907 Y57.931 Z-0.496
X-187.888 Y57.922 Z-0.407
X-187.882 Y57.919 Z-0.315
G0 Z5.
X-188.357 Y58.68
G1 Z1.1 F1000.
Z-1.215 F333.3
G19 G2 Y58.095 Z-1.8 J-0.585
G1 Y57.51 F1000.
G17 G3 X-187.772 Y56.925 I0.585
G1 X-35.212
X-34.068 Y58.068
G2 X-32. Y58.925 I2.068 J-2.068
G1 X-2.
G2 X0.925 Y56. J-2.925
G1 Y2.
G2 X-2. Y-0.925 I-2.925
G1 X-32.
G2 X-34.068 Y-0.068 J2.925
G1 X-35.212 Y1.075
X-252.788
X-253.932 Y-0.068
G2 X-256. Y-0.925 I-2.068 J2.068
G1 X-286.
G2 X-288.925 Y2. J2.925
G1 Y56.
G2 X-286. Y58.925 I2.925
G1 X-256.
G2 X-253.932 Y58.068 J-2.925
G1 X-252.788 Y56.925
X-187.772
G3 X-187.187 Y57.51 J0.585
G1 Y58.095
G19 G3 Y58.68 Z-1.215 K0.585
G0 Z5.
X-187.662 Y57.919
G1 Z1.1 F1000.
Z-1.215 F333.3
X-187.656 Y57.922 Z-1.307
X-187.637 Y57.931 Z-1.396
X-187.605 Y57.947 Z-1.481
X-187.562 Y57.968 Z-1.559
X-187.508 Y57.994 Z-1.629
X-187.446 Y58.024 Z-1.688
X-187.375 Y58.059 Z-1.736
X-187.299 Y58.096 Z-1.771
X-187.219 Y58.135 Z-1.793
X-187.137 Y58.176 Z-1.8
X-186.611 Y58.433 F1000.
G17 G3 X-186.343 Y59.215 I-0.257 J0.526
G2 X-186.64 Y60.5 I2.628 J1.285
G1 Y67.5
G2 X-183.715 Y70.425 I2.925
G1 X-143.715
G2 X-140.79 Y67.5 J-2.925
G1 Y60.5
G2 X-143.715 Y57.575 I-2.925
G1 X-183.715
G2 X-186.343 Y59.215 J2.925
G3 X-187.125 Y59.484 I-0.526 J-0.257
G1 X-187.651 Y59.227
X-187.733 Y59.186 Z-1.793
X-187.813 Y59.147 Z-1.771
X-187.889 Y59.11 Z-1.736
X-187.96 Y59.076 Z-1.688
X-188.022 Y59.045 Z-1.629
X-188.076 Y59.019 Z-1.559
X-188.119 Y58.998 Z-1.481
X-188.151 Y58.982 Z-1.396
X-188.17 Y58.973 Z-1.307
X-188.176 Y58.97 Z-1.215
G0 Z5.
X-187.368
G1 Z1.1 F1000.
Z-1.215 F333.3
X-187.374 Y58.973 Z-1.307
X-187.393 Y58.982 Z-1.396
X-187.425 Y58.998 Z-1.481
X-187.468 Y59.019 Z-1.559
X-187.522 Y59.045 Z-1.629
X-187.584 Y59.076 Z-1.688
X-187.655 Y59.11 Z-1.736
X-187.731 Y59.147 Z-1.771
X-187.811 Y59.186 Z-1.793
X-187.893 Y59.227 Z-1.8
X-188.419 Y59.484 F1000.
G3 X-189.201 Y59.215 I-0.257 J-0.526
G2 X-191.829 Y57.575 I-2.628 J1.285
G1 X-231.829
G2 X-234.754 Y60.5 J2.925
G1 Y67.5
G2 X-231.829 Y70.425 I2.925
G1 X-191.829
G2 X-188.904 Y67.5 J-2.925
G1 Y60.5
G2 X-189.201 Y59.215 I-2.925
G3 X-188.933 Y58.433 I0.526 J-0.257
G1 X-188.407 Y58.176
X-188.325 Y58.135 Z-1.793
X-188.245 Y58.096 Z-1.771
X-188.169 Y58.059 Z-1.736
X-188.098 Y58.024 Z-1.688
X-188.036 Y57.994 Z-1.629
X-187.982 Y57.968 Z-1.559
X-187.939 Y57.947 Z-1.481
X-187.907 Y57.931 Z-1.396
X-187.888 Y57.922 Z-1.307
X-187.882 Y57.919 Z-1.215
G0 Z5.
X-188.357 Y58.68
G1 Z0.2 F1000.
Z-2.115 F333.3
G19 G2 Y58.095 Z-2.7 J-0.585
G1 Y57.51 F1000.
G17 G3 X-187.772 Y56.925 I0.585
G1 X-35.212
X-34.068 Y58.068
G2 X-32. Y58.925 I2.068 J-2.068
G1 X-2.
G2 X0.925 Y56. J-2.925
G1 Y2.
G2 X-2. Y-0.925 I-2.925
G1 X-32.
G2 X-34.068 Y-0.068 J2.925
G1 X-35.212 Y1.075
X-252.788
X-253.932 Y-0.068
G2 X-256. Y-0.925 I-2.068 J2.068
G1 X-286.
G2 X-288.925 Y2. J2.925
G1 Y56.
G2 X-286. Y58.925 I2.925
G1 X-256.
G2 X-253.932 Y58.068 J-2.925
G1 X-252.788 Y56.925
X-187.772
G3 X-187.187 Y57.51 J0.585
G1 Y58.095
G19 G3 Y58.68 Z-2.115 K0.585
G0 Z5.
X-187.662 Y57.919
G1 Z0.2 F1000.
Z-2.115 F333.3
X-187.656 Y57.922 Z-2.207
X-187.637 Y57.931 Z-2.296
X-187.605 Y57.947 Z-2.381
X-187.562 Y57.968 Z-2.459
X-187.508 Y57.994 Z-2.529
X-187.446 Y58.024 Z-2.588
X-187.375 Y58.059 Z-2.636
X-187.299 Y58.096 Z-2.671
X-187.219 Y58.135 Z-2.693
X-187.137 Y58.176 Z-2.7
X-186.611 Y58.433 F1000.
G17 G3 X-186.343 Y59.215 I-0.257 J0.526
G2 X-186.64 Y60.5 I2.628 J1.285
G1 Y67.5
G2 X-183.715 Y70.425 I2.925
G1 X-143.715
G2 X-140.79 Y67.5 J-2.925
G1 Y60.5
G2 X-143.715 Y57.575 I-2.925
G1 X-183.715
G2 X-186.343 Y59.215 J2.925
G3 X-187.125 Y59.484 I-0.526 J-0.257
G1 X-187.651 Y59.227
X-187.733 Y59.186 Z-2.693
X-187.813 Y59.147 Z-2.671
X-187.889 Y59.11 Z-2.636
X-187.96 Y59.076 Z-2.588
X-188.022 Y59.045 Z-2.529
X-188.076 Y59.019 Z-2.459
X-188.119 Y58.998 Z-2.381
X-188.151 Y58.982 Z-2.296
X-188.17 Y58.973 Z-2.207
X-188.176 Y58.97 Z-2.115
G0 Z5.
X-187.368
G1 Z0.2 F1000.
Z-2.115 F333.3
X-187.374 Y58.973 Z-2.207
X-187.393 Y58.982 Z-2.296
X-187.425 Y58.998 Z-2.381
X-187.468 Y59.019 Z-2.459
X-187.522 Y59.045 Z-2.529
X-187.584 Y59.076 Z-2.588
X-187.655 Y59.11 Z-2.636
X-187.731 Y59.147 Z-2.671
X-187.811 Y59.186 Z-2.693
X-187.893 Y59.227 Z-2.7
X-188.419 Y59.484 F1000.
G3 X-189.201 Y59.215 I-0.257 J-0.526
G2 X-191.829 Y57.575 I-2.628 J1.285
G1 X-231.829
G2 X-234.754 Y60.5 J2.925
G1 Y67.5
G2 X-231.829 Y70.425 I2.925
G1 X-191.829
G2 X-188.904 Y67.5 J-2.925
G1 Y60.5
G2 X-189.201 Y59.215 I-2.925
G3 X-188.933 Y58.433 I0.526 J-0.257
G1 X-188.407 Y58.176
X-188.325 Y58.135 Z-2.693
X-188.245 Y58.096 Z-2.671
X-188.169 Y58.059 Z-2.636
X-188.098 Y58.024 Z-2.588
X-188.036 Y57.994 Z-2.529
X-187.982 Y57.968 Z-2.459
X-187.939 Y57.947 Z-2.381
X-187.907 Y57.931 Z-2.296
X-187.888 Y57.922 Z-2.207
X-187.882 Y57.919 Z-2.115
G0 Z5.
X-188.357 Y58.68
G1 Z-0.7 F1000.
Z-3.015 F333.3
G19 G2 Y58.095 Z-3.6 J-0.585
G1 Y57.51 F1000.
G17 G3 X-187.772 Y56.925 I0.585
G1 X-35.212
X-34.068 Y58.068
G2 X-32. Y58.925 I2.068 J-2.068
G1 X-2.
G2 X0.925 Y56. J-2.925
G1 Y2.
G2 X-2. Y-0.925 I-2.925
G1 X-32.
G2 X-34.068 Y-0.068 J2.925
G1 X-35.212 Y1.075
X-252.788
X-253.932 Y-0.068
G2 X-256. Y-0.925 I-2.068 J2.068
G1 X-286.
G2 X-288.925 Y2. J2.925
G1 Y56.
G2 X-286. Y58.925 I2.925
G1 X-256.
G2 X-253.932 Y58.068 J-2.925
G1 X-252.788 Y56.925
X-187.772
G3 X-187.187 Y57.51 J0.585
G1 Y58.095
G19 G3 Y58.68 Z-3.015 K0.585
G0 Z5.
X-187.662 Y57.919
G1 Z-0.7 F1000.
Z-3.015 F333.3
X-187.656 Y57.922 Z-3.107
X-187.637 Y57.931 Z-3.196
X-187.605 Y57.947 Z-3.281
X-187.562 Y57.968 Z-3.359
X-187.508 Y57.994 Z-3.429
X-187.446 Y58.024 Z-3.488
X-187.375 Y58.059 Z-3.536
X-187.299 Y58.096 Z-3.571
X-187.219 Y58.135 Z-3.593
X-187.137 Y58.176 Z-3.6
X-186.611 Y58.433 F1000.
G17 G3 X-186.343 Y59.215 I-0.257 J0.526
G2 X-186.64 Y60.5 I2.628 J1.285
G1 Y67.5
G2 X-183.715 Y70.425 I2.925
G1 X-143.715
G2 X-140.79 Y67.5 J-2.925
G1 Y60.5
G2 X-143.715 Y57.575 I-2.925
G1 X-183.715
G2 X-186.343 Y59.215 J2.925
G3 X-187.125 Y59.484 I-0.526 J-0.257
G1 X-187.651 Y59.227
X-187.733 Y59.186 Z-3.593
X-187.813 Y59.147 Z-3.571
X-187.889 Y59.11 Z-3.536
X-187.96 Y59.076 Z-3.488
X-188.022 Y59.045 Z-3.429
X-188.076 Y59.019 Z-3.359
X-188.119 Y58.998 Z-3.281
X-188.151 Y58.982 Z-3.196
X-188.17 Y58.973 Z-3.107
X-188.176 Y58.97 Z-3.015
G0 Z5.
X-187.368
G1 Z-0.7 F1000.
Z-3.015 F333.3
X-187.374 Y58.973 Z-3.107
X-187.393 Y58.982 Z-3.196
X-187.425 Y58.998 Z-3.281
X-187.468 Y59.019 Z-3.359
X-187.522 Y59.045 Z-3.429
X-187.584 Y59.076 Z-3.488
X-187.655 Y59.11 Z-3.536
X-187.731 Y59.147 Z-3.571
X-187.811 Y59.186 Z-3.593
X-187.893 Y59.227 Z-3.6
X-188.419 Y59.484 F1000.
G3 X-189.201 Y59.215 I-0.257 J-0.526
G2 X-191.829 Y57.575 I-2.628 J1.285
G1 X-231.829
G2 X-234.754 Y60.5 J2.925
G1 Y67.5
G2 X-231.829 Y70.425 I2.925
G1 X-191.829
G2 X-188.904 Y67.5 J-2.925
G1 Y60.5
G2 X-189.201 Y59.215 I-2.925
G3 X-188.933 Y58.433 I0.526 J-0.257
G1 X-188.407 Y58.176
X-188.325 Y58.135 Z-3.593
X-188.245 Y58.096 Z-3.571
X-188.169 Y58.059 Z-3.536
X-188.098 Y58.024 Z-3.488
X-188.036 Y57.994 Z-3.429
X-187.982 Y57.968 Z-3.359
X-187.939 Y57.947 Z-3.281
X-187.907 Y57.931 Z-3.196
X-187.888 Y57.922 Z-3.107
X-187.882 Y57.919 Z-3.015
G0 Z5.
X-188.357 Y58.68
G1 Z-1.6 F1000.
Z-3.915 F333.3
G19 G2 Y58.095 Z-4.5 J-0.585
G1 Y57.51 F1000.
G17 G3 X-187.772 Y56.925 I0.585
G1 X-35.212
X-34.068 Y58.068
G2 X-32. Y58.925 I2.068 J-2.068
G1 X-2.
G2 X0.925 Y56. J-2.925
G1 Y2.
G2 X-2. Y-0.925 I-2.925
G1 X-32.
G2 X-34.068 Y-0.068 J2.925
G1 X-35.212 Y1.075
X-252.788
X-253.932 Y-0.068
G2 X-256. Y-0.925 I-2.068 J2.068
G1 X-286.
G2 X-288.925 Y2. J2.925
G1 Y56.
G2 X-286. Y58.925 I2.925
G1 X-256.
G2 X-253.932 Y58.068 J-2.925
G1 X-252.788 Y56.925
X-187.772
G3 X-187.187 Y57.51 J0.585
G1 Y58.095
G19 G3 Y58.68 Z-3.915 K0.585
G0 Z5.
X-187.662 Y57.919
G1 Z-1.6 F1000.
Z-3.915 F333.3
X-187.656 Y57.922 Z-4.007
X-187.637 Y57.931 Z-4.096
X-187.605 Y57.947 Z-4.181
X-187.562 Y57.968 Z-4.259
X-187.508 Y57.994 Z-4.329
X-187.446 Y58.024 Z-4.388
X-187.375 Y58.059 Z-4.436
X-187.299 Y58.096 Z-4.471
X-187.219 Y58.135 Z-4.493
X-187.137 Y58.176 Z-4.5
X-186.611 Y58.433 F1000.
G17 G3 X-186.343 Y59.215 I-0.257 J0.526
G2 X-186.64 Y60.5 I2.628 J1.285
G1 Y67.5
G2 X-183.715 Y70.425 I2.925
G1 X-143.715
G2 X-140.79 Y67.5 J-2.925
G1 Y60.5
G2 X-143.715 Y57.575 I-2.925
G1 X-183.715
G2 X-186.343 Y59.215 J2.925
G3 X-187.125 Y59.484 I-0.526 J-0.257
G1 X-187.651 Y59.227
X-187.733 Y59.186 Z-4.493
X-187.813 Y59.147 Z-4.471
X-187.889 Y59.11 Z-4.436
X-187.96 Y59.076 Z-4.388
X-188.022 Y59.045 Z-4.329
X-188.076 Y59.019 Z-4.259
X-188.119 Y58.998 Z-4.181
X-188.151 Y58.982 Z-4.096
X-188.17 Y58.973 Z-4.007
X-188.176 Y58.97 Z-3.915
G0 Z5.
X-187.368
G1 Z-1.6 F1000.
Z-3.915 F333.3
X-187.374 Y58.973 Z-4.007
X-187.393 Y58.982 Z-4.096
X-187.425 Y58.998 Z-4.181
X-187.468 Y59.019 Z-4.259
X-187.522 Y59.045 Z-4.329
X-187.584 Y59.076 Z-4.388
X-187.655 Y59.11 Z-4.436
X-187.731 Y59.147 Z-4.471
X-187.811 Y59.186 Z-4.493
X-187.893 Y59.227 Z-4.5
X-188.419 Y59.484 F1000.
G3 X-189.201 Y59.215 I-0.257 J-0.526
G2 X-191.829 Y57.575 I-2.628 J1.285
G1 X-231.829
G2 X-234.754 Y60.5 J2.925
G1 Y67.5
G2 X-231.829 Y70.425 I2.925
G1 X-191.829
G2 X-188.904 Y67.5 J-2.925
G1 Y60.5
G2 X-189.201 Y59.215 I-2.925
G3 X-188.933 Y58.433 I0.526 J-0.257
G1 X-188.407 Y58.176
X-188.325 Y58.135 Z-4.493
X-188.245 Y58.096 Z-4.471
X-188.169 Y58.059 Z-4.436
X-188.098 Y58.024 Z-4.388
X-188.036 Y57.994 Z-4.329
X-187.982 Y57.968 Z-4.259
X-187.939 Y57.947 Z-4.181
X-187.907 Y57.931 Z-4.096
X-187.888 Y57.922 Z-4.007
X-187.882 Y57.919 Z-3.915
G0 Z5.
X-188.357 Y58.68
G1 Z-2.5 F1000.
Z-4.815 F333.3
G19 G2 Y58.095 Z-5.4 J-0.585
G1 Y57.51 F1000.
G17 G3 X-187.772 Y56.925 I0.585
G1 X-35.212
X-34.068 Y58.068
G2 X-32. Y58.925 I2.068 J-2.068
G1 X-2.
G2 X0.925 Y56. J-2.925
G1 Y2.
G2 X-2. Y-0.925 I-2.925
G1 X-32.
G2 X-34.068 Y-0.068 J2.925
G1 X-35.212 Y1.075
X-252.788
X-253.932 Y-0.068
G2 X-256. Y-0.925 I-2.068 J2.068
G1 X-286.
G2 X-288.925 Y2. J2.925
G1 Y56.
G2 X-286. Y58.925 I2.925
G1 X-256.
G2 X-253.932 Y58.068 J-2.925
G1 X-252.788 Y56.925
X-187.772
G3 X-187.187 Y57.51 J0.585
G1 Y58.095
G19 G3 Y58.68 Z-4.815 K0.585
G0 Z5.
X-187.662 Y57.919
G1 Z-2.5 F1000.
Z-4.815 F333.3
X-187.656 Y57.922 Z-4.907
X-187.637 Y57.931 Z-4.996
X-187.605 Y57.947 Z-5.081
X-187.562 Y57.968 Z-5.159
X-187.508 Y57.994 Z-5.229
X-187.446 Y58.024 Z-5.288
X-187.375 Y58.059 Z-5.336
X-187.299 Y58.096 Z-5.371
X-187.219 Y58.135 Z-5.393
X-187.137 Y58.176 Z-5.4
X-186.611 Y58.433 F1000.
G17 G3 X-186.343 Y59.215 I-0.257 J0.526
G2 X-186.64 Y60.5 I2.628 J1.285
G1 Y67.5
G2 X-183.715 Y70.425 I2.925
G1 X-143.715
G2 X-140.79 Y67.5 J-2.925
G1 Y60.5
G2 X-143.715 Y57.575 I-2.925
G1 X-183.715
G2 X-186.343 Y59.215 J2.925
G3 X-187.125 Y59.484 I-0.526 J-0.257
G1 X-187.651 Y59.227
X-187.733 Y59.186 Z-5.393
X-187.813 Y59.147 Z-5.371
X-187.889 Y59.11 Z-5.336
X-187.96 Y59.076 Z-5.288
X-188.022 Y59.045 Z-5.229
X-188.076 Y59.019 Z-5.159
X-188.119 Y58.998 Z-5.081
X-188.151 Y58.982 Z-4.996
X-188.17 Y58.973 Z-4.907
X-188.176 Y58.97 Z-4.815
G0 Z5.
X-187.368
G1 Z-2.5 F1000.
Z-4.815 F333.3
X-187.374 Y58.973 Z-4.907
X-187.393 Y58.982 Z-4.996
X-187.425 Y58.998 Z-5.081
X-187.468 Y59.019 Z-5.159
X-187.522 Y59.045 Z-5.229
X-187.584 Y59.076 Z-5.288
X-187.655 Y59.11 Z-5.336
X-187.731 Y59.147 Z-5.371
X-187.811 Y59.186 Z-5.393
X-187.893 Y59.227 Z-5.4
X-188.419 Y59.484 F1000.
G3 X-189.201 Y59.215 I-0.257 J-0.526
G2 X-191.829 Y57.575 I-2.628 J1.285
G1 X-231.829
G2 X-234.754 Y60.5 J2.925
G1 Y67.5
G2 X-231.829 Y70.425 I2.925
G1 X-191.829
G2 X-188.904 Y67.5 J-2.925
G1 Y60.5
G2 X-189.201 Y59.215 I-2.925
G3 X-188.933 Y58.433 I0.526 J-0.257
G1 X-188.407 Y58.176
X-188.325 Y58.135 Z-5.393
X-188.245 Y58.096 Z-5.371
X-188.169 Y58.059 Z-5.336
X-188.098 Y58.024 Z-5.288
X-188.036 Y57.994 Z-5.229
X-187.982 Y57.968 Z-5.159
X-187.939 Y57.947 Z-5.081
X-187.907 Y57.931 Z-4.996
X-187.888 Y57.922 Z-4.907
X-187.882 Y57.919 Z-4.815
G0 Z5.
X-188.357 Y58.68
G1 Z-3.4 F1000.
Z-5.715 F333.3
G19 G2 Y58.095 Z-6.3 J-0.585
G1 Y57.51 F1000.
G17 G3 X-187.772 Y56.925 I0.585
G1 X-35.212
X-34.068 Y58.068
G2 X-32. Y58.925 I2.068 J-2.068
G1 X-2.
G2 X0.925 Y56. J-2.925
G1 Y2.
G2 X-2. Y-0.925 I-2.925
G1 X-32.
G2 X-34.068 Y-0.068 J2.925
G1 X-35.212 Y1.075
X-252.788
X-253.932 Y-0.068
G2 X-256. Y-0.925 I-2.068 J2.068
G1 X-286.
G2 X-288.925 Y2. J2.925
G1 Y56.
G2 X-286. Y58.925 I2.925
G1 X-256.
G2 X-253.932 Y58.068 J-2.925
G1 X-252.788 Y56.925
X-187.772
G3 X-187.187 Y57.51 J0.585
G1 Y58.095
G19 G3 Y58.68 Z-5.715 K0.585
G0 Z5.
X-187.662 Y57.919
G1 Z-3.4 F1000.
Z-5.715 F333.3
X-187.656 Y57.922 Z-5.807
X-187.637 Y57.931 Z-5.896
X-187.605 Y57.947 Z-5.981
X-187.562 Y57.968 Z-6.059
X-187.508 Y57.994 Z-6.129
X-187.446 Y58.024 Z-6.188
X-187.375 Y58.059 Z-6.236
X-187.299 Y58.096 Z-6.271
X-187.219 Y58.135 Z-6.293
X-187.137 Y58.176 Z-6.3
X-186.611 Y58.433 F1000.
G17 G3 X-186.343 Y59.215 I-0.257 J0.526
G2 X-186.64 Y60.5 I2.628 J1.285
G1 Y67.5
G2 X-183.715 Y70.425 I2.925
G1 X-143.715
G2 X-140.79 Y67.5 J-2.925
G1 Y60.5
G2 X-143.715 Y57.575 I-2.925
G1 X-183.715
G2 X-186.343 Y59.215 J2.925
G3 X-187.125 Y59.484 I-0.526 J-0.257
G1 X-187.651 Y59.227
X-187.733 Y59.186 Z-6.293
X-187.813 Y59.147 Z-6.271
X-187.889 Y59.11 Z-6.236
X-187.96 Y59.076 Z-6.188
X-188.022 Y59.045 Z-6.129
X-188.076 Y59.019 Z-6.059
X-188.119 Y58.998 Z-5.981
X-188.151 Y58.982 Z-5.896
X-188.17 Y58.973 Z-5.807
X-188.176 Y58.97 Z-5.715
G0 Z5.
X-187.368
G1 Z-3.4 F1000.
Z-5.715 F333.3
X-187.374 Y58.973 Z-5.807
X-187.393 Y58.982 Z-5.896
X-187.425 Y58.998 Z-5.981
X-187.468 Y59.019 Z-6.059
X-187.522 Y59.045 Z-6.129
X-187.584 Y59.076 Z-6.188
X-187.655 Y59.11 Z-6.236
X-187.731 Y59.147 Z-6.271
X-187.811 Y59.186 Z-6.293
X-187.893 Y59.227 Z-6.3
X-188.419 Y59.484 F1000.
G3 X-189.201 Y59.215 I-0.257 J-0.526
G2 X-191.829 Y57.575 I-2.628 J1.285
G1 X-231.829
G2 X-234.754 Y60.5 J2.925
G1 Y67.5
G2 X-231.829 Y70.425 I2.925
G1 X-191.829
G2 X-188.904 Y67.5 J-2.925
G1 Y60.5
G2 X-189.201 Y59.215 I-2.925
G3 X-188.933 Y58.433 I0.526 J-0.257
G1 X-188.407 Y58.176
X-188.325 Y58.135 Z-6.293
X-188.245 Y58.096 Z-6.271
X-188.169 Y58.059 Z-6.236
X-188.098 Y58.024 Z-6.188
X-188.036 Y57.994 Z-6.129
X-187.982 Y57.968 Z-6.059
X-187.939 Y57.947 Z-5.981
X-187.907 Y57.931 Z-5.896
X-187.888 Y57.922 Z-5.807
X-187.882 Y57.919 Z-5.715
G0 Z5.
X-188.357 Y58.68
G1 Z-4.3 F1000.
Z-6.615 F333.3
G19 G2 Y58.095 Z-7.2 J-0.585
G1 Y57.51 F1000.
G17 G3 X-187.772 Y56.925 I0.585
G1 X-35.212
X-34.068 Y58.068
G2 X-32. Y58.925 I2.068 J-2.068
G1 X-2.
G2 X0.925 Y56. J-2.925
G1 Y2.
G2 X-2. Y-0.925 I-2.925
G1 X-32.
G2 X-34.068 Y-0.068 J2.925
G1 X-35.212 Y1.075
X-252.788
X-253.932 Y-0.068
G2 X-256. Y-0.925 I-2.068 J2.068
G1 X-286.
G2 X-288.925 Y2. J2.925
G1 Y56.
G2 X-286. Y58.925 I2.925
G1 X-256.
G2 X-253.932 Y58.068 J-2.925
G1 X-252.788 Y56.925
X-187.772
G3 X-187.187 Y57.51 J0.585
G1 Y58.095
G19 G3 Y58.68 Z-6.615 K0.585
G0 Z5.
X-187.662 Y57.919
G1 Z-4.3 F1000.
Z-6.615 F333.3
X-187.656 Y57.922 Z-6.707
X-187.637 Y57.931 Z-6.796
X-187.605 Y57.947 Z-6.881
X-187.562 Y57.968 Z-6.959
X-187.508 Y57.994 Z-7.029
X-187.446 Y58.024 Z-7.088
X-187.375 Y58.059 Z-7.136
X-187.299 Y58.096 Z-7.171
X-187.219 Y58.135 Z-7.193
X-187.137 Y58.176 Z-7.2
X-186.611 Y58.433 F1000.
G17 G3 X-186.343 Y59.215 I-0.257 J0.526
G2 X-186.64 Y60.5 I2.628 J1.285
G1 Y67.5
G2 X-183.715 Y70.425 I2.925
G1 X-143.715
G2 X-140.79 Y67.5 J-2.925
G1 Y60.5
G2 X-143.715 Y57.575 I-2.925
G1 X-183.715
G2 X-186.343 Y59.215 J2.925
G3 X-187.125 Y59.484 I-0.526 J-0.257
G1 X-187.651 Y59.227
X-187.733 Y59.186 Z-7.193
X-187.813 Y59.147 Z-7.171
X-187.889 Y59.11 Z-7.136
X-187.96 Y59.076 Z-7.088
X-188.022 Y59.045 Z-7.029
X-188.076 Y59.019 Z-6.959
X-188.119 Y58.998 Z-6.881
X-188.151 Y58.982 Z-6.796
X-188.17 Y58.973 Z-6.707
X-188.176 Y58.97 Z-6.615
G0 Z5.
X-187.368
G1 Z-4.3 F1000.
Z-6.615 F333.3
X-187.374 Y58.973 Z-6.707
X-187.393 Y58.982 Z-6.796
X-187.425 Y58.998 Z-6.881
X-187.468 Y59.019 Z-6.959
X-187.522 Y59.045 Z-7.029
X-187.584 Y59.076 Z-7.088
X-187.655 Y59.11 Z-7.136
X-187.731 Y59.147 Z-7.171
X-187.811 Y59.186 Z-7.193
X-187.893 Y59.227 Z-7.2
X-188.419 Y59.484 F1000.
G3 X-189.201 Y59.215 I-0.257 J-0.526
G2 X-191.829 Y57.575 I-2.628 J1.285
G1 X-231.829
G2 X-234.754 Y60.5 J2.925
G1 Y67.5
G2 X-231.829 Y70.425 I2.925
G1 X-191.829
G2 X-188.904 Y67.5 J-2.925
G1 Y60.5
G2 X-189.201 Y59.215 I-2.925
G3 X-188.933 Y58.433 I0.526 J-0.257
G1 X-188.407 Y58.176
X-188.325 Y58.135 Z-7.193
X-188.245 Y58.096 Z-7.171
X-188.169 Y58.059 Z-7.136
X-188.098 Y58.024 Z-7.088
X-188.036 Y57.994 Z-7.029
X-187.982 Y57.968 Z-6.959
X-187.939 Y57.947 Z-6.881
X-187.907 Y57.931 Z-6.796
X-187.888 Y57.922 Z-6.707
X-187.882 Y57.919 Z-6.615
G0 Z5.
X-188.357 Y58.68
G1 Z-5.2 F1000.
Z-7.515 F333.3
G19 G2 Y58.095 Z-8.1 J-0.585
G1 Y57.51 F1000.
G17 G3 X-187.772 Y56.925 I0.585
G1 X-35.212
X-34.068 Y58.068
G2 X-32. Y58.925 I2.068 J-2.068
G1 X-2.
G2 X0.925 Y56. J-2.925
G1 Y2.
G2 X-2. Y-0.925 I-2.925
G1 X-32.
G2 X-34.068 Y-0.068 J2.925
G1 X-35.212 Y1.075
X-252.788
X-253.932 Y-0.068
G2 X-256. Y-0.925 I-2.068 J2.068
G1 X-286.
G2 X-288.925 Y2. J2.925
G1 Y56.
G2 X-286. Y58.925 I2.925
G1 X-256.
G2 X-253.932 Y58.068 J-2.925
G1 X-252.788 Y56.925
X-187.772
G3 X-187.187 Y57.51 J0.585
G1 Y58.095
G19 G3 Y58.68 Z-7.515 K0.585
G0 Z5.
X-187.662 Y57.919
G1 Z-5.2 F1000.
Z-7.515 F333.3
X-187.656 Y57.922 Z-7.607
X-187.637 Y57.931 Z-7.696
X-187.605 Y57.947 Z-7.781
X-187.562 Y57.968 Z-7.859
X-187.508 Y57.994 Z-7.929
X-187.446 Y58.024 Z-7.988
X-187.375 Y58.059 Z-8.036
X-187.299 Y58.096 Z-8.071
X-187.219 Y58.135 Z-8.093
X-187.137 Y58.176 Z-8.1
X-186.611 Y58.433 F1000.
G17 G3 X-186.343 Y59.215 I-0.257 J0.526
G2 X-186.64 Y60.5 I2.628 J1.285
G1 Y67.5
G2 X-183.715 Y70.425 I2.925
G1 X-143.715
G2 X-140.79 Y67.5 J-2.925
G1 Y60.5
G2 X-143.715 Y57.575 I-2.925
G1 X-183.715
G2 X-186.343 Y59.215 J2.925
G3 X-187.125 Y59.484 I-0.526 J-0.257
G1 X-187.651 Y59.227
X-187.733 Y59.186 Z-8.093
X-187.813 Y59.147 Z-8.071
X-187.889 Y59.11 Z-8.036
X-187.96 Y59.076 Z-7.988
X-188.022 Y59.045 Z-7.929
X-188.076 Y59.019 Z-7.859
X-188.119 Y58.998 Z-7.781
X-188.151 Y58.982 Z-7.696
X-188.17 Y58.973 Z-7.607
X-188.176 Y58.97 Z-7.515
G0 Z5.
X-187.368
G1 Z-5.2 F1000.
Z-7.515 F333.3
X-187.374 Y58.973 Z-7.607
X-187.393 Y58.982 Z-7.696
X-187.425 Y58.998 Z-7.781
X-187.468 Y59.019 Z-7.859
X-187.522 Y59.045 Z-7.929
X-187.584 Y59.076 Z-7.988
X-187.655 Y59.11 Z-8.036
X-187.731 Y59.147 Z-8.071
X-187.811 Y59.186 Z-8.093
X-187.893 Y59.227 Z-8.1
X-188.419 Y59.484 F1000.
G3 X-189.201 Y59.215 I-0.257 J-0.526
G2 X-191.829 Y57.575 I-2.628 J1.285
G1 X-231.829
G2 X-234.754 Y60.5 J2.925
G1 Y67.5
G2 X-231.829 Y70.425 I2.925
G1 X-191.829
G2 X-188.904 Y67.5 J-2.925
G1 Y60.5
G2 X-189.201 Y59.215 I-2.925
G3 X-188.933 Y58.433 I0.526 J-0.257
G1 X-188.407 Y58.176
X-188.325 Y58.135 Z-8.093
X-188.245 Y58.096 Z-8.071
X-188.169 Y58.059 Z-8.036
X-188.098 Y58.024 Z-7.988
X-188.036 Y57.994 Z-7.929
X-187.982 Y57.968 Z-7.859
X-187.939 Y57.947 Z-7.781
X-187.907 Y57.931 Z-7.696
X-187.888 Y57.922 Z-7.607
X-187.882 Y57.919 Z-7.515
G0 Z5.
X-314.92 Y53.951
G1 Z2. F1000.
Z-0.315 F333.3
X-314.918 Y53.944 Z-0.407
X-314.914 Y53.923 Z-0.496
X-314.908 Y53.888 Z-0.581
X-314.899 Y53.841 Z-0.659
X-314.889 Y53.782 Z-0.729
X-314.876 Y53.714 Z-0.788
X-314.862 Y53.637 Z-0.836
X-314.847 Y53.553 Z-0.871
X-314.831 Y53.465 Z-0.893
X-314.814 Y53.375 Z-0.9
X-314.709 Y52.8 F1000.
G3 X-314.028 Y52.33 I0.575 J0.106
G2 X-313.5 Y52.378 I0.528 J-2.877
G1 X-292.5
G2 X-289.575 Y49.453 J-2.925
G1 Y9.453
G2 X-292.5 Y6.528 I-2.925
G1 X-313.5
G2 X-316.425 Y9.453 J2.925
G1 Y49.453
G2 X-314.028 Y52.33 I2.925
G3 X-313.558 Y53.011 I-0.106 J0.575
G1 X-313.663 Y53.587
X-313.68 Y53.677 Z-0.893
X-313.696 Y53.764 Z-0.871
X-313.711 Y53.848 Z-0.836
X-313.725 Y53.925 Z-0.788
X-313.738 Y53.993 Z-0.729
X-313.749 Y54.052 Z-0.659
X-313.757 Y54.099 Z-0.581
X-313.764 Y54.134 Z-0.496
X-313.768 Y54.155 Z-0.407
X-313.769 Y54.162 Z-0.315
G0 Z5.
X-314.92 Y53.951
G1 Z1.1 F1000.
Z-1.215 F333.3
X-314.918 Y53.944 Z-1.307
X-314.914 Y53.923 Z-1.396
X-314.908 Y53.888 Z-1.481
X-314.899 Y53.841 Z-1.559
X-314.889 Y53.782 Z-1.629
X-314.876 Y53.714 Z-1.688
X-314.862 Y53.637 Z-1.736
X-314.847 Y53.553 Z-1.771
X-314.831 Y53.465 Z-1.793
X-314.814 Y53.375 Z-1.8
X-314.709 Y52.8 F1000.
G3 X-314.028 Y52.33 I0.575 J0.106
G2 X-313.5 Y52.378 I0.528 J-2.877
G1 X-292.5
G2 X-289.575 Y49.453 J-2.925
G1 Y9.453
G2 X-292.5 Y6.528 I-2.925
G1 X-313.5
G2 X-316.425 Y9.453 J2.925
G1 Y49.453
G2 X-314.028 Y52.33 I2.925
G3 X-313.558 Y53.011 I-0.106 J0.575
G1 X-313.663 Y53.587
X-313.68 Y53.677 Z-1.793
X-313.696 Y53.764 Z-1.771
X-313.711 Y53.848 Z-1.736
X-313.725 Y53.925 Z-1.688
X-313.738 Y53.993 Z-1.629
X-313.749 Y54.052 Z-1.559
X-313.757 Y54.099 Z-1.481
X-313.764 Y54.134 Z-1.396
X-313.768 Y54.155 Z-1.307
X-313.769 Y54.162 Z-1.215
G0 Z5.
X-314.92 Y53.951
G1 Z0.2 F1000.
Z-2.115 F333.3
X-314.918 Y53.944 Z-2.207
X-314.914 Y53.923 Z-2.296
X-314.908 Y53.888 Z-2.381
X-314.899 Y53.841 Z-2.459
X-314.889 Y53.782 Z-2.529
X-314.876 Y53.714 Z-2.588
X-314.862 Y53.637 Z-2.636
X-314.847 Y53.553 Z-2.671
X-314.831 Y53.465 Z-2.693
X-314.814 Y53.375 Z-2.7
X-314.709 Y52.8 F1000.
G3 X-314.028 Y52.33 I0.575 J0.106
G2 X-313.5 Y52.378 I0.528 J-2.877
G1 X-292.5
G2 X-289.575 Y49.453 J-2.925
G1 Y9.453
G2 X-292.5 Y6.528 I-2.925
G1 X-313.5
G2 X-316.425 Y9.453 J2.925
G1 Y49.453
G2 X-314.028 Y52.33 I2.925
G3 X-313.558 Y53.011 I-0.106 J0.575
G1 X-313.663 Y53.587
X-313.68 Y53.677 Z-2.693
X-313.696 Y53.764 Z-2.671
X-313.711 Y53.848 Z-2.636
X-313.725 Y53.925 Z-2.588
X-313.738 Y53.993 Z-2.529
X-313.749 Y54.052 Z-2.459
X-313.757 Y54.099 Z-2.381
X-313.764 Y54.134 Z-2.296
X-313.768 Y54.155 Z-2.207
X-313.769 Y54.162 Z-2.115
G0 Z5.
X-314.92 Y53.951
G1 Z-0.7 F1000.
Z-3.015 F333.3
X-314.918 Y53.944 Z-3.107
X-314.914 Y53.923 Z-3.196
X-314.908 Y53.888 Z-3.281
X-314.899 Y53.841 Z-3.359
X-314.889 Y53.782 Z-3.429
X-314.876 Y53.714 Z-3.488
X-314.862 Y53.637 Z-3.536
X-314.847 Y53.553 Z-3.571
X-314.831 Y53.465 Z-3.593
X-314.814 Y53.375 Z-3.6
X-314.709 Y52.8 F1000.
G3 X-314.028 Y52.33 I0.575 J0.106
G2 X-313.5 Y52.378 I0.528 J-2.877
G1 X-292.5
G2 X-289.575 Y49.453 J-2.925
G1 Y9.453
G2 X-292.5 Y6.528 I-2.925
G1 X-313.5
G2 X-316.425 Y9.453 J2.925
G1 Y49.453
G2 X-314.028 Y52.33 I2.925
G3 X-313.558 Y53.011 I-0.106 J0.575
G1 X-313.663 Y53.587
X-313.68 Y53.677 Z-3.593
X-313.696 Y53.764 Z-3.571
X-313.711 Y53.848 Z-3.536
X-313.725 Y53.925 Z-3.488
X-313.738 Y53.993 Z-3.429
X-313.749 Y54.052 Z-3.359
X-313.757 Y54.099 Z-3.281
X-313.764 Y54.134 Z-3.196
X-313.768 Y54.155 Z-3.107
X-313.769 Y54.162 Z-3.015
G0 Z5.
X-314.92 Y53.951
G1 Z-1.6 F1000.
Z-3.915 F333.3
X-314.918 Y53.944 Z-4.007
X-314.914 Y53.923 Z-4.096
X-314.908 Y53.888 Z-4.181
X-314.899 Y53.841 Z-4.259
X-314.889 Y53.782 Z-4.329
X-314.876 Y53.714 Z-4.388
X-314.862 Y53.637 Z-4.436
X-314.847 Y53.553 Z-4.471
X-314.831 Y53.465 Z-4.493
X-314.814 Y53.375 Z-4.5
X-314.709 Y52.8 F1000.
G3 X-314.028 Y52.33 I0.575 J0.106
G2 X-313.5 Y52.378 I0.528 J-2.877
G1 X-292.5
G2 X-289.575 Y49.453 J-2.925
G1 Y9.453
G2 X-292.5 Y6.528 I-2.925
G1 X-313.5
G2 X-316.425 Y9.453 J2.925
G1 Y49.453
G2 X-314.028 Y52.33 I2.925
G3 X-313.558 Y53.011 I-0.106 J0.575
G1 X-313.663 Y53.587
X-313.68 Y53.677 Z-4.493
X-313.696 Y53.764 Z-4.471
X-313.711 Y53.848 Z-4.436
X-313.725 Y53.925 Z-4.388
X-313.738 Y53.993 Z-4.329
X-313.749 Y54.052 Z-4.259
X-313.757 Y54.099 Z-4.181
X-313.764 Y54.134 Z-4.096
X-313.768 Y54.155 Z-4.007
X-313.769 Y54.162 Z-3.915
G0 Z5.
X-314.92 Y53.951
G1 Z-2.5 F1000.
Z-4.815 F333.3
X-314.918 Y53.944 Z-4.907
X-314.914 Y53.923 Z-4.996
X-314.908 Y53.888 Z-5.081
X-314.899 Y53.841 Z-5.159
X-314.889 Y53.782 Z-5.229
X-314.876 Y53.714 Z-5.288
X-314.862 Y53.637 Z-5.336
X-314.847 Y53.553 Z-5.371
X-314.831 Y53.465 Z-5.393
X-314.814 Y53.375 Z-5.4
X-314.709 Y52.8 F1000.
G3 X-314.028 Y52.33 I0.575 J0.106
G2 X-313.5 Y52.378 I0.528 J-2.877
G1 X-292.5
G2 X-289.575 Y49.453 J-2.925
G1 Y9.453
G2 X-292.5 Y6.528 I-2.925
G1 X-313.5
G2 X-316.425 Y9.453 J2.925
G1 Y49.453
G2 X-314.028 Y52.33 I2.925
G3 X-313.558 Y53.011 I-0.106 J0.575
G1 X-313.663 Y53.587
X-313.68 Y53.677 Z-5.393
X-313.696 Y53.764 Z-5.371
X-313.711 Y53.848 Z-5.336
X-313.725 Y53.925 Z-5.288
X-313.738 Y53.993 Z-5.229
X-313.749 Y54.052 Z-5.159
X-313.757 Y54.099 Z-5.081
X-313.764 Y54.134 Z-4.996
X-313.768 Y54.155 Z-4.907
X-313.769 Y54.162 Z-4.815
G0 Z5.
X-314.92 Y53.951
G1 Z-3.4 F1000.
Z-5.715 F333.3
X-314.918 Y53.944 Z-5.807
X-314.914 Y53.923 Z-5.896
X-314.908 Y53.888 Z-5.981
X-314.899 Y53.841 Z-6.059
X-314.889 Y53.782 Z-6.129
X-314.876 Y53.714 Z-6.188
X-314.862 Y53.637 Z-6.236
X-314.847 Y53.553 Z-6.271
X-314.831 Y53.465 Z-6.293
X-314.814 Y53.375 Z-6.3
X-314.709 Y52.8 F1000.
G3 X-314.028 Y52.33 I0.575 J0.106
G2 X-313.5 Y52.378 I0.528 J-2.877
G1 X-292.5
G2 X-289.575 Y49.453 J-2.925
G1 Y9.453
G2 X-292.5 Y6.528 I-2.925
G1 X-313.5
G2 X-316.425 Y9.453 J2.925
G1 Y49.453
G2 X-314.028 Y52.33 I2.925
G3 X-313.558 Y53.011 I-0.106 J0.575
G1 X-313.663 Y53.587
X-313.68 Y53.677 Z-6.293
X-313.696 Y53.764 Z-6.271
X-313.711 Y53.848 Z-6.236
X-313.725 Y53.925 Z-6.188
X-313.738 Y53.993 Z-6.129
X-313.749 Y54.052 Z-6.059
X-313.757 Y54.099 Z-5.981
X-313.764 Y54.134 Z-5.896
X-313.768 Y54.155 Z-5.807
X-313.769 Y54.162 Z-5.715
G0 Z5.
X-314.92 Y53.951
G1 Z-4.3 F1000.
Z-6.615 F333.3
X-314.918 Y53.944 Z-6.707
X-314.914 Y53.923 Z-6.796
X-314.908 Y53.888 Z-6.881
X-314.899 Y53.841 Z-6.959
X-314.889 Y53.782 Z-7.029
X-314.876 Y53.714 Z-7.088
X-314.862 Y53.637 Z-7.136
X-314.847 Y53.553 Z-7.171
X-314.831 Y53.465 Z-7.193
X-314.814 Y53.375 Z-7.2
X-314.709 Y52.8 F1000.
G3 X-314.028 Y52.33 I0.575 J0.106
G2 X-313.5 Y52.378 I0.528 J-2.877
G1 X-292.5
G2 X-289.575 Y49.453 J-2.925
G1 Y9.453
G2 X-292.5 Y6.528 I-2.925
G1 X-313.5
G2 X-316.425 Y9.453 J2.925
G1 Y49.453
G2 X-314.028 Y52.33 I2.925
G3 X-313.558 Y53.011 I-0.106 J0.575
G1 X-313.663 Y53.587
X-313.68 Y53.677 Z-7.193
X-313.696 Y53.764 Z-7.171
X-313.711 Y53.848 Z-7.136
X-313.725 Y53.925 Z-7.088
X-313.738 Y53.993 Z-7.029
X-313.749 Y54.052 Z-6.959
X-313.757 Y54.099 Z-6.881
X-313.764 Y54.134 Z-6.796
X-313.768 Y54.155 Z-6.707
X-313.769 Y54.162 Z-6.615
G0 Z5.
X-314.92 Y53.951
G1 Z-5.2 F1000.
Z-7.515 F333.3
X-314.918 Y53.944 Z-7.607
X-314.914 Y53.923 Z-7.696
X-314.908 Y53.888 Z-7.781
X-314.899 Y53.841 Z-7.859
X-314.889 Y53.782 Z-7.929
X-314.876 Y53.714 Z-7.988
X-314.862 Y53.637 Z-8.036
X-314.847 Y53.553 Z-8.071
X-314.831 Y53.465 Z-8.093
X-314.814 Y53.375 Z-8.1
X-314.709 Y52.8 F1000.
G3 X-314.028 Y52.33 I0.575 J0.106
G2 X-313.5 Y52.378 I0.528 J-2.877
G1 X-292.5
G2 X-289.575 Y49.453 J-2.925
G1 Y9.453
G2 X-292.5 Y6.528 I-2.925
G1 X-313.5
G2 X-316.425 Y9.453 J2.925
G1 Y49.453
G2 X-314.028 Y52.33 I2.925
G3 X-313.558 Y53.011 I-0.106 J0.575
G1 X-313.663 Y53.587
X-313.68 Y53.677 Z-8.093
X-313.696 Y53.764 Z-8.071
X-313.711 Y53.848 Z-8.036
X-313.725 Y53.925 Z-7.988
X-313.738 Y53.993 Z-7.929
X-313.749 Y54.052 Z-7.859
X-313.757 Y54.099 Z-7.781
X-313.764 Y54.134 Z-7.696
X-313.768 Y54.155 Z-7.607
X-313.769 Y54.162 Z-7.515
G0 Z5.
X2.196 Y71.124
G1 Z2. F1000.
Z-0.315 F333.3
G18 G3 X1.611 Z-0.9 I-0.585
G1 X1.026 F1000.
G17 G3 X0.441 Y70.539 J-0.585
G1 Y66.5
G2 X-0.416 Y64.432 I-2.925
G1 X-4.416 Y60.432
G2 X-6.484 Y59.575 I-2.068 J2.068
G1 X-20.484
G2 X-22.552 Y60.432 J2.925
G1 X-26.552 Y64.432
G2 X-27.409 Y66.5 I2.068 J2.068
G1 Y86.5
G2 X-26.552 Y88.568 I2.925
G1 X-25.409 Y89.712
Y109.5
G2 X-22.484 Y112.425 I2.925
G1 X-14.484
G2 X-11.559 Y109.5 J-2.925
G1 Y89.425
X-6.484
G2 X-4.416 Y88.568 J-2.925
G1 X-0.416 Y84.568
G2 X0.441 Y82.5 I-2.068 J-2.068
G1 Y70.539
G3 X1.026 Y69.954 I0.585
G1 X1.611
G18 G2 X2.196 Z-0.315 K0.585
G0 Z5.
Y71.124
G1 Z1.1 F1000.
Z-1.215 F333.3
G3 X1.611 Z-1.8 I-0.585
G1 X1.026 F1000.
G17 G3 X0.441 Y70.539 J-0.585
G1 Y66.5
G2 X-0.416 Y64.432 I-2.925
G1 X-4.416 Y60.432
G2 X-6.484 Y59.575 I-2.068 J2.068
G1 X-20.484
G2 X-22.552 Y60.432 J2.925
G1 X-26.552 Y64.432
G2 X-27.409 Y66.5 I2.068 J2.068
G1 Y86.5
G2 X-26.552 Y88.568 I2.925
G1 X-25.409 Y89.712
Y109.5
G2 X-22.484 Y112.425 I2.925
G1 X-14.484
G2 X-11.559 Y109.5 J-2.925
G1 Y89.425
X-6.484
G2 X-4.416 Y88.568 J-2.925
G1 X-0.416 Y84.568
G2 X0.441 Y82.5 I-2.068 J-2.068
G1 Y70.539
G3 X1.026 Y69.954 I0.585
G1 X1.611
G18 G2 X2.196 Z-1.215 K0.585
G0 Z5.
Y71.124
G1 Z0.2 F1000.
Z-2.115 F333.3
G3 X1.611 Z-2.7 I-0.585
G1 X1.026 F1000.
G17 G3 X0.441 Y70.539 J-0.585
G1 Y66.5
G2 X-0.416 Y64.432 I-2.925
G1 X-4.416 Y60.432
G2 X-6.484 Y59.575 I-2.068 J2.068
G1 X-20.484
G2 X-22.552 Y60.432 J2.925
G1 X-26.552 Y64.432
G2 X-27.409 Y66.5 I2.068 J2.068
G1 Y86.5
G2 X-26.552 Y88.568 I2.925
G1 X-25.409 Y89.712
Y109.5
G2 X-22.484 Y112.425 I2.925
G1 X-14.484
G2 X-11.559 Y109.5 J-2.925
G1 Y89.425
X-6.484
G2 X-4.416 Y88.568 J-2.925
G1 X-0.416 Y84.568
G2 X0.441 Y82.5 I-2.068 J-2.068
G1 Y70.539
G3 X1.026 Y69.954 I0.585
G1 X1.611
G18 G2 X2.196 Z-2.115 K0.585
G0 Z5.
Y71.124
G1 Z-0.7 F1000.
Z-3.015 F333.3
G3 X1.611 Z-3.6 I-0.585
G1 X1.026 F1000.
G17 G3 X0.441 Y70.539 J-0.585
G1 Y66.5
G2 X-0.416 Y64.432 I-2.925
G1 X-4.416 Y60.432
G2 X-6.484 Y59.575 I-2.068 J2.068
G1 X-20.484
G2 X-22.552 Y60.432 J2.925
G1 X-26.552 Y64.432
G2 X-27.409 Y66.5 I2.068 J2.068
G1 Y86.5
G2 X-26.552 Y88.568 I2.925
G1 X-25.409 Y89.712
Y109.5
G2 X-22.484 Y112.425 I2.925
G1 X-14.484
G2 X-11.559 Y109.5 J-2.925
G1 Y89.425
X-6.484
G2 X-4.416 Y88.568 J-2.925
G1 X-0.416 Y84.568
G2 X0.441 Y82.5 I-2.068 J-2.068
G1 Y70.539
G3 X1.026 Y69.954 I0.585
G1 X1.611
G18 G2 X2.196 Z-3.015 K0.585
G0 Z5.
Y71.124
G1 Z-1.6 F1000.
Z-3.915 F333.3
G3 X1.611 Z-4.5 I-0.585
G1 X1.026 F1000.
G17 G3 X0.441 Y70.539 J-0.585
G1 Y66.5
G2 X-0.416 Y64.432 I-2.925
G1 X-4.416 Y60.432
G2 X-6.484 Y59.575 I-2.068 J2.068
G1 X-20.484
G2 X-22.552 Y60.432 J2.925
G1 X-26.552 Y64.432
G2 X-27.409 Y66.5 I2.068 J2.068
G1 Y86.5
G2 X-26.552 Y88.568 I2.925
G1 X-25.409 Y89.712
Y109.5
G2 X-22.484 Y112.425 I2.925
G1 X-14.484
G2 X-11.559 Y109.5 J-2.925
G1 Y89.425
X-6.484
G2 X-4.416 Y88.568 J-2.925
G1 X-0.416 Y84.568
G2 X0.441 Y82.5 I-2.068 J-2.068
G1 Y70.539
G3 X1.026 Y69.954 I0.585
G1 X1.611
G18 G2 X2.196 Z-3.915 K0.585
G0 Z5.
Y71.124
G1 Z-2.5 F1000.
Z-4.815 F333.3
G3 X1.611 Z-5.4 I-0.585
G1 X1.026 F1000.
G17 G3 X0.441 Y70.539 J-0.585
G1 Y66.5
G2 X-0.416 Y64.432 I-2.925
G1 X-4.416 Y60.432
G2 X-6.484 Y59.575 I-2.068 J2.068
G1 X-20.484
G2 X-22.552 Y60.432 J2.925
G1 X-26.552 Y64.432
G2 X-27.409 Y66.5 I2.068 J2.068
G1 Y86.5
G2 X-26.552 Y88.568 I2.925
G1 X-25.409 Y89.712
Y109.5
G2 X-22.484 Y112.425 I2.925
G1 X-14.484
G2 X-11.559 Y109.5 J-2.925
G1 Y89.425
X-6.484
G2 X-4.416 Y88.568 J-2.925
G1 X-0.416 Y84.568
G2 X0.441 Y82.5 I-2.068 J-2.068
G1 Y70.539
G3 X1.026 Y69.954 I0.585
G1 X1.611
G18 G2 X2.196 Z-4.815 K0.585
G0 Z5.
Y71.124
G1 Z-3.4 F1000.
Z-5.715 F333.3
G3 X1.611 Z-6.3 I-0.585
G1 X1.026 F1000.
G17 G3 X0.441 Y70.539 J-0.585
G1 Y66.5
G2 X-0.416 Y64.432 I-2.925
G1 X-4.416 Y60.432
G2 X-6.484 Y59.575 I-2.068 J2.068
G1 X-20.484
G2 X-22.552 Y60.432 J2.925
G1 X-26.552 Y64.432
G2 X-27.409 Y66.5 I2.068 J2.068
G1 Y86.5
G2 X-26.552 Y88.568 I2.925
G1 X-25.409 Y89.712
Y109.5
G2 X-22.484 Y112.425 I2.925
G1 X-14.484
G2 X-11.559 Y109.5 J-2.925
G1 Y89.425
X-6.484
G2 X-4.416 Y88.568 J-2.925
G1 X-0.416 Y84.568
G2 X0.441 Y82.5 I-2.068 J-2.068
G1 Y70.539
G3 X1.026 Y69.954 I0.585
G1 X1.611
G18 G2 X2.196 Z-5.715 K0.585
G0 Z5.
Y71.124
G1 Z-4.3 F1000.
Z-6.615 F333.3
G3 X1.611 Z-7.2 I-0.585
G1 X1.026 F1000.
G17 G3 X0.441 Y70.539 J-0.585
G1 Y66.5
G2 X-0.416 Y64.432 I-2.925
G1 X-4.416 Y60.432
G2 X-6.484 Y59.575 I-2.068 J2.068
G1 X-20.484
G2 X-22.552 Y60.432 J2.925
G1 X-26.552 Y64.432
G2 X-27.409 Y66.5 I2.068 J2.068
G1 Y86.5
G2 X-26.552 Y88.568 I2.925
G1 X-25.409 Y89.712
Y109.5
G2 X-22.484 Y112.425 I2.925
G1 X-14.484
G2 X-11.559 Y109.5 J-2.925
G1 Y89.425
X-6.484
G2 X-4.416 Y88.568 J-2.925
G1 X-0.416 Y84.568
G2 X0.441 Y82.5 I-2.068 J-2.068
G1 Y70.539
G3 X1.026 Y69.954 I0.585
G1 X1.611
G18 G2 X2.196 Z-6.615 K0.585
G0 Z5.
Y71.124
G1 Z-5.2 F1000.
Z-7.515 F333.3
G3 X1.611 Z-8.1 I-0.585
G1 X1.026 F1000.
G17 G3 X0.441 Y70.539 J-0.585
G1 Y66.5
G2 X-0.416 Y64.432 I-2.925
G1 X-4.416 Y60.432
G2 X-6.484 Y59.575 I-2.068 J2.068
G1 X-20.484
G2 X-22.552 Y60.432 J2.925
G1 X-26.552 Y64.432
G2 X-27.409 Y66.5 I2.068 J2.068
G1 Y86.5
G2 X-26.552 Y88.568 I2.925
G1 X-25.409 Y89.712
Y109.5
G2 X-22.484 Y112.425 I2.925
G1 X-14.484
G2 X-11.559 Y109.5 J-2.925
G1 Y89.425
X-6.484
G2 X-4.416 Y88.568 J-2.925
G1 X-0.416 Y84.568
G2 X0.441 Y82.5 I-2.068 J-2.068
G1 Y70.539
G3 X1.026 Y69.954 I0.585
G1 X1.611
G18 G2 X2.196 Z-7.515 K0.585
G0 Z15.
G17
G91
G28 Z0.
M5
G0
G28 X0. Y0.
M30
%
