%
O00001006
(T3  D=5.85 CR=0. - ZMIN=-8.1 - FLAT END MILL)
G90 G94 G17
G21
G91
G28 Z0.
G90
(2D CONTOUR2 (2))
T3 M6
S5000 M3
G54
G0 X2.212 Y66.939
G43 Z15. H3
G0 Z5.
G1 Z2. F1000.
Z-0.315 F333.3
X2.205 Z-0.407
X2.183 Y66.94 Z-0.496
X2.148 Y66.941 Z-0.581
X2.1 Y66.942 Z-0.659
X2.041 Y66.944 Z-0.729
X1.971 Y66.946 Z-0.788
X1.893 Y66.949 Z-0.836
X1.808 Y66.951 Z-0.871
X1.719 Y66.954 Z-0.893
X1.627 Y66.957 Z-0.9
X1.043 Y66.975 F1000.
G3 X0.44 Y66.409 I-0.018 J-0.585
G2 X-0.416 Y64.432 I-2.924 J0.091
G1 X-4.416 Y60.432
G2 X-6.484 Y59.575 I-2.068 J2.068
G1 X-20.484
G2 X-22.552 Y60.432 J2.925
G1 X-26.552 Y64.432
G2 X-27.409 Y66.5 I2.068 J2.068
G1 Y86.5
G2 X-26.552 Y88.568 I2.925
G1 X-25.409 Y89.712
Y109.5
G2 X-22.484 Y112.425 I2.925
G1 X-14.484
G2 X-11.559 Y109.5 J-2.925
G1 Y89.425
X-6.484
G2 X-4.416 Y88.568 J-2.925
G1 X-0.416 Y84.568
G2 X0.441 Y82.5 I-2.068 J-2.068
G1 Y66.5
G2 X0.44 Y66.409 I-2.925
G3 X1.006 Y65.806 I0.585 J-0.018
G1 X1.591 Y65.788
X1.682 Y65.785 Z-0.893
X1.772 Y65.782 Z-0.871
X1.856 Y65.779 Z-0.836
X1.935 Y65.777 Z-0.788
X2.004 Y65.775 Z-0.729
X2.064 Y65.773 Z-0.659
X2.112 Y65.771 Z-0.581
X2.147 Y65.77 Z-0.496
X2.168 Z-0.407
X2.176 Y65.769 Z-0.315
G0 Z5.
X2.212 Y66.939
G1 Z1.1 F1000.
Z-1.215 F333.3
X2.205 Z-1.307
X2.183 Y66.94 Z-1.396
X2.148 Y66.941 Z-1.481
X2.1 Y66.942 Z-1.559
X2.041 Y66.944 Z-1.629
X1.971 Y66.946 Z-1.688
X1.893 Y66.949 Z-1.736
X1.808 Y66.951 Z-1.771
X1.719 Y66.954 Z-1.793
X1.627 Y66.957 Z-1.8
X1.043 Y66.975 F1000.
G3 X0.44 Y66.409 I-0.018 J-0.585
G2 X-0.416 Y64.432 I-2.924 J0.091
G1 X-4.416 Y60.432
G2 X-6.484 Y59.575 I-2.068 J2.068
G1 X-20.484
G2 X-22.552 Y60.432 J2.925
G1 X-26.552 Y64.432
G2 X-27.409 Y66.5 I2.068 J2.068
G1 Y86.5
G2 X-26.552 Y88.568 I2.925
G1 X-25.409 Y89.712
Y109.5
G2 X-22.484 Y112.425 I2.925
G1 X-14.484
G2 X-11.559 Y109.5 J-2.925
G1 Y89.425
X-6.484
G2 X-4.416 Y88.568 J-2.925
G1 X-0.416 Y84.568
G2 X0.441 Y82.5 I-2.068 J-2.068
G1 Y66.5
G2 X0.44 Y66.409 I-2.925
G3 X1.006 Y65.806 I0.585 J-0.018
G1 X1.591 Y65.788
X1.682 Y65.785 Z-1.793
X1.772 Y65.782 Z-1.771
X1.856 Y65.779 Z-1.736
X1.935 Y65.777 Z-1.688
X2.004 Y65.775 Z-1.629
X2.064 Y65.773 Z-1.559
X2.112 Y65.771 Z-1.481
X2.147 Y65.77 Z-1.396
X2.168 Z-1.307
X2.176 Y65.769 Z-1.215
G0 Z5.
X2.212 Y66.939
G1 Z0.2 F1000.
Z-2.115 F333.3
X2.205 Z-2.207
X2.183 Y66.94 Z-2.296
X2.148 Y66.941 Z-2.381
X2.1 Y66.942 Z-2.459
X2.041 Y66.944 Z-2.529
X1.971 Y66.946 Z-2.588
X1.893 Y66.949 Z-2.636
X1.808 Y66.951 Z-2.671
X1.719 Y66.954 Z-2.693
X1.627 Y66.957 Z-2.7
X1.043 Y66.975 F1000.
G3 X0.44 Y66.409 I-0.018 J-0.585
G2 X-0.416 Y64.432 I-2.924 J0.091
G1 X-4.416 Y60.432
G2 X-6.484 Y59.575 I-2.068 J2.068
G1 X-20.484
G2 X-22.552 Y60.432 J2.925
G1 X-26.552 Y64.432
G2 X-27.409 Y66.5 I2.068 J2.068
G1 Y86.5
G2 X-26.552 Y88.568 I2.925
G1 X-25.409 Y89.712
Y109.5
G2 X-22.484 Y112.425 I2.925
G1 X-14.484
G2 X-11.559 Y109.5 J-2.925
G1 Y89.425
X-6.484
G2 X-4.416 Y88.568 J-2.925
G1 X-0.416 Y84.568
G2 X0.441 Y82.5 I-2.068 J-2.068
G1 Y66.5
G2 X0.44 Y66.409 I-2.925
G3 X1.006 Y65.806 I0.585 J-0.018
G1 X1.591 Y65.788
X1.682 Y65.785 Z-2.693
X1.772 Y65.782 Z-2.671
X1.856 Y65.779 Z-2.636
X1.935 Y65.777 Z-2.588
X2.004 Y65.775 Z-2.529
X2.064 Y65.773 Z-2.459
X2.112 Y65.771 Z-2.381
X2.147 Y65.77 Z-2.296
X2.168 Z-2.207
X2.176 Y65.769 Z-2.115
G0 Z5.
X2.212 Y66.939
G1 Z-0.7 F1000.
Z-3.015 F333.3
X2.205 Z-3.107
X2.183 Y66.94 Z-3.196
X2.148 Y66.941 Z-3.281
X2.1 Y66.942 Z-3.359
X2.041 Y66.944 Z-3.429
X1.971 Y66.946 Z-3.488
X1.893 Y66.949 Z-3.536
X1.808 Y66.951 Z-3.571
X1.719 Y66.954 Z-3.593
X1.627 Y66.957 Z-3.6
X1.043 Y66.975 F1000.
G3 X0.44 Y66.409 I-0.018 J-0.585
G2 X-0.416 Y64.432 I-2.924 J0.091
G1 X-4.416 Y60.432
G2 X-6.484 Y59.575 I-2.068 J2.068
G1 X-20.484
G2 X-22.552 Y60.432 J2.925
G1 X-26.552 Y64.432
G2 X-27.409 Y66.5 I2.068 J2.068
G1 Y86.5
G2 X-26.552 Y88.568 I2.925
G1 X-25.409 Y89.712
Y109.5
G2 X-22.484 Y112.425 I2.925
G1 X-14.484
G2 X-11.559 Y109.5 J-2.925
G1 Y89.425
X-6.484
G2 X-4.416 Y88.568 J-2.925
G1 X-0.416 Y84.568
G2 X0.441 Y82.5 I-2.068 J-2.068
G1 Y66.5
G2 X0.44 Y66.409 I-2.925
G3 X1.006 Y65.806 I0.585 J-0.018
G1 X1.591 Y65.788
X1.682 Y65.785 Z-3.593
X1.772 Y65.782 Z-3.571
X1.856 Y65.779 Z-3.536
X1.935 Y65.777 Z-3.488
X2.004 Y65.775 Z-3.429
X2.064 Y65.773 Z-3.359
X2.112 Y65.771 Z-3.281
X2.147 Y65.77 Z-3.196
X2.168 Z-3.107
X2.176 Y65.769 Z-3.015
G0 Z5.
X2.212 Y66.939
G1 Z-1.6 F1000.
Z-3.915 F333.3
X2.205 Z-4.007
X2.183 Y66.94 Z-4.096
X2.148 Y66.941 Z-4.181
X2.1 Y66.942 Z-4.259
X2.041 Y66.944 Z-4.329
X1.971 Y66.946 Z-4.388
X1.893 Y66.949 Z-4.436
X1.808 Y66.951 Z-4.471
X1.719 Y66.954 Z-4.493
X1.627 Y66.957 Z-4.5
X1.043 Y66.975 F1000.
G3 X0.44 Y66.409 I-0.018 J-0.585
G2 X-0.416 Y64.432 I-2.924 J0.091
G1 X-4.416 Y60.432
G2 X-6.484 Y59.575 I-2.068 J2.068
G1 X-20.484
G2 X-22.552 Y60.432 J2.925
G1 X-26.552 Y64.432
G2 X-27.409 Y66.5 I2.068 J2.068
G1 Y86.5
G2 X-26.552 Y88.568 I2.925
G1 X-25.409 Y89.712
Y109.5
G2 X-22.484 Y112.425 I2.925
G1 X-14.484
G2 X-11.559 Y109.5 J-2.925
G1 Y89.425
X-6.484
G2 X-4.416 Y88.568 J-2.925
G1 X-0.416 Y84.568
G2 X0.441 Y82.5 I-2.068 J-2.068
G1 Y66.5
G2 X0.44 Y66.409 I-2.925
G3 X1.006 Y65.806 I0.585 J-0.018
G1 X1.591 Y65.788
X1.682 Y65.785 Z-4.493
X1.772 Y65.782 Z-4.471
X1.856 Y65.779 Z-4.436
X1.935 Y65.777 Z-4.388
X2.004 Y65.775 Z-4.329
X2.064 Y65.773 Z-4.259
X2.112 Y65.771 Z-4.181
X2.147 Y65.77 Z-4.096
X2.168 Z-4.007
X2.176 Y65.769 Z-3.915
G0 Z5.
X2.212 Y66.939
G1 Z-2.5 F1000.
Z-4.815 F333.3
X2.205 Z-4.907
X2.183 Y66.94 Z-4.996
X2.148 Y66.941 Z-5.081
X2.1 Y66.942 Z-5.159
X2.041 Y66.944 Z-5.229
X1.971 Y66.946 Z-5.288
X1.893 Y66.949 Z-5.336
X1.808 Y66.951 Z-5.371
X1.719 Y66.954 Z-5.393
X1.627 Y66.957 Z-5.4
X1.043 Y66.975 F1000.
G3 X0.44 Y66.409 I-0.018 J-0.585
G2 X-0.416 Y64.432 I-2.924 J0.091
G1 X-4.416 Y60.432
G2 X-6.484 Y59.575 I-2.068 J2.068
G1 X-20.484
G2 X-22.552 Y60.432 J2.925
G1 X-26.552 Y64.432
G2 X-27.409 Y66.5 I2.068 J2.068
G1 Y86.5
G2 X-26.552 Y88.568 I2.925
G1 X-25.409 Y89.712
Y109.5
G2 X-22.484 Y112.425 I2.925
G1 X-14.484
G2 X-11.559 Y109.5 J-2.925
G1 Y89.425
X-6.484
G2 X-4.416 Y88.568 J-2.925
G1 X-0.416 Y84.568
G2 X0.441 Y82.5 I-2.068 J-2.068
G1 Y66.5
G2 X0.44 Y66.409 I-2.925
G3 X1.006 Y65.806 I0.585 J-0.018
G1 X1.591 Y65.788
X1.682 Y65.785 Z-5.393
X1.772 Y65.782 Z-5.371
X1.856 Y65.779 Z-5.336
X1.935 Y65.777 Z-5.288
X2.004 Y65.775 Z-5.229
X2.064 Y65.773 Z-5.159
X2.112 Y65.771 Z-5.081
X2.147 Y65.77 Z-4.996
X2.168 Z-4.907
X2.176 Y65.769 Z-4.815
G0 Z5.
X2.212 Y66.939
G1 Z-3.4 F1000.
Z-5.715 F333.3
X2.205 Z-5.807
X2.183 Y66.94 Z-5.896
X2.148 Y66.941 Z-5.981
X2.1 Y66.942 Z-6.059
X2.041 Y66.944 Z-6.129
X1.971 Y66.946 Z-6.188
X1.893 Y66.949 Z-6.236
X1.808 Y66.951 Z-6.271
X1.719 Y66.954 Z-6.293
X1.627 Y66.957 Z-6.3
X1.043 Y66.975 F1000.
G3 X0.44 Y66.409 I-0.018 J-0.585
G2 X-0.416 Y64.432 I-2.924 J0.091
G1 X-4.416 Y60.432
G2 X-6.484 Y59.575 I-2.068 J2.068
G1 X-20.484
G2 X-22.552 Y60.432 J2.925
G1 X-26.552 Y64.432
G2 X-27.409 Y66.5 I2.068 J2.068
G1 Y86.5
G2 X-26.552 Y88.568 I2.925
G1 X-25.409 Y89.712
Y109.5
G2 X-22.484 Y112.425 I2.925
G1 X-14.484
G2 X-11.559 Y109.5 J-2.925
G1 Y89.425
X-6.484
G2 X-4.416 Y88.568 J-2.925
G1 X-0.416 Y84.568
G2 X0.441 Y82.5 I-2.068 J-2.068
G1 Y66.5
G2 X0.44 Y66.409 I-2.925
G3 X1.006 Y65.806 I0.585 J-0.018
G1 X1.591 Y65.788
X1.682 Y65.785 Z-6.293
X1.772 Y65.782 Z-6.271
X1.856 Y65.779 Z-6.236
X1.935 Y65.777 Z-6.188
X2.004 Y65.775 Z-6.129
X2.064 Y65.773 Z-6.059
X2.112 Y65.771 Z-5.981
X2.147 Y65.77 Z-5.896
X2.168 Z-5.807
X2.176 Y65.769 Z-5.715
G0 Z5.
X2.212 Y66.939
G1 Z-4.3 F1000.
Z-6.615 F333.3
X2.205 Z-6.707
X2.183 Y66.94 Z-6.796
X2.148 Y66.941 Z-6.881
X2.1 Y66.942 Z-6.959
X2.041 Y66.944 Z-7.029
X1.971 Y66.946 Z-7.088
X1.893 Y66.949 Z-7.136
X1.808 Y66.951 Z-7.171
X1.719 Y66.954 Z-7.193
X1.627 Y66.957 Z-7.2
X1.043 Y66.975 F1000.
G3 X0.44 Y66.409 I-0.018 J-0.585
G2 X-0.416 Y64.432 I-2.924 J0.091
G1 X-4.416 Y60.432
G2 X-6.484 Y59.575 I-2.068 J2.068
G1 X-20.484
G2 X-22.552 Y60.432 J2.925
G1 X-23.777 Y61.656
Z-7.1
X-26.552 Y64.432
G2 X-27.409 Y66.5 I2.068 J2.068
G1 Y69.126
Z-7.2 F333.3
Y86.5 F1000.
G2 X-26.552 Y88.568 I2.925
G1 X-25.409 Y89.712
Y105.575
Z-7.1
Y109.5
G2 X-22.484 Y112.425 I2.925
G1 X-19.559
Z-7.2 F333.3
X-14.484 F1000.
G2 X-11.559 Y109.5 J-2.925
G1 Y89.425
X-10.409
Z-7.1
X-6.484
G2 X-4.416 Y88.568 J-2.925
G1 X-2.559 Y86.712
Z-7.2 F333.3
X-0.416 Y84.568 F1000.
G2 X0.441 Y82.5 I-2.068 J-2.068
G1 Y66.5
G2 X0.44 Y66.409 I-2.925
G3 X1.006 Y65.806 I0.585 J-0.018
G1 X1.591 Y65.788
X1.682 Y65.785 Z-7.193
X1.772 Y65.782 Z-7.171
X1.856 Y65.779 Z-7.136
X1.935 Y65.777 Z-7.088
X2.004 Y65.775 Z-7.029
X2.064 Y65.773 Z-6.959
X2.112 Y65.771 Z-6.881
X2.147 Y65.77 Z-6.796
X2.168 Z-6.707
X2.176 Y65.769 Z-6.615
G0 Z5.
X2.212 Y66.939
G1 Z-5.2 F1000.
Z-7.515 F333.3
X2.205 Z-7.607
X2.183 Y66.94 Z-7.696
X2.148 Y66.941 Z-7.781
X2.1 Y66.942 Z-7.859
X2.041 Y66.944 Z-7.929
X1.971 Y66.946 Z-7.988
X1.893 Y66.949 Z-8.036
X1.808 Y66.951 Z-8.071
X1.719 Y66.954 Z-8.093
X1.627 Y66.957 Z-8.1
X1.043 Y66.975 F1000.
G3 X0.44 Y66.409 I-0.018 J-0.585
G2 X-0.416 Y64.432 I-2.924 J0.091
G1 X-4.416 Y60.432
G2 X-6.484 Y59.575 I-2.068 J2.068
G1 X-20.484
G2 X-22.552 Y60.432 J2.925
G1 X-23.777 Y61.656
Z-7.1
X-26.552 Y64.432
G2 X-27.409 Y66.5 I2.068 J2.068
G1 Y69.126
Z-8.1 F333.3
Y86.5 F1000.
G2 X-26.552 Y88.568 I2.925
G1 X-25.409 Y89.712
Y105.575
Z-7.1
Y109.5
G2 X-22.484 Y112.425 I2.925
G1 X-19.559
Z-8.1 F333.3
X-14.484 F1000.
G2 X-11.559 Y109.5 J-2.925
G1 Y89.425
X-10.409
Z-7.1
X-6.484
G2 X-4.416 Y88.568 J-2.925
G1 X-2.559 Y86.712
Z-8.1 F333.3
X-0.416 Y84.568 F1000.
G2 X0.441 Y82.5 I-2.068 J-2.068
G1 Y66.5
G2 X0.44 Y66.409 I-2.925
G3 X1.006 Y65.806 I0.585 J-0.018
G1 X1.591 Y65.788
X1.682 Y65.785 Z-8.093
X1.772 Y65.782 Z-8.071
X1.856 Y65.779 Z-8.036
X1.935 Y65.777 Z-7.988
X2.004 Y65.775 Z-7.929
X2.064 Y65.773 Z-7.859
X2.112 Y65.771 Z-7.781
X2.147 Y65.77 Z-7.696
X2.168 Z-7.607
X2.176 Y65.769 Z-7.515
G0 Z5.
X-314.085 Y54.133
G1 Z2. F1000.
Z-0.315 F333.3
G19 G2 Y53.548 Z-0.9 J-0.585
G1 Y52.963 F1000.
G17 G3 X-313.5 Y52.378 I0.585
G1 X-292.5
G2 X-289.575 Y49.453 J-2.925
G1 Y9.453
G2 X-292.5 Y6.528 I-2.925
G1 X-313.5
G2 X-316.425 Y9.453 J2.925
G1 Y49.453
G2 X-313.5 Y52.378 I2.925
G3 X-312.915 Y52.963 J0.585
G1 Y53.548
G19 G3 Y54.133 Z-0.315 K0.585
G0 Z5.
X-314.085
G1 Z1.1 F1000.
Z-1.215 F333.3
G2 Y53.548 Z-1.8 J-0.585
G1 Y52.963 F1000.
G17 G3 X-313.5 Y52.378 I0.585
G1 X-292.5
G2 X-289.575 Y49.453 J-2.925
G1 Y9.453
G2 X-292.5 Y6.528 I-2.925
G1 X-313.5
G2 X-316.425 Y9.453 J2.925
G1 Y49.453
G2 X-313.5 Y52.378 I2.925
G3 X-312.915 Y52.963 J0.585
G1 Y53.548
G19 G3 Y54.133 Z-1.215 K0.585
G0 Z5.
X-314.085
G1 Z0.2 F1000.
Z-2.115 F333.3
G2 Y53.548 Z-2.7 J-0.585
G1 Y52.963 F1000.
G17 G3 X-313.5 Y52.378 I0.585
G1 X-292.5
G2 X-289.575 Y49.453 J-2.925
G1 Y9.453
G2 X-292.5 Y6.528 I-2.925
G1 X-313.5
G2 X-316.425 Y9.453 J2.925
G1 Y49.453
G2 X-313.5 Y52.378 I2.925
G3 X-312.915 Y52.963 J0.585
G1 Y53.548
G19 G3 Y54.133 Z-2.115 K0.585
G0 Z5.
X-314.085
G1 Z-0.7 F1000.
Z-3.015 F333.3
G2 Y53.548 Z-3.6 J-0.585
G1 Y52.963 F1000.
G17 G3 X-313.5 Y52.378 I0.585
G1 X-292.5
G2 X-289.575 Y49.453 J-2.925
G1 Y9.453
G2 X-292.5 Y6.528 I-2.925
G1 X-313.5
G2 X-316.425 Y9.453 J2.925
G1 Y49.453
G2 X-313.5 Y52.378 I2.925
G3 X-312.915 Y52.963 J0.585
G1 Y53.548
G19 G3 Y54.133 Z-3.015 K0.585
G0 Z5.
X-314.085
G1 Z-1.6 F1000.
Z-3.915 F333.3
G2 Y53.548 Z-4.5 J-0.585
G1 Y52.963 F1000.
G17 G3 X-313.5 Y52.378 I0.585
G1 X-292.5
G2 X-289.575 Y49.453 J-2.925
G1 Y9.453
G2 X-292.5 Y6.528 I-2.925
G1 X-313.5
G2 X-316.425 Y9.453 J2.925
G1 Y49.453
G2 X-313.5 Y52.378 I2.925
G3 X-312.915 Y52.963 J0.585
G1 Y53.548
G19 G3 Y54.133 Z-3.915 K0.585
G0 Z5.
X-314.085
G1 Z-2.5 F1000.
Z-4.815 F333.3
G2 Y53.548 Z-5.4 J-0.585
G1 Y52.963 F1000.
G17 G3 X-313.5 Y52.378 I0.585
G1 X-292.5
G2 X-289.575 Y49.453 J-2.925
G1 Y9.453
G2 X-292.5 Y6.528 I-2.925
G1 X-313.5
G2 X-316.425 Y9.453 J2.925
G1 Y49.453
G2 X-313.5 Y52.378 I2.925
G3 X-312.915 Y52.963 J0.585
G1 Y53.548
G19 G3 Y54.133 Z-4.815 K0.585
G0 Z5.
X-314.085
G1 Z-3.4 F1000.
Z-5.715 F333.3
G2 Y53.548 Z-6.3 J-0.585
G1 Y52.963 F1000.
G17 G3 X-313.5 Y52.378 I0.585
G1 X-292.5
G2 X-289.575 Y49.453 J-2.925
G1 Y9.453
G2 X-292.5 Y6.528 I-2.925
G1 X-313.5
G2 X-316.425 Y9.453 J2.925
G1 Y49.453
G2 X-313.5 Y52.378 I2.925
G3 X-312.915 Y52.963 J0.585
G1 Y53.548
G19 G3 Y54.133 Z-5.715 K0.585
G0 Z5.
X-314.085
G1 Z-4.3 F1000.
Z-6.615 F333.3
G2 Y53.548 Z-7.2 J-0.585
G1 Y52.963 F1000.
G17 G3 X-313.5 Y52.378 I0.585
G1 X-308.321
Z-7.1
X-300.471
Z-7.2 F333.3
X-292.5 F1000.
G2 X-289.575 Y49.453 J-2.925
G1 Y43.884
Z-7.1
Y36.034
Z-7.2 F333.3
Y19.759 F1000.
Z-7.1
Y11.909
Z-7.2 F333.3
Y9.453 F1000.
G2 X-292.5 Y6.528 I-2.925
G1 X-313.5
G2 X-316.425 Y9.453 J2.925
G1 Y49.453
G2 X-313.5 Y52.378 I2.925
G3 X-312.915 Y52.963 J0.585
G1 Y53.548
G19 G3 Y54.133 Z-6.615 K0.585
G0 Z5.
X-314.085
G1 Z-5.2 F1000.
Z-7.515 F333.3
G2 Y53.548 Z-8.1 J-0.585
G1 Y52.963 F1000.
G17 G3 X-313.5 Y52.378 I0.585
G1 X-308.321
Z-7.1
X-300.471
Z-8.1 F333.3
X-292.5 F1000.
G2 X-289.575 Y49.453 J-2.925
G1 Y43.884
Z-7.1
Y36.034
Z-8.1 F333.3
Y19.759 F1000.
Z-7.1
Y11.909
Z-8.1 F333.3
Y9.453 F1000.
G2 X-292.5 Y6.528 I-2.925
G1 X-313.5
G2 X-316.425 Y9.453 J2.925
G1 Y49.453
G2 X-313.5 Y52.378 I2.925
G3 X-312.915 Y52.963 J0.585
G1 Y53.548
G19 G3 Y54.133 Z-7.515 K0.585
G0 Z15.
G17
G91
G28 Z0.
M5
G0
G28 X0. Y0.
M30
%
