%
O00001001
(T1  D=4.5 CR=0. - ZMIN=-1. - FLAT END MILL)
G90 G94 G17
G21
G91
G28 Z0.
G90
(2D POCKET1)
T1 M6
S5000 M3
G54
G0 X20.723 Y-21.248
G43 Z15. H1
G0 Z5.
G1 Z1.5 F500.
Z-0.05
X20.717 Y-21.244 Z-0.128
X20.7 Y-21.233 Z-0.204
X20.672 Y-21.216 Z-0.275
X20.633 Y-21.193 Z-0.339
X20.586 Y-21.164 Z-0.395
X20.531 Y-21.13 Z-0.44
X20.471 Y-21.093 Z-0.473
X20.406 Y-21.054 Z-0.493
X20.339 Y-21.013 Z-0.5
G3 X18.166 Y-21.188 I-0.966 J-1.583
G1 X17.774 Y-21.525
G2 X17.747 Y-21.547 I-0.596 J0.695
G1 X16.937 Y-22.19
G2 X16.909 Y-22.211 I-0.569 J0.717
G1 X16.074 Y-22.822
G2 X16.046 Y-22.842 I-0.541 J0.738
G1 X15.188 Y-23.421
G2 X15.159 Y-23.44 I-0.512 J0.758
G1 X14.28 Y-23.986
G2 X14.25 Y-24.004 I-0.483 J0.777
G1 X13.351 Y-24.515
G2 X13.32 Y-24.532 I-0.452 J0.795
G1 X12.402 Y-25.009
G2 X12.371 Y-25.024 I-0.422 J0.812
G1 X11.435 Y-25.465
G2 X11.403 Y-25.48 I-0.39 J0.828
G1 X10.451 Y-25.885
G2 X10.419 Y-25.898 I-0.358 J0.842
G1 X9.452 Y-26.266
G2 X9.419 Y-26.278 I-0.326 J0.855
G1 X8.439 Y-26.609
G2 X8.406 Y-26.619 I-0.293 J0.867
G1 X7.414 Y-26.912
G2 X7.38 Y-26.922 I-0.259 J0.877
G1 X6.378 Y-27.177
G2 X6.343 Y-27.185 I-0.226 J0.887
G1 X5.332 Y-27.401
G2 X5.298 Y-27.408 I-0.191 J0.895
G1 X4.279 Y-27.585
G2 X4.244 Y-27.59 I-0.157 J0.901
G1 X3.219 Y-27.729
G2 X3.184 Y-27.733 I-0.122 J0.907
G1 X2.154 Y-27.832
G2 X2.119 Y-27.834 I-0.087 J0.911
G1 X1.087 Y-27.894
G2 X1.052 Y-27.895 I-0.053 J0.913
G1 X0.018 Y-27.915
G2 X-0.018 I-0.018 J0.915
G1 X-1.052 Y-27.895
G2 X-1.087 Y-27.894 I0.018 J0.915
G1 X-2.119 Y-27.834
G2 X-2.154 Y-27.832 I0.053 J0.913
G1 X-3.184 Y-27.733
G2 X-3.219 Y-27.729 I0.087 J0.911
G1 X-4.244 Y-27.59
G2 X-4.279 Y-27.585 I0.122 J0.907
G1 X-5.298 Y-27.408
G2 X-5.332 Y-27.401 I0.157 J0.901
G1 X-6.343 Y-27.185
G2 X-6.378 Y-27.177 I0.191 J0.895
G1 X-7.38 Y-26.922
G2 X-7.414 Y-26.912 I0.226 J0.887
G1 X-8.406 Y-26.619
G2 X-8.439 Y-26.609 I0.259 J0.877
G1 X-9.419 Y-26.278
G2 X-9.452 Y-26.266 I0.293 J0.867
G1 X-10.419 Y-25.898
G2 X-10.451 Y-25.885 I0.326 J0.855
G1 X-11.403 Y-25.48
G2 X-11.435 Y-25.465 I0.358 J0.842
G1 X-12.371 Y-25.024
G2 X-12.402 Y-25.009 I0.39 J0.828
G1 X-13.32 Y-24.532
G2 X-13.351 Y-24.515 I0.422 J0.812
G1 X-14.25 Y-24.004
G2 X-14.28 Y-23.986 I0.452 J0.795
G1 X-15.159 Y-23.44
G2 X-15.188 Y-23.421 I0.483 J0.777
G1 X-16.046 Y-22.842
G2 X-16.074 Y-22.822 I0.512 J0.758
G1 X-16.909 Y-22.211
G2 X-16.937 Y-22.19 I0.541 J0.738
G1 X-17.747 Y-21.547
G2 X-17.774 Y-21.525 I0.569 J0.717
G1 X-18.559 Y-20.852
G2 X-18.586 Y-20.828 I0.596 J0.695
G1 X-19.344 Y-20.125
G2 X-19.37 Y-20.101 I0.622 J0.671
G1 X-20.101 Y-19.37
G2 X-20.125 Y-19.344 I0.647 J0.647
G1 X-20.828 Y-18.586
G2 X-20.852 Y-18.559 I0.671 J0.622
G1 X-21.525 Y-17.774
G2 X-21.547 Y-17.747 I0.695 J0.596
G1 X-22.19 Y-16.937
G2 X-22.211 Y-16.909 I0.717 J0.569
G1 X-22.822 Y-16.074
G2 X-22.842 Y-16.046 I0.738 J0.541
G1 X-23.421 Y-15.188
G2 X-23.44 Y-15.159 I0.758 J0.512
G1 X-23.986 Y-14.28
G2 X-24.004 Y-14.25 I0.777 J0.483
G1 X-24.515 Y-13.351
G2 X-24.532 Y-13.32 I0.795 J0.452
G1 X-25.009 Y-12.402
G2 X-25.024 Y-12.371 I0.812 J0.422
G1 X-25.465 Y-11.435
G2 X-25.48 Y-11.403 I0.828 J0.39
G1 X-25.885 Y-10.451
G2 X-25.898 Y-10.419 I0.842 J0.358
G1 X-26.266 Y-9.452
G2 X-26.278 Y-9.419 I0.855 J0.326
G1 X-26.609 Y-8.439
G2 X-26.619 Y-8.406 I0.867 J0.293
G1 X-26.912 Y-7.414
G2 X-26.922 Y-7.38 I0.877 J0.259
G1 X-27.177 Y-6.378
G2 X-27.185 Y-6.343 I0.887 J0.226
G1 X-27.401 Y-5.332
G2 X-27.408 Y-5.298 I0.895 J0.191
G1 X-27.585 Y-4.279
G2 X-27.59 Y-4.244 I0.901 J0.157
G1 X-27.729 Y-3.219
G2 X-27.733 Y-3.184 I0.907 J0.122
G1 X-27.832 Y-2.154
G2 X-27.834 Y-2.119 I0.911 J0.087
G1 X-27.894 Y-1.087
G2 X-27.895 Y-1.052 I0.913 J0.053
G1 X-27.915 Y-0.018
G2 Y0.018 I0.915 J0.018
G1 X-27.895 Y1.052
G2 X-27.894 Y1.087 I0.915 J-0.018
G1 X-27.834 Y2.119
G2 X-27.832 Y2.154 I0.913 J-0.053
G1 X-27.733 Y3.184
G2 X-27.729 Y3.219 I0.911 J-0.087
G1 X-27.59 Y4.244
G2 X-27.585 Y4.279 I0.907 J-0.122
G1 X-27.408 Y5.298
G2 X-27.401 Y5.332 I0.901 J-0.157
G1 X-27.185 Y6.343
G2 X-27.177 Y6.378 I0.895 J-0.191
G1 X-26.922 Y7.38
G2 X-26.912 Y7.414 I0.887 J-0.226
G1 X-26.619 Y8.406
G2 X-26.609 Y8.439 I0.877 J-0.259
G1 X-26.278 Y9.419
G2 X-26.266 Y9.452 I0.867 J-0.293
G1 X-25.898 Y10.419
G2 X-25.885 Y10.451 I0.855 J-0.326
G1 X-25.48 Y11.403
G2 X-25.465 Y11.435 I0.842 J-0.358
G1 X-25.024 Y12.371
G2 X-25.009 Y12.402 I0.828 J-0.39
G1 X-24.532 Y13.32
G2 X-24.515 Y13.351 I0.812 J-0.422
G1 X-24.004 Y14.25
G2 X-23.986 Y14.28 I0.795 J-0.452
G1 X-23.44 Y15.159
G2 X-23.421 Y15.188 I0.777 J-0.483
G1 X-22.842 Y16.046
G2 X-22.822 Y16.074 I0.758 J-0.512
G1 X-22.211 Y16.909
G2 X-22.19 Y16.937 I0.738 J-0.541
G1 X-21.547 Y17.747
G2 X-21.525 Y17.774 I0.717 J-0.569
G1 X-20.852 Y18.559
G2 X-20.828 Y18.586 I0.695 J-0.596
G1 X-20.125 Y19.344
G2 X-20.101 Y19.37 I0.671 J-0.622
G1 X-19.37 Y20.101
G2 X-19.344 Y20.125 I0.647 J-0.647
G1 X-18.586 Y20.828
G2 X-18.559 Y20.852 I0.622 J-0.671
G1 X-17.774 Y21.525
G2 X-17.747 Y21.547 I0.596 J-0.695
G1 X-16.937 Y22.19
G2 X-16.909 Y22.211 I0.569 J-0.717
G1 X-16.074 Y22.822
G2 X-16.046 Y22.842 I0.541 J-0.738
G1 X-15.188 Y23.421
G2 X-15.159 Y23.44 I0.512 J-0.758
G1 X-14.28 Y23.986
G2 X-14.25 Y24.004 I0.483 J-0.777
G1 X-13.351 Y24.515
G2 X-13.32 Y24.532 I0.452 J-0.795
G1 X-12.402 Y25.009
G2 X-12.371 Y25.024 I0.422 J-0.812
G1 X-11.435 Y25.465
G2 X-11.403 Y25.48 I0.39 J-0.828
G1 X-10.451 Y25.885
G2 X-10.419 Y25.898 I0.358 J-0.842
G1 X-9.452 Y26.266
G2 X-9.419 Y26.278 I0.326 J-0.855
G1 X-8.439 Y26.609
G2 X-8.406 Y26.619 I0.293 J-0.867
G1 X-7.414 Y26.912
G2 X-7.38 Y26.922 I0.259 J-0.877
G1 X-6.378 Y27.177
G2 X-6.343 Y27.185 I0.226 J-0.887
G1 X-5.332 Y27.401
G2 X-5.298 Y27.408 I0.191 J-0.895
G1 X-4.279 Y27.585
G2 X-4.244 Y27.59 I0.157 J-0.901
G1 X-3.219 Y27.729
G2 X-3.184 Y27.733 I0.122 J-0.907
G1 X-2.154 Y27.832
G2 X-2.119 Y27.834 I0.087 J-0.911
G1 X-1.087 Y27.894
G2 X-1.052 Y27.895 I0.053 J-0.913
G1 X-0.018 Y27.915
G2 X0.018 I0.018 J-0.915
G1 X1.052 Y27.895
G2 X1.087 Y27.894 I-0.018 J-0.915
G1 X2.119 Y27.834
G2 X2.154 Y27.832 I-0.053 J-0.913
G1 X3.184 Y27.733
G2 X3.219 Y27.729 I-0.087 J-0.911
G1 X4.244 Y27.59
G2 X4.279 Y27.585 I-0.122 J-0.907
G1 X5.298 Y27.408
G2 X5.332 Y27.401 I-0.157 J-0.901
G1 X6.343 Y27.185
G2 X6.378 Y27.177 I-0.191 J-0.895
G1 X7.38 Y26.922
G2 X7.414 Y26.912 I-0.226 J-0.887
G1 X8.406 Y26.619
G2 X8.439 Y26.609 I-0.259 J-0.877
G1 X9.419 Y26.278
G2 X9.452 Y26.266 I-0.293 J-0.867
G1 X10.419 Y25.898
G2 X10.451 Y25.885 I-0.326 J-0.855
G1 X11.403 Y25.48
G2 X11.435 Y25.465 I-0.358 J-0.842
G1 X12.371 Y25.024
G2 X12.402 Y25.009 I-0.39 J-0.828
G1 X13.32 Y24.532
G2 X13.351 Y24.515 I-0.422 J-0.812
G1 X14.25 Y24.004
G2 X14.28 Y23.986 I-0.452 J-0.795
G1 X15.159 Y23.44
G2 X15.188 Y23.421 I-0.483 J-0.777
G1 X16.046 Y22.842
G2 X16.074 Y22.822 I-0.512 J-0.758
G1 X16.909 Y22.211
G2 X16.937 Y22.19 I-0.541 J-0.738
G1 X17.747 Y21.547
G2 X17.774 Y21.525 I-0.569 J-0.717
G1 X18.559 Y20.852
G2 X18.586 Y20.828 I-0.596 J-0.695
G1 X19.344 Y20.125
G2 X19.37 Y20.101 I-0.622 J-0.671
G1 X20.101 Y19.37
G2 X20.125 Y19.344 I-0.647 J-0.647
G1 X20.828 Y18.586
G2 X20.852 Y18.559 I-0.671 J-0.622
G1 X21.525 Y17.774
G2 X21.547 Y17.747 I-0.695 J-0.596
G1 X22.19 Y16.937
G2 X22.211 Y16.909 I-0.717 J-0.569
G1 X22.822 Y16.074
G2 X22.842 Y16.046 I-0.738 J-0.541
G1 X23.421 Y15.188
G2 X23.44 Y15.159 I-0.758 J-0.512
G1 X23.986 Y14.28
G2 X24.004 Y14.25 I-0.777 J-0.483
G1 X24.515 Y13.351
G2 X24.532 Y13.32 I-0.795 J-0.452
G1 X25.009 Y12.402
G2 X25.024 Y12.371 I-0.812 J-0.422
G1 X25.465 Y11.435
G2 X25.48 Y11.403 I-0.828 J-0.39
G1 X25.885 Y10.451
G2 X25.898 Y10.419 I-0.842 J-0.358
G1 X26.266 Y9.452
G2 X26.278 Y9.419 I-0.855 J-0.326
G1 X26.609 Y8.439
G2 X26.619 Y8.406 I-0.867 J-0.293
G1 X26.912 Y7.414
G2 X26.922 Y7.38 I-0.877 J-0.259
G1 X27.177 Y6.378
G2 X27.185 Y6.343 I-0.887 J-0.226
G1 X27.401 Y5.332
G2 X27.408 Y5.298 I-0.895 J-0.191
G1 X27.585 Y4.279
G2 X27.59 Y4.244 I-0.901 J-0.157
G1 X27.729 Y3.219
G2 X27.733 Y3.184 I-0.907 J-0.122
G1 X27.832 Y2.154
G2 X27.834 Y2.119 I-0.911 J-0.087
G1 X27.894 Y1.087
G2 X27.895 Y1.052 I-0.913 J-0.053
G1 X27.915 Y0.018
G2 Y-0.018 I-0.915 J-0.018
G1 X27.895 Y-1.052
G2 X27.894 Y-1.087 I-0.915 J0.018
G1 X27.834 Y-2.119
G2 X27.832 Y-2.154 I-0.913 J0.053
G1 X27.733 Y-3.184
G2 X27.729 Y-3.219 I-0.911 J0.087
G1 X27.59 Y-4.244
G2 X27.585 Y-4.279 I-0.907 J0.122
G1 X27.408 Y-5.298
G2 X27.401 Y-5.332 I-0.901 J0.157
G1 X27.185 Y-6.343
G2 X27.177 Y-6.378 I-0.895 J0.191
G1 X26.922 Y-7.38
G2 X26.912 Y-7.414 I-0.887 J0.226
G1 X26.619 Y-8.406
G2 X26.609 Y-8.439 I-0.877 J0.259
G1 X26.278 Y-9.419
G2 X26.266 Y-9.452 I-0.867 J0.293
G1 X25.898 Y-10.419
G2 X25.885 Y-10.451 I-0.855 J0.326
G1 X25.48 Y-11.403
G2 X25.465 Y-11.435 I-0.842 J0.358
G1 X25.024 Y-12.371
G2 X25.009 Y-12.402 I-0.828 J0.39
G1 X24.532 Y-13.32
G2 X24.515 Y-13.351 I-0.812 J0.422
G1 X24.004 Y-14.25
G2 X23.986 Y-14.28 I-0.795 J0.452
G1 X23.44 Y-15.159
G2 X23.421 Y-15.188 I-0.777 J0.483
G1 X22.842 Y-16.046
G2 X22.822 Y-16.074 I-0.758 J0.512
G1 X22.211 Y-16.909
G2 X22.19 Y-16.937 I-0.738 J0.541
G1 X21.547 Y-17.747
G2 X21.525 Y-17.774 I-0.717 J0.569
G1 X20.852 Y-18.559
G2 X20.828 Y-18.586 I-0.695 J0.596
G1 X20.125 Y-19.344
G2 X20.101 Y-19.37 I-0.671 J0.622
G1 X19.37 Y-20.101
G2 X19.344 Y-20.125 I-0.647 J0.647
G1 X18.586 Y-20.828
G2 X18.559 Y-20.852 I-0.622 J0.671
G1 X18.166 Y-21.188
G2 X15.377 Y-21.478 I-1.605 J1.871
G3 X12.572 Y-21.516 I-1.369 J-2.496
G2 X-12.572 Y21.516 I-12.572 J21.516
X12.572 Y-21.516 I12.572 J-21.516
X9.761 Y-21.295 I-1.246 J2.132
G3 X6.987 Y-20.787 I-1.846 J-2.253
G2 X-6.987 Y20.787 I-6.987 J20.787
X6.987 Y-20.787 I6.987 J-20.787
X4.264 Y-19.985 I-0.789 J2.347
G3 X1.655 Y-18.868 I-2.347 J-1.874
G2 X-1.655 Y18.868 I-1.655 J18.868
X1.655 Y-18.868 I1.655 J-18.868
X-0.821 Y-17.426 I-0.217 J2.474
G3 X-3.071 Y-15.652 I-2.853 J-1.304
G2 X3.071 Y15.652 I3.071 J15.652
X-3.071 Y-15.652 I-3.071 J-15.652
X-5.062 Y-13.54 I0.48 J2.448
G3 X-6.661 Y-11.117 I-3.321 J-0.452
G2 X6.661 Y11.117 I6.661 J11.117
X-6.661 Y-11.117 I-6.661 J-11.117
X-7.816 Y-8.39 I1.291 J2.155
G3 X-8.333 Y-5.474 I-3.655 J0.856
G2 X8.333 Y5.474 I8.333 J5.474
X-8.333 Y-5.474 I-8.333 J-5.474
X-8.128 Y-2.412 I2.124 J1.395
G3 X-6.967 Y0.428 I-3.61 J3.133
G2 X6.967 Y-0.428 I6.967 J-0.428
X-6.967 Y0.428 I-6.967 J0.428
X-3.387 Y1.871 Z-0.564 I2.133 J-0.131 F166.7
G1 X18.222 Y-17.992 Z-0.952
G2 X18.166 Y-21.188 Z-1. I-1.447 J-1.574
G1 X17.774 Y-21.525 F500.
G2 X17.747 Y-21.547 I-0.596 J0.695
G1 X16.937 Y-22.19
G2 X16.909 Y-22.211 I-0.569 J0.717
G1 X16.074 Y-22.822
G2 X16.046 Y-22.842 I-0.541 J0.738
G1 X15.188 Y-23.421
G2 X15.159 Y-23.44 I-0.512 J0.758
G1 X14.28 Y-23.986
G2 X14.25 Y-24.004 I-0.483 J0.777
G1 X13.351 Y-24.515
G2 X13.32 Y-24.532 I-0.452 J0.795
G1 X12.402 Y-25.009
G2 X12.371 Y-25.024 I-0.422 J0.812
G1 X11.435 Y-25.465
G2 X11.403 Y-25.48 I-0.39 J0.828
G1 X10.451 Y-25.885
G2 X10.419 Y-25.898 I-0.358 J0.842
G1 X9.452 Y-26.266
G2 X9.419 Y-26.278 I-0.326 J0.855
G1 X8.439 Y-26.609
G2 X8.406 Y-26.619 I-0.293 J0.867
G1 X7.414 Y-26.912
G2 X7.38 Y-26.922 I-0.259 J0.877
G1 X6.378 Y-27.177
G2 X6.343 Y-27.185 I-0.226 J0.887
G1 X5.332 Y-27.401
G2 X5.298 Y-27.408 I-0.191 J0.895
G1 X4.279 Y-27.585
G2 X4.244 Y-27.59 I-0.157 J0.901
G1 X3.219 Y-27.729
G2 X3.184 Y-27.733 I-0.122 J0.907
G1 X2.154 Y-27.832
G2 X2.119 Y-27.834 I-0.087 J0.911
G1 X1.087 Y-27.894
G2 X1.052 Y-27.895 I-0.053 J0.913
G1 X0.018 Y-27.915
G2 X-0.018 I-0.018 J0.915
G1 X-1.052 Y-27.895
G2 X-1.087 Y-27.894 I0.018 J0.915
G1 X-2.119 Y-27.834
G2 X-2.154 Y-27.832 I0.053 J0.913
G1 X-3.184 Y-27.733
G2 X-3.219 Y-27.729 I0.087 J0.911
G1 X-4.244 Y-27.59
G2 X-4.279 Y-27.585 I0.122 J0.907
G1 X-5.298 Y-27.408
G2 X-5.332 Y-27.401 I0.157 J0.901
G1 X-6.343 Y-27.185
G2 X-6.378 Y-27.177 I0.191 J0.895
G1 X-7.38 Y-26.922
G2 X-7.414 Y-26.912 I0.226 J0.887
G1 X-8.406 Y-26.619
G2 X-8.439 Y-26.609 I0.259 J0.877
G1 X-9.419 Y-26.278
G2 X-9.452 Y-26.266 I0.293 J0.867
G1 X-10.419 Y-25.898
G2 X-10.451 Y-25.885 I0.326 J0.855
G1 X-11.403 Y-25.48
G2 X-11.435 Y-25.465 I0.358 J0.842
G1 X-12.371 Y-25.024
G2 X-12.402 Y-25.009 I0.39 J0.828
G1 X-13.32 Y-24.532
G2 X-13.351 Y-24.515 I0.422 J0.812
G1 X-14.25 Y-24.004
G2 X-14.28 Y-23.986 I0.452 J0.795
G1 X-15.159 Y-23.44
G2 X-15.188 Y-23.421 I0.483 J0.777
G1 X-16.046 Y-22.842
G2 X-16.074 Y-22.822 I0.512 J0.758
G1 X-16.909 Y-22.211
G2 X-16.937 Y-22.19 I0.541 J0.738
G1 X-17.747 Y-21.547
G2 X-17.774 Y-21.525 I0.569 J0.717
G1 X-18.559 Y-20.852
G2 X-18.586 Y-20.828 I0.596 J0.695
G1 X-19.344 Y-20.125
G2 X-19.37 Y-20.101 I0.622 J0.671
G1 X-20.101 Y-19.37
G2 X-20.125 Y-19.344 I0.647 J0.647
G1 X-20.828 Y-18.586
G2 X-20.852 Y-18.559 I0.671 J0.622
G1 X-21.525 Y-17.774
G2 X-21.547 Y-17.747 I0.695 J0.596
G1 X-22.19 Y-16.937
G2 X-22.211 Y-16.909 I0.717 J0.569
G1 X-22.822 Y-16.074
G2 X-22.842 Y-16.046 I0.738 J0.541
G1 X-23.421 Y-15.188
G2 X-23.44 Y-15.159 I0.758 J0.512
G1 X-23.986 Y-14.28
G2 X-24.004 Y-14.25 I0.777 J0.483
G1 X-24.515 Y-13.351
G2 X-24.532 Y-13.32 I0.795 J0.452
G1 X-25.009 Y-12.402
G2 X-25.024 Y-12.371 I0.812 J0.422
G1 X-25.465 Y-11.435
G2 X-25.48 Y-11.403 I0.828 J0.39
G1 X-25.885 Y-10.451
G2 X-25.898 Y-10.419 I0.842 J0.358
G1 X-26.266 Y-9.452
G2 X-26.278 Y-9.419 I0.855 J0.326
G1 X-26.609 Y-8.439
G2 X-26.619 Y-8.406 I0.867 J0.293
G1 X-26.912 Y-7.414
G2 X-26.922 Y-7.38 I0.877 J0.259
G1 X-27.177 Y-6.378
G2 X-27.185 Y-6.343 I0.887 J0.226
G1 X-27.401 Y-5.332
G2 X-27.408 Y-5.298 I0.895 J0.191
G1 X-27.585 Y-4.279
G2 X-27.59 Y-4.244 I0.901 J0.157
G1 X-27.729 Y-3.219
G2 X-27.733 Y-3.184 I0.907 J0.122
G1 X-27.832 Y-2.154
G2 X-27.834 Y-2.119 I0.911 J0.087
G1 X-27.894 Y-1.087
G2 X-27.895 Y-1.052 I0.913 J0.053
G1 X-27.915 Y-0.018
G2 Y0.018 I0.915 J0.018
G1 X-27.895 Y1.052
G2 X-27.894 Y1.087 I0.915 J-0.018
G1 X-27.834 Y2.119
G2 X-27.832 Y2.154 I0.913 J-0.053
G1 X-27.733 Y3.184
G2 X-27.729 Y3.219 I0.911 J-0.087
G1 X-27.59 Y4.244
G2 X-27.585 Y4.279 I0.907 J-0.122
G1 X-27.408 Y5.298
G2 X-27.401 Y5.332 I0.901 J-0.157
G1 X-27.185 Y6.343
G2 X-27.177 Y6.378 I0.895 J-0.191
G1 X-26.922 Y7.38
G2 X-26.912 Y7.414 I0.887 J-0.226
G1 X-26.619 Y8.406
G2 X-26.609 Y8.439 I0.877 J-0.259
G1 X-26.278 Y9.419
G2 X-26.266 Y9.452 I0.867 J-0.293
G1 X-25.898 Y10.419
G2 X-25.885 Y10.451 I0.855 J-0.326
G1 X-25.48 Y11.403
G2 X-25.465 Y11.435 I0.842 J-0.358
G1 X-25.024 Y12.371
G2 X-25.009 Y12.402 I0.828 J-0.39
G1 X-24.532 Y13.32
G2 X-24.515 Y13.351 I0.812 J-0.422
G1 X-24.004 Y14.25
G2 X-23.986 Y14.28 I0.795 J-0.452
G1 X-23.44 Y15.159
G2 X-23.421 Y15.188 I0.777 J-0.483
G1 X-22.842 Y16.046
G2 X-22.822 Y16.074 I0.758 J-0.512
G1 X-22.211 Y16.909
G2 X-22.19 Y16.937 I0.738 J-0.541
G1 X-21.547 Y17.747
G2 X-21.525 Y17.774 I0.717 J-0.569
G1 X-20.852 Y18.559
G2 X-20.828 Y18.586 I0.695 J-0.596
G1 X-20.125 Y19.344
G2 X-20.101 Y19.37 I0.671 J-0.622
G1 X-19.37 Y20.101
G2 X-19.344 Y20.125 I0.647 J-0.647
G1 X-18.586 Y20.828
G2 X-18.559 Y20.852 I0.622 J-0.671
G1 X-17.774 Y21.525
G2 X-17.747 Y21.547 I0.596 J-0.695
G1 X-16.937 Y22.19
G2 X-16.909 Y22.211 I0.569 J-0.717
G1 X-16.074 Y22.822
G2 X-16.046 Y22.842 I0.541 J-0.738
G1 X-15.188 Y23.421
G2 X-15.159 Y23.44 I0.512 J-0.758
G1 X-14.28 Y23.986
G2 X-14.25 Y24.004 I0.483 J-0.777
G1 X-13.351 Y24.515
G2 X-13.32 Y24.532 I0.452 J-0.795
G1 X-12.402 Y25.009
G2 X-12.371 Y25.024 I0.422 J-0.812
G1 X-11.435 Y25.465
G2 X-11.403 Y25.48 I0.39 J-0.828
G1 X-10.451 Y25.885
G2 X-10.419 Y25.898 I0.358 J-0.842
G1 X-9.452 Y26.266
G2 X-9.419 Y26.278 I0.326 J-0.855
G1 X-8.439 Y26.609
G2 X-8.406 Y26.619 I0.293 J-0.867
G1 X-7.414 Y26.912
G2 X-7.38 Y26.922 I0.259 J-0.877
G1 X-6.378 Y27.177
G2 X-6.343 Y27.185 I0.226 J-0.887
G1 X-5.332 Y27.401
G2 X-5.298 Y27.408 I0.191 J-0.895
G1 X-4.279 Y27.585
G2 X-4.244 Y27.59 I0.157 J-0.901
G1 X-3.219 Y27.729
G2 X-3.184 Y27.733 I0.122 J-0.907
G1 X-2.154 Y27.832
G2 X-2.119 Y27.834 I0.087 J-0.911
G1 X-1.087 Y27.894
G2 X-1.052 Y27.895 I0.053 J-0.913
G1 X-0.018 Y27.915
G2 X0.018 I0.018 J-0.915
G1 X1.052 Y27.895
G2 X1.087 Y27.894 I-0.018 J-0.915
G1 X2.119 Y27.834
G2 X2.154 Y27.832 I-0.053 J-0.913
G1 X3.184 Y27.733
G2 X3.219 Y27.729 I-0.087 J-0.911
G1 X4.244 Y27.59
G2 X4.279 Y27.585 I-0.122 J-0.907
G1 X5.298 Y27.408
G2 X5.332 Y27.401 I-0.157 J-0.901
G1 X6.343 Y27.185
G2 X6.378 Y27.177 I-0.191 J-0.895
G1 X7.38 Y26.922
G2 X7.414 Y26.912 I-0.226 J-0.887
G1 X8.406 Y26.619
G2 X8.439 Y26.609 I-0.259 J-0.877
G1 X9.419 Y26.278
G2 X9.452 Y26.266 I-0.293 J-0.867
G1 X10.419 Y25.898
G2 X10.451 Y25.885 I-0.326 J-0.855
G1 X11.403 Y25.48
G2 X11.435 Y25.465 I-0.358 J-0.842
G1 X12.371 Y25.024
G2 X12.402 Y25.009 I-0.39 J-0.828
G1 X13.32 Y24.532
G2 X13.351 Y24.515 I-0.422 J-0.812
G1 X14.25 Y24.004
G2 X14.28 Y23.986 I-0.452 J-0.795
G1 X15.159 Y23.44
G2 X15.188 Y23.421 I-0.483 J-0.777
G1 X16.046 Y22.842
G2 X16.074 Y22.822 I-0.512 J-0.758
G1 X16.909 Y22.211
G2 X16.937 Y22.19 I-0.541 J-0.738
G1 X17.747 Y21.547
G2 X17.774 Y21.525 I-0.569 J-0.717
G1 X18.559 Y20.852
G2 X18.586 Y20.828 I-0.596 J-0.695
G1 X19.344 Y20.125
G2 X19.37 Y20.101 I-0.622 J-0.671
G1 X20.101 Y19.37
G2 X20.125 Y19.344 I-0.647 J-0.647
G1 X20.828 Y18.586
G2 X20.852 Y18.559 I-0.671 J-0.622
G1 X21.525 Y17.774
G2 X21.547 Y17.747 I-0.695 J-0.596
G1 X22.19 Y16.937
G2 X22.211 Y16.909 I-0.717 J-0.569
G1 X22.822 Y16.074
G2 X22.842 Y16.046 I-0.738 J-0.541
G1 X23.421 Y15.188
G2 X23.44 Y15.159 I-0.758 J-0.512
G1 X23.986 Y14.28
G2 X24.004 Y14.25 I-0.777 J-0.483
G1 X24.515 Y13.351
G2 X24.532 Y13.32 I-0.795 J-0.452
G1 X25.009 Y12.402
G2 X25.024 Y12.371 I-0.812 J-0.422
G1 X25.465 Y11.435
G2 X25.48 Y11.403 I-0.828 J-0.39
G1 X25.885 Y10.451
G2 X25.898 Y10.419 I-0.842 J-0.358
G1 X26.266 Y9.452
G2 X26.278 Y9.419 I-0.855 J-0.326
G1 X26.609 Y8.439
G2 X26.619 Y8.406 I-0.867 J-0.293
G1 X26.912 Y7.414
G2 X26.922 Y7.38 I-0.877 J-0.259
G1 X27.177 Y6.378
G2 X27.185 Y6.343 I-0.887 J-0.226
G1 X27.401 Y5.332
G2 X27.408 Y5.298 I-0.895 J-0.191
G1 X27.585 Y4.279
G2 X27.59 Y4.244 I-0.901 J-0.157
G1 X27.729 Y3.219
G2 X27.733 Y3.184 I-0.907 J-0.122
G1 X27.832 Y2.154
G2 X27.834 Y2.119 I-0.911 J-0.087
G1 X27.894 Y1.087
G2 X27.895 Y1.052 I-0.913 J-0.053
G1 X27.915 Y0.018
G2 Y-0.018 I-0.915 J-0.018
G1 X27.895 Y-1.052
G2 X27.894 Y-1.087 I-0.915 J0.018
G1 X27.834 Y-2.119
G2 X27.832 Y-2.154 I-0.913 J0.053
G1 X27.733 Y-3.184
G2 X27.729 Y-3.219 I-0.911 J0.087
G1 X27.59 Y-4.244
G2 X27.585 Y-4.279 I-0.907 J0.122
G1 X27.408 Y-5.298
G2 X27.401 Y-5.332 I-0.901 J0.157
G1 X27.185 Y-6.343
G2 X27.177 Y-6.378 I-0.895 J0.191
G1 X26.922 Y-7.38
G2 X26.912 Y-7.414 I-0.887 J0.226
G1 X26.619 Y-8.406
G2 X26.609 Y-8.439 I-0.877 J0.259
G1 X26.278 Y-9.419
G2 X26.266 Y-9.452 I-0.867 J0.293
G1 X25.898 Y-10.419
G2 X25.885 Y-10.451 I-0.855 J0.326
G1 X25.48 Y-11.403
G2 X25.465 Y-11.435 I-0.842 J0.358
G1 X25.024 Y-12.371
G2 X25.009 Y-12.402 I-0.828 J0.39
G1 X24.532 Y-13.32
G2 X24.515 Y-13.351 I-0.812 J0.422
G1 X24.004 Y-14.25
G2 X23.986 Y-14.28 I-0.795 J0.452
G1 X23.44 Y-15.159
G2 X23.421 Y-15.188 I-0.777 J0.483
G1 X22.842 Y-16.046
G2 X22.822 Y-16.074 I-0.758 J0.512
G1 X22.211 Y-16.909
G2 X22.19 Y-16.937 I-0.738 J0.541
G1 X21.547 Y-17.747
G2 X21.525 Y-17.774 I-0.717 J0.569
G1 X20.852 Y-18.559
G2 X20.828 Y-18.586 I-0.695 J0.596
G1 X20.125 Y-19.344
G2 X20.101 Y-19.37 I-0.671 J0.622
G1 X19.37 Y-20.101
G2 X19.344 Y-20.125 I-0.647 J0.647
G1 X18.586 Y-20.828
G2 X18.559 Y-20.852 I-0.622 J0.671
G1 X18.166 Y-21.188
G2 X15.377 Y-21.478 I-1.605 J1.871
G3 X12.572 Y-21.516 I-1.369 J-2.496
G2 X-12.572 Y21.516 I-12.572 J21.516
X12.572 Y-21.516 I12.572 J-21.516
X9.761 Y-21.295 I-1.246 J2.132
G3 X6.987 Y-20.787 I-1.846 J-2.253
G2 X-6.987 Y20.787 I-6.987 J20.787
X6.987 Y-20.787 I6.987 J-20.787
X4.264 Y-19.985 I-0.789 J2.347
G3 X1.655 Y-18.868 I-2.347 J-1.874
G2 X-1.655 Y18.868 I-1.655 J18.868
X1.655 Y-18.868 I1.655 J-18.868
X-0.821 Y-17.426 I-0.217 J2.474
G3 X-3.071 Y-15.652 I-2.853 J-1.304
G2 X3.071 Y15.652 I3.071 J15.652
X-3.071 Y-15.652 I-3.071 J-15.652
X-5.062 Y-13.54 I0.48 J2.448
G3 X-6.661 Y-11.117 I-3.321 J-0.452
G2 X6.661 Y11.117 I6.661 J11.117
X-6.661 Y-11.117 I-6.661 J-11.117
X-7.816 Y-8.39 I1.291 J2.155
G3 X-8.333 Y-5.474 I-3.655 J0.856
G2 X8.333 Y5.474 I8.333 J5.474
X-8.333 Y-5.474 I-8.333 J-5.474
X-8.128 Y-2.412 I2.124 J1.395
G3 X-6.967 Y0.428 I-3.61 J3.133
G2 X6.967 Y-0.428 I6.967 J-0.428
X-6.967 Y0.428 I-6.967 J0.428
X-6.905 Y0.629 I0.449 J-0.028
G1 X-6.477 Y1.356
X-6.437 Y1.423 Z-0.993
X-6.399 Y1.489 Z-0.973
X-6.363 Y1.55 Z-0.94
X-6.33 Y1.605 Z-0.895
X-6.302 Y1.653 Z-0.839
X-6.279 Y1.692 Z-0.775
X-6.262 Y1.72 Z-0.704
X-6.252 Y1.738 Z-0.628
X-6.248 Y1.744 Z-0.55
G0 Z15.
G91
G28 Z0.
M5
G28 X0. Y0.
M30
%
