%
O00001002
(T2  D=5. CR=0. - ZMIN=-9. - FLAT END MILL)
G90 G94 G17
G21
G91
G28 Z0.
G90
(2D POCKET2)
T2 M6
S5000 M3
G54
G0 X-1.445 Y2.306
G43 Z16. H2
G0 Z6.
G1 Z3.998 F500.
X-1.449 Y2.305 Z3.936 F166.7
G3 X-1.46 Y2.302 Z3.876 I0.574 J-2.305
X-1.478 Y2.297 Z3.817 I0.585 J-2.302
X-1.503 Y2.291 Z3.761 I0.603 J-2.297
X-1.534 Y2.282 Z3.708 I0.628 J-2.291
X-1.571 Y2.271 Z3.66 I0.659 J-2.282
X-1.614 Y2.257 Z3.617 I0.696 J-2.271
X-1.661 Y2.241 Z3.58 I0.739 J-2.257
X-1.711 Y2.223 Z3.55 I0.786 J-2.241
X-1.764 Y2.202 Z3.526 I0.836 J-2.223
X-1.819 Y2.179 Z3.509 I0.889 J-2.202
X-1.875 Y2.154 Z3.5 I0.944 J-2.179
X0.125 Y-2.154 Z2.847 I1. J-2.154
X-1.875 Y2.154 Z2.194 I-1. J2.154
X0.125 Y-2.154 Z1.542 I1. J-2.154
X-1.875 Y2.154 Z0.889 I-1. J2.154
X0.125 Y-2.154 Z0.236 I1. J-2.154
X1.5 Y0. Z0. I-1. J2.154
X-1.5 I-1.5 F500.
X5.5 I3.5
X-5.5 I-5.5
X5.5 I5.5
X3.125 Y2.375 Z-0.197 I-2.375 F166.7
G1 X-0.875 Z-0.409
G3 Y-2.375 Z-0.803 J-2.375
X1.5 Y0. Z-1. J2.375
X-1.5 I-1.5 F500.
X5.5 I3.5
X-5.5 I-5.5
X5.5 I5.5
X3.125 Y2.375 Z-1.197 I-2.375 F166.7
G1 X-0.875 Z-1.409
G3 Y-2.375 Z-1.803 J-2.375
X1.5 Y0. Z-2. J2.375
X-1.5 I-1.5 F500.
X5.5 I3.5
X-5.5 I-5.5
X5.5 I5.5
X3.125 Y2.375 Z-2.197 I-2.375 F166.7
G1 X-0.875 Z-2.409
G3 Y-2.375 Z-2.803 J-2.375
X1.5 Y0. Z-3. J2.375
X-1.5 I-1.5 F500.
X5.5 I3.5
X-5.5 I-5.5
X5.5 I5.5
X3.125 Y2.375 Z-3.197 I-2.375 F166.7
G1 X-0.875 Z-3.409
G3 Y-2.375 Z-3.803 J-2.375
X1.5 Y0. Z-4. J2.375
X-1.5 I-1.5 F500.
X5.5 I3.5
X-5.5 I-5.5
X5.5 I5.5
X3.125 Y2.375 Z-4.197 I-2.375 F166.7
G1 X-0.875 Z-4.409
G3 Y-2.375 Z-4.803 J-2.375
X1.5 Y0. Z-5. J2.375
X-1.5 I-1.5 F500.
X5.5 I3.5
X-5.5 I-5.5
X5.5 I5.5
X3.125 Y2.375 Z-5.197 I-2.375 F166.7
G1 X-0.875 Z-5.409
G3 Y-2.375 Z-5.803 J-2.375
X1.5 Y0. Z-6. J2.375
X-1.5 I-1.5 F500.
X5.5 I3.5
X-5.5 I-5.5
X5.5 I5.5
X3.125 Y2.375 Z-6.197 I-2.375 F166.7
G1 X-0.875 Z-6.409
G3 Y-2.375 Z-6.803 J-2.375
X1.5 Y0. Z-7. J2.375
X-1.5 I-1.5 F500.
X5.5 I3.5
X-5.5 I-5.5
X5.5 I5.5
X3.125 Y2.375 Z-7.197 I-2.375 F166.7
G1 X-0.875 Z-7.409
G3 Y-2.375 Z-7.803 J-2.375
X1.5 Y0. Z-8. J2.375
X-1.5 I-1.5 F500.
X5.5 I3.5
X-5.5 I-5.5
X5.5 I5.5
X3.125 Y2.375 Z-8.197 I-2.375 F166.7
G1 X-0.875 Z-8.409
G3 Y-2.375 Z-8.803 J-2.375
X1.5 Y0. Z-9. J2.375
X-1.5 I-1.5 F500.
X5.5 I3.5
X-5.5 I-5.5
X5.5 I5.5
X5.496 Y0.06 Z-8.996 I-0.5
X5.486 Y0.119 Z-8.985 I-0.496 J-0.06
X5.469 Y0.174 Z-8.968 I-0.486 J-0.119
X5.447 Y0.224 Z-8.943 I-0.469 J-0.174
X5.421 Y0.269 Z-8.911 I-0.447 J-0.224
X5.394 Y0.308 Z-8.874 I-0.421 J-0.269
X5.366 Y0.34 Z-8.832 I-0.394 J-0.308
X5.34 Y0.367 Z-8.784 I-0.366 J-0.34
X5.316 Y0.387 Z-8.732 I-0.34 J-0.367
X5.297 Y0.402 Z-8.677 I-0.316 J-0.387
X5.282 Y0.413 Z-8.62 I-0.297 J-0.402
X5.273 Y0.419 Z-8.56 I-0.282 J-0.413
G1 X5.27 Y0.421 Z-8.5
G0 Z16.
G91
G28 Z0.
M5
G28 X0. Y0.
M30
%
