%
O00001003
(T2  D=5. CR=0. - ZMIN=-26.1 - FLAT END MILL)
G90 G94 G17
G21
G91
G28 Z0.
G90
(BORE1)
T2 M6
S5000 M3
G54
G0 X0.25 Y-0.5
G43 Z15. H2
G0 Z-7.
G1 Z-8.5 F500.
G18 G2 X0.75 Z-9. I0.5
G1 X1.
G17 G3 X1.5 Y0. J0.5
X-1.5 Z-9.5 I-1.5
X1.5 Z-10. I1.5
X-1.5 Z-10.5 I-1.5
X1.5 Z-11. I1.5
X-1.5 Z-11.5 I-1.5
X1.5 Z-12. I1.5
X-1.5 Z-12.5 I-1.5
X1.5 Z-13. I1.5
X-1.5 Z-13.5 I-1.5
X1.5 Z-14. I1.5
X-1.5 Z-14.5 I-1.5
X1.5 Z-15. I1.5
X-1.5 Z-15.5 I-1.5
X1.5 Z-16. I1.5
X-1.5 Z-16.5 I-1.5
X1.5 Z-17. I1.5
X-1.5 Z-17.5 I-1.5
X1.5 Z-18. I1.5
X-1.5 Z-18.5 I-1.5
X1.5 Z-19. I1.5
X-1.5 Z-19.5 I-1.5
X1.5 Z-20. I1.5
X-1.5 Z-20.5 I-1.5
X1.5 Z-21. I1.5
X-1.5 Z-21.5 I-1.5
X1.5 Z-22. I1.5
X-1.5 Z-22.5 I-1.5
X1.5 Z-23. I1.5
X-1.5 Z-23.5 I-1.5
X1.5 Z-24. I1.5
X-1.5 Z-24.5 I-1.5
X1.5 Z-25. I1.5
X-1.5 Z-25.5 I-1.5
X1.5 Z-26. I1.5
X1.214 Y0.882 Z-26.1 I-1.5
X-1.214 Y-0.882 I-1.214 J-0.882
X1.214 Y0.882 I1.214 J0.882
X0.515 Y0.992 I-0.405 J-0.294
G1 X0.313 Y0.845
X0.243 Y0.794 Z-26.092
X0.175 Y0.745 Z-26.07
X0.111 Y0.698 Z-26.033
X0.053 Y0.656 Z-25.983
X0.003 Y0.62 Z-25.921
X-0.037 Y0.591 Z-25.85
X-0.067 Y0.569 Z-25.771
X-0.085 Y0.556 Z-25.687
X-0.092 Y0.551 Z-25.6
G0 Z15.
G91
G28 Z0.
M5
G28 X0. Y0.
M30
%
