%
O00001004
(T2  D=5. CR=0. - ZMIN=-26.1 - FLAT END MILL)
G90 G94 G17
G21
G91
G28 Z0.
G90
(2D CONTOUR1)
T2 M6
S5000 M3
G54
G0 X-0.5 Y31.
G43 Z15. H2
G0 Z5.
G1 Z2. F500.
Z-0.467 F166.7
G19 G2 Y30.5 Z-0.967 J-0.5
G1 Y30. F500.
G17 G3 X0. Y29.5 I0.5
G2 Y-29.5 J-29.5
Y29.5 J29.5
G3 X0.5 Y30. J0.5
G1 Y30.5
G19 G3 Y31. Z-0.467 K0.5
G0 Z5.
X-0.5
G1 Z1.033 F500.
Z-1.433 F166.7
G2 Y30.5 Z-1.933 J-0.5
G1 Y30. F500.
G17 G3 X0. Y29.5 I0.5
G2 Y-29.5 J-29.5
Y29.5 J29.5
G3 X0.5 Y30. J0.5
G1 Y30.5
G19 G3 Y31. Z-1.433 K0.5
G0 Z5.
X-0.5
G1 Z0.067 F500.
Z-2.4 F166.7
G2 Y30.5 Z-2.9 J-0.5
G1 Y30. F500.
G17 G3 X0. Y29.5 I0.5
G2 Y-29.5 J-29.5
Y29.5 J29.5
G3 X0.5 Y30. J0.5
G1 Y30.5
G19 G3 Y31. Z-2.4 K0.5
G0 Z5.
X-0.5
G1 Z-0.9 F500.
Z-3.367 F166.7
G2 Y30.5 Z-3.867 J-0.5
G1 Y30. F500.
G17 G3 X0. Y29.5 I0.5
G2 Y-29.5 J-29.5
Y29.5 J29.5
G3 X0.5 Y30. J0.5
G1 Y30.5
G19 G3 Y31. Z-3.367 K0.5
G0 Z5.
X-0.5
G1 Z-1.867 F500.
Z-4.333 F166.7
G2 Y30.5 Z-4.833 J-0.5
G1 Y30. F500.
G17 G3 X0. Y29.5 I0.5
G2 Y-29.5 J-29.5
Y29.5 J29.5
G3 X0.5 Y30. J0.5
G1 Y30.5
G19 G3 Y31. Z-4.333 K0.5
G0 Z5.
X-0.5
G1 Z-2.833 F500.
Z-5.3 F166.7
G2 Y30.5 Z-5.8 J-0.5
G1 Y30. F500.
G17 G3 X0. Y29.5 I0.5
G2 Y-29.5 J-29.5
Y29.5 J29.5
G3 X0.5 Y30. J0.5
G1 Y30.5
G19 G3 Y31. Z-5.3 K0.5
G0 Z5.
X-0.5
G1 Z-3.8 F500.
Z-6.267 F166.7
G2 Y30.5 Z-6.767 J-0.5
G1 Y30. F500.
G17 G3 X0. Y29.5 I0.5
G2 Y-29.5 J-29.5
Y29.5 J29.5
G3 X0.5 Y30. J0.5
G1 Y30.5
G19 G3 Y31. Z-6.267 K0.5
G0 Z5.
X-0.5
G1 Z-4.767 F500.
Z-7.233 F166.7
G2 Y30.5 Z-7.733 J-0.5
G1 Y30. F500.
G17 G3 X0. Y29.5 I0.5
G2 Y-29.5 J-29.5
Y29.5 J29.5
G3 X0.5 Y30. J0.5
G1 Y30.5
G19 G3 Y31. Z-7.233 K0.5
G0 Z5.
X-0.5
G1 Z-5.733 F500.
Z-8.2 F166.7
G2 Y30.5 Z-8.7 J-0.5
G1 Y30. F500.
G17 G3 X0. Y29.5 I0.5
G2 Y-29.5 J-29.5
Y29.5 J29.5
G3 X0.5 Y30. J0.5
G1 Y30.5
G19 G3 Y31. Z-8.2 K0.5
G0 Z5.
X-0.5
G1 Z-6.7 F500.
Z-9.167 F166.7
G2 Y30.5 Z-9.667 J-0.5
G1 Y30. F500.
G17 G3 X0. Y29.5 I0.5
G2 Y-29.5 J-29.5
Y29.5 J29.5
G3 X0.5 Y30. J0.5
G1 Y30.5
G19 G3 Y31. Z-9.167 K0.5
G0 Z5.
X-0.5
G1 Z-7.667 F500.
Z-10.133 F166.7
G2 Y30.5 Z-10.633 J-0.5
G1 Y30. F500.
G17 G3 X0. Y29.5 I0.5
G2 Y-29.5 J-29.5
Y29.5 J29.5
G3 X0.5 Y30. J0.5
G1 Y30.5
G19 G3 Y31. Z-10.133 K0.5
G0 Z5.
X-0.5
G1 Z-8.633 F500.
Z-11.1 F166.7
G2 Y30.5 Z-11.6 J-0.5
G1 Y30. F500.
G17 G3 X0. Y29.5 I0.5
G2 Y-29.5 J-29.5
Y29.5 J29.5
G3 X0.5 Y30. J0.5
G1 Y30.5
G19 G3 Y31. Z-11.1 K0.5
G0 Z5.
X-0.5
G1 Z-9.6 F500.
Z-12.067 F166.7
G2 Y30.5 Z-12.567 J-0.5
G1 Y30. F500.
G17 G3 X0. Y29.5 I0.5
G2 Y-29.5 J-29.5
Y29.5 J29.5
G3 X0.5 Y30. J0.5
G1 Y30.5
G19 G3 Y31. Z-12.067 K0.5
G0 Z5.
X-0.5
G1 Z-10.567 F500.
Z-13.033 F166.7
G2 Y30.5 Z-13.533 J-0.5
G1 Y30. F500.
G17 G3 X0. Y29.5 I0.5
G2 Y-29.5 J-29.5
Y29.5 J29.5
G3 X0.5 Y30. J0.5
G1 Y30.5
G19 G3 Y31. Z-13.033 K0.5
G0 Z5.
X-0.5
G1 Z-11.533 F500.
Z-14. F166.7
G2 Y30.5 Z-14.5 J-0.5
G1 Y30. F500.
G17 G3 X0. Y29.5 I0.5
G2 Y-29.5 J-29.5
Y29.5 J29.5
G3 X0.5 Y30. J0.5
G1 Y30.5
G19 G3 Y31. Z-14. K0.5
G0 Z5.
X-0.5
G1 Z-12.5 F500.
Z-14.967 F166.7
G2 Y30.5 Z-15.467 J-0.5
G1 Y30. F500.
G17 G3 X0. Y29.5 I0.5
G2 Y-29.5 J-29.5
Y29.5 J29.5
G3 X0.5 Y30. J0.5
G1 Y30.5
G19 G3 Y31. Z-14.967 K0.5
G0 Z5.
X-0.5
G1 Z-13.467 F500.
Z-15.933 F166.7
G2 Y30.5 Z-16.433 J-0.5
G1 Y30. F500.
G17 G3 X0. Y29.5 I0.5
G2 Y-29.5 J-29.5
Y29.5 J29.5
G3 X0.5 Y30. J0.5
G1 Y30.5
G19 G3 Y31. Z-15.933 K0.5
G0 Z5.
X-0.5
G1 Z-14.433 F500.
Z-16.9 F166.7
G2 Y30.5 Z-17.4 J-0.5
G1 Y30. F500.
G17 G3 X0. Y29.5 I0.5
G2 Y-29.5 J-29.5
Y29.5 J29.5
G3 X0.5 Y30. J0.5
G1 Y30.5
G19 G3 Y31. Z-16.9 K0.5
G0 Z5.
X-0.5
G1 Z-15.4 F500.
Z-17.867 F166.7
G2 Y30.5 Z-18.367 J-0.5
G1 Y30. F500.
G17 G3 X0. Y29.5 I0.5
G2 Y-29.5 J-29.5
Y29.5 J29.5
G3 X0.5 Y30. J0.5
G1 Y30.5
G19 G3 Y31. Z-17.867 K0.5
G0 Z5.
X-0.5
G1 Z-16.367 F500.
Z-18.833 F166.7
G2 Y30.5 Z-19.333 J-0.5
G1 Y30. F500.
G17 G3 X0. Y29.5 I0.5
G2 Y-29.5 J-29.5
Y29.5 J29.5
G3 X0.5 Y30. J0.5
G1 Y30.5
G19 G3 Y31. Z-18.833 K0.5
G0 Z5.
X-0.5
G1 Z-17.333 F500.
Z-19.8 F166.7
G2 Y30.5 Z-20.3 J-0.5
G1 Y30. F500.
G17 G3 X0. Y29.5 I0.5
G2 Y-29.5 J-29.5
Y29.5 J29.5
G3 X0.5 Y30. J0.5
G1 Y30.5
G19 G3 Y31. Z-19.8 K0.5
G0 Z5.
X-0.5
G1 Z-18.3 F500.
Z-20.767 F166.7
G2 Y30.5 Z-21.267 J-0.5
G1 Y30. F500.
G17 G3 X0. Y29.5 I0.5
G2 Y-29.5 J-29.5
Y29.5 J29.5
G3 X0.5 Y30. J0.5
G1 Y30.5
G19 G3 Y31. Z-20.767 K0.5
G0 Z5.
X-0.5
G1 Z-19.267 F500.
Z-21.733 F166.7
G2 Y30.5 Z-22.233 J-0.5
G1 Y30. F500.
G17 G3 X0. Y29.5 I0.5
G2 Y-29.5 J-29.5
Y29.5 J29.5
G3 X0.5 Y30. J0.5
G1 Y30.5
G19 G3 Y31. Z-21.733 K0.5
G0 Z5.
X-0.5
G1 Z-20.233 F500.
Z-22.7 F166.7
G2 Y30.5 Z-23.2 J-0.5
G1 Y30. F500.
G17 G3 X0. Y29.5 I0.5
G2 Y-29.5 J-29.5
Y29.5 J29.5
G3 X0.5 Y30. J0.5
G1 Y30.5
G19 G3 Y31. Z-22.7 K0.5
G0 Z5.
X-0.5
G1 Z-21.2 F500.
Z-23.667 F166.7
G2 Y30.5 Z-24.167 J-0.5
G1 Y30. F500.
G17 G3 X0. Y29.5 I0.5
G2 Y-29.5 J-29.5
Y29.5 J29.5
G3 X0.5 Y30. J0.5
G1 Y30.5
G19 G3 Y31. Z-23.667 K0.5
G0 Z5.
X-0.5
G1 Z-22.167 F500.
Z-24.633 F166.7
G2 Y30.5 Z-25.133 J-0.5
G1 Y30. F500.
G17 G3 X0. Y29.5 I0.5
G2 Y-29.5 J-29.5
Y29.5 J29.5
G3 X0.5 Y30. J0.5
G1 Y30.5
G19 G3 Y31. Z-24.633 K0.5
G0 Z5.
X-0.5
G1 Z-23.133 F500.
Z-25.6 F166.7
G2 Y30.5 Z-26.1 J-0.5
G1 Y30. F500.
G17 G3 X0. Y29.5 I0.5
G2 Y-29.5 J-29.5
Y29.5 J29.5
G3 X0.5 Y30. J0.5
G1 Y30.5
G19 G3 Y31. Z-25.6 K0.5
G0 Z15.
G17
G91
G28 Z0.
M5
G0
G28 X0. Y0.
M30
%
