%
O00001005
(T4  D=4.94 CR=0. - ZMIN=-9. - FLAT END MILL)
G90 G94 G17
G21
G91
G28 Z0.
G90
(2D CONTOUR2)
T4 M6
S5000 M3
G54
G0 X4.048 Y0.494
G43 Z15. H4
G0 Z5.
G1 Z1. F1000.
Z-8.506 F333.3
G18 G2 X4.542 Z-9. I0.494
G1 X5.036 F1000.
G17 G2 X5.53 Y0. J-0.494
X-5.53 I-5.53
X5.53 I5.53
X5.036 Y-0.494 I-0.494
G1 X4.542
G18 G3 X4.048 Z-8.506 K0.494
G0 Z15.
G17
G91
G28 Z0.
M5
G0
G28 X0. Y0.
M30
%
