%
O00001010
(T3  D=5.85 CR=0. - ZMIN=-15. - FLAT END MILL)
G90 G94 G17
G21
G91
G28 Z0.
G90
(2D POCKET1)
T3 M6
S5000 M3
G54
G0 X32.163 Y0.355
G43 Z15. H3
G0 Z5.
G1 Z2. F1000.
Z-0.415
X32.156 Y0.357 Z-0.507
X32.136 Y0.364 Z-0.596
X32.102 Y0.375 Z-0.681
X32.057 Y0.39 Z-0.759
X32. Y0.408 Z-0.829
X31.934 Y0.43 Z-0.888
X31.859 Y0.454 Z-0.936
X31.778 Y0.48 Z-0.971
X31.694 Y0.507 Z-0.993
X31.606 Y0.536 Z-1.
G3 X29.011 Y0.946 I-2.593 J-7.989
G2 X28.989 Y61.501 I-0.011 J30.278
X29.011 Y0.946 I0.011 J-30.278
X25.983 Y3.057 I-0.001 J3.226
G3 X23.207 Y5.49 I-3.624 J-1.334
G2 X34.793 Y56.957 I5.793 J25.734
X23.207 Y5.49 I-5.793 J-25.734
X20.707 Y8.246 I0.71 J3.156
G3 X18.587 Y11.303 I-3.978 J-0.495
G2 X39.413 Y51.144 I10.413 J19.92
X18.587 Y11.303 I-10.413 J-19.92
X18.464 Y11.426 I0.136 J0.259
G1 X12.579 Y22.536
G2 X28.313 Y49.788 I16.421 J8.687
G1 X29.687
G2 X45.421 Y22.536 I-0.687 J-18.565
G1 X44.74 Y21.356
G2 X13.259 I-15.74 J9.868
X13.511 Y25.173 I2.767 J1.735
G3 X14.513 Y28.865 I-3.562 J2.949
G2 X43.487 Y33.582 I14.487 J2.358
X14.513 Y28.865 I-14.487 J-2.358
X16.32 Y32.356 I3.253 J0.53
G3 X18.997 Y35.235 I-2.399 J4.915
G2 X39.003 Y27.212 I10.003 J-4.012
X18.997 Y35.235 I-10.003 J4.012
X22.588 Y37.306 I3.112 J-1.248
G3 X26.714 Y37.71 I1.241 J8.592
G2 X31.286 Y24.737 I2.286 J-6.487
X26.714 Y37.71 I-2.286 J6.487
X31.122 Y35.791 I1.173 J-3.328
X31.973 Y31.06 I-9.545 J-4.159
X26.027 Y31.387 I-2.973 J0.164
X31.973 Y31.06 I2.973 J-0.164
X30.882 Y30.64 I-0.639 J0.035
G3 X29.715 Y30.599 I-0.564 J-0.568
G2 X28.285 Y31.848 I-0.715 J0.624
X29.715 Y30.599 I0.715 J-0.624
G3 X32.695 Y26.138 Z-1.198 I2.093 J-1.828
G1 X55.612 Y33.857 Z-1.857
G2 X59.278 Y31.224 Z-2. I0.887 J-2.633
X-1.278 I-30.278
X59.278 I30.278
X57.166 Y28.196 I-3.226
G3 X54.732 Y25.421 I1.333 J-3.624
G2 X3.268 Y37.026 I-25.732 J5.802
X54.732 Y25.421 I25.732 J-5.802
X51.974 Y22.923 I-3.155 J0.712
G3 X48.916 Y20.803 I0.494 J-3.978
G2 X9.084 Y41.644 I-19.916 J10.42
X48.916 Y20.803 I19.916 J-10.42
X48.59 Y20.654 I-0.259 J0.136
G1 X45.055 Y21.485
G3 X44.74 Y21.356 I-0.067 J-0.285
G2 X13.259 I-15.74 J9.868
G1 X12.579 Y22.536
G2 X28.313 Y49.788 I16.421 J8.687
G1 X29.687
G2 X45.421 Y22.536 I-0.687 J-18.565
X41.991 Y20.843 I-2.887 J1.527
G3 X38.293 Y19.863 I-0.77 J-4.56
G2 X19.707 Y42.584 I-9.293 J11.361
X38.293 Y19.863 I9.293 J-11.361
X34.366 Y19.679 I-2.087 J2.551
G3 X30.534 Y20.556 I-3.054 J-4.537
G2 X27.466 Y41.891 I-1.534 J10.668
X30.534 Y20.556 I1.534 J-10.668
X26.944 Y22.628 I-0.477 J3.319
G3 X24.529 Y25.998 I-8.059 J-3.226
G2 X33.471 Y36.449 I4.471 J5.226
X24.529 Y25.998 I-4.471 J-5.226
X23.983 Y30.774 I2.294 J2.681
X27.654 Y33.879 I8.378 J-6.182
X30.346 Y28.568 I1.346 J-2.656
X27.654 Y33.879 I-1.346 J2.656
X28.562 Y33.145 I0.29 J-0.571
G3 X29.183 Y32.155 I0.775 J-0.204
G2 X28.817 Y30.292 I-0.183 J-0.931
X29.183 Y32.155 I0.183 J0.931
X29.356 Y32.103 Z-1.971 I-0.183 J-0.931
X29.501 Y32.03 Z-1.888 I-0.356 J-0.88
X29.606 Y31.954 Z-1.759 I-0.501 J-0.806
X29.667 Y31.898 Z-1.596 I-0.606 J-0.731
X29.688 Y31.878 Z-1.415 I-0.667 J-0.675
G0 Z15.
X123.976 Y35.966
Z5.
G1 Z2. F1000.
Z-0.415
X123.974 Y35.96 Z-0.507
X123.968 Y35.939 Z-0.596
X123.958 Y35.905 Z-0.681
X123.945 Y35.859 Z-0.759
X123.928 Y35.802 Z-0.829
X123.909 Y35.735 Z-0.888
X123.887 Y35.66 Z-0.936
X123.863 Y35.578 Z-0.971
X123.838 Y35.493 Z-0.993
X123.813 Y35.405 Z-1.
G3 X123.468 Y32.684 I8.416 J-2.449
G2 X62.942 Y30.81 I-30.263 J-0.937
X123.468 Y32.684 I30.263 J0.937
X121.45 Y29.593 I-3.224 J-0.1
G3 X119.103 Y26.744 I1.445 J-3.581
G2 X67.306 Y36.75 I-25.899 J5.003
X119.103 Y26.744 I25.899 J-5.003
X116.425 Y24.162 I-3.176 J0.614
G3 X113.434 Y21.948 I0.616 J-3.961
G2 X72.976 Y41.546 I-20.229 J9.799
X113.434 Y21.948 I20.229 J-9.799
X113.153 Y21.784 I-0.263 J0.128
G1 X109.21 Y22.016
G3 X108.945 Y21.88 I-0.017 J-0.292
G2 X77.465 I-15.74 J9.868
G1 X76.784 Y23.06
G2 X92.518 Y50.312 I16.421 J8.687
G1 X93.892
G2 X109.626 Y23.06 I-0.687 J-18.565
X106.195 Y21.367 I-2.887 J1.527
G3 X102.498 Y20.386 I-0.77 J-4.56
G2 X83.912 Y43.108 I-9.293 J11.361
X102.498 Y20.386 I9.293 J-11.361
X98.571 Y20.203 I-2.087 J2.551
G3 X94.739 Y21.08 I-3.054 J-4.537
G2 X91.671 Y42.415 I-1.534 J10.668
X94.739 Y21.08 I1.534 J-10.668
X91.148 Y23.153 I-0.477 J3.319
G3 X88.733 Y26.522 I-8.059 J-3.226
G2 X97.676 Y36.972 I4.472 J5.225
X88.733 Y26.522 I-4.472 J-5.225
X88.188 Y31.299 I2.295 J2.681
X91.859 Y34.403 I8.375 J-6.18
X94.55 Y29.091 I1.345 J-2.656
X91.859 Y34.403 I-1.345 J2.656
X92.768 Y33.669 I0.289 J-0.571
G3 X93.388 Y32.678 I0.774 J-0.204
G2 X93.022 Y30.816 I-0.183 J-0.931
X93.388 Y32.678 I0.183 J0.931
G3 X94.122 Y32.633 Z-1.023 I0.536 J2.727
G1 X120.505 Y34.519 Z-1.856
G2 X123.482 Y31.747 Z-2. I0.198 J-2.772
G1 Z5.
Z-2.
G2 X62.928 I-30.277
X123.482 I30.277
X121.37 Y28.72 I-3.226
G3 X118.936 Y25.945 I1.333 J-3.624
G2 X67.474 Y37.549 I-25.731 J5.802
X118.936 Y25.945 I25.731 J-5.802
X116.179 Y23.447 I-3.155 J0.712
G3 X113.121 Y21.327 I0.493 J-3.978
G2 X73.289 Y42.168 I-19.916 J10.42
X113.121 Y21.327 I19.916 J-10.42
X112.795 Y21.178 I-0.259 J0.136
G1 X109.26 Y22.009
G3 X108.945 Y21.88 I-0.067 J-0.285
G2 X77.465 I-15.74 J9.868
G1 X76.784 Y23.06
G2 X92.518 Y50.312 I16.421 J8.687
G1 X93.892
G2 X109.626 Y23.06 I-0.687 J-18.565
X106.195 Y21.367 I-2.887 J1.527
G3 X102.498 Y20.386 I-0.77 J-4.56
G2 X83.912 Y43.108 I-9.293 J11.361
X102.498 Y20.386 I9.293 J-11.361
X98.571 Y20.203 I-2.087 J2.551
G3 X94.739 Y21.08 I-3.054 J-4.537
G2 X91.671 Y42.415 I-1.534 J10.668
X94.739 Y21.08 I1.534 J-10.668
X91.148 Y23.153 I-0.477 J3.319
G3 X88.733 Y26.522 I-8.059 J-3.226
G2 X97.676 Y36.972 I4.472 J5.225
X88.733 Y26.522 I-4.472 J-5.225
X88.188 Y31.299 I2.295 J2.681
X91.859 Y34.403 I8.375 J-6.18
X94.55 Y29.091 I1.345 J-2.656
X91.859 Y34.403 I-1.345 J2.656
X92.768 Y33.669 I0.289 J-0.571
G3 X93.388 Y32.678 I0.774 J-0.204
G2 X93.022 Y30.816 I-0.183 J-0.931
X93.388 Y32.678 I0.183 J0.931
X93.561 Y32.627 Z-1.971 I-0.183 J-0.931
X93.706 Y32.553 Z-1.888 I-0.356 J-0.88
X93.811 Y32.478 Z-1.759 I-0.501 J-0.806
X93.873 Y32.422 Z-1.596 I-0.606 J-0.73
X93.893 Y32.401 Z-1.415 I-0.668 J-0.674
G0 Z15.
X126.701 Y28.537
Z5.
G1 Z2. F1000.
Z-0.415
X126.703 Y28.544 Z-0.507
X126.71 Y28.564 Z-0.596
X126.722 Y28.597 Z-0.681
X126.738 Y28.643 Z-0.759
X126.759 Y28.699 Z-0.829
X126.782 Y28.764 Z-0.888
X126.809 Y28.838 Z-0.936
X126.838 Y28.918 Z-0.971
X126.868 Y29.002 Z-0.993
X126.899 Y29.088 Z-1.
G3 X127.382 Y31.601 I-7.693 J2.781
G2 X187.905 Y29.62 I30.261 J-0.99
X139.477 Y6.389 I-30.261 J0.99
X127.382 Y31.601 I18.166 J24.222
X129.592 Y34.558 I3.224 J-0.106
G3 X132.116 Y37.251 I-1.214 J3.666
G2 X184.021 Y30.611 I25.528 J-6.641
X154.296 Y4.446 I-26.377
X132.116 Y37.251 I3.347 J26.164
X134.953 Y39.658 I3.13 J-0.814
G3 X138.079 Y41.677 I-0.363 J3.992
G2 X177.208 Y19.544 I19.565 J-11.066
X138.079 Y41.677 I-19.565 J11.066
X138.572 Y41.702 I0.255 J-0.144
G1 X145.575 Y31.816
G2 X145.607 Y31.537 I-0.239 J-0.169
G1 X141.752 Y21.951
G2 X141.222 Y21.923 I-0.271 J0.109
X156.957 Y49.175 I16.421 J8.687
G1 X158.331
G2 X174.064 Y21.923 I-0.687 J-18.565
G1 X173.383 Y20.743
G2 X141.903 Y20.744 I-15.74 J9.868
X142.154 Y24.561 I2.767 J1.735
G3 X143.157 Y28.252 I-3.562 J2.949
G2 X172.13 Y32.969 I14.487 J2.358
X143.157 Y28.252 I-14.487 J-2.358
X144.964 Y31.744 I3.253 J0.53
G3 X147.641 Y34.623 I-2.399 J4.915
G2 X167.646 Y26.599 I10.003 J-4.012
X147.641 Y34.623 I-10.003 J4.012
X151.232 Y36.693 I3.112 J-1.248
G3 X155.358 Y37.097 I1.241 J8.592
G2 X164.521 Y30.611 I2.285 J-6.487
X150.766 I-6.877
X155.358 Y37.097 I6.877
X159.766 Y35.178 I1.173 J-3.328
X160.616 Y30.446 I-9.543 J-4.157
X154.671 Y30.775 I-2.973 J0.165
X160.616 Y30.446 I2.973 J-0.165
X159.526 Y30.027 I-0.639 J0.035
G3 X158.358 Y29.986 I-0.564 J-0.568
G2 X156.929 Y31.235 I-0.715 J0.625
X158.358 Y29.986 I0.715 J-0.625
G3 X161.337 Y25.524 Z-1.198 I2.092 J-1.829
G1 X184.255 Y33.244 Z-1.857
G2 X187.921 Y30.611 Z-2. I0.887 J-2.633
X127.366 I-30.277
X187.921 I30.277
X185.809 Y27.583 I-3.226
G3 X183.375 Y24.808 I1.333 J-3.624
G2 X131.912 Y36.413 I-25.731 J5.802
X183.375 Y24.808 I25.731 J-5.802
X180.618 Y22.31 I-3.155 J0.712
G3 X177.559 Y20.19 I0.493 J-3.978
G2 X137.727 Y41.031 I-19.916 J10.42
X177.559 Y20.19 I19.916 J-10.42
X177.233 Y20.041 I-0.259 J0.136
G1 X173.698 Y20.872
G3 X173.383 Y20.743 I-0.067 J-0.285
G2 X141.903 Y20.744 I-15.74 J9.868
G1 X141.222 Y21.923
G2 X156.957 Y49.175 I16.421 J8.687
G1 X158.331
G2 X174.064 Y21.923 I-0.687 J-18.565
X170.634 Y20.23 I-2.887 J1.527
G3 X166.936 Y19.25 I-0.77 J-4.56
G2 X148.351 Y41.971 I-9.293 J11.361
X166.936 Y19.25 I9.293 J-11.361
X163.009 Y19.067 I-2.087 J2.551
G3 X159.177 Y19.943 I-3.054 J-4.537
G2 X156.11 Y41.278 I-1.534 J10.668
X159.177 Y19.943 I1.534 J-10.668
X155.587 Y22.016 I-0.477 J3.319
G3 X153.172 Y25.385 I-8.059 J-3.226
G2 X153.517 Y36.112 I4.472 J5.225
X164.521 Y30.611 I4.126 J-5.502
X153.172 Y25.385 I-6.877
X152.627 Y30.162 I2.294 J2.681
X156.298 Y33.266 I8.375 J-6.181
X160.621 Y30.611 I1.346 J-2.656
X154.666 I-2.977
X156.298 Y33.266 I2.977
X157.206 Y32.532 I0.289 J-0.571
G3 X157.826 Y31.542 I0.774 J-0.204
G2 X158.592 Y30.611 I-0.183 J-0.931
X156.694 I-0.949
X157.826 Y31.542 I0.949
X157.999 Y31.49 Z-1.971 I-0.183 J-0.931
X158.145 Y31.416 Z-1.888 I-0.356 J-0.88
X158.249 Y31.341 Z-1.759 I-0.501 J-0.806
X158.311 Y31.285 Z-1.596 I-0.606 J-0.73
X158.331 Y31.265 Z-1.415 I-0.668 J-0.675
G0 Z15.
X225.064 Y-1.869
Z5.
G1 Z2. F1000.
Z-0.415
X225.057 Y-1.867 Z-0.507
X225.037 Y-1.86 Z-0.596
X225.003 Y-1.849 Z-0.681
X224.958 Y-1.835 Z-0.759
X224.901 Y-1.816 Z-0.829
X224.835 Y-1.795 Z-0.888
X224.76 Y-1.77 Z-0.936
X224.679 Y-1.744 Z-0.971
X224.595 Y-1.717 Z-0.993
X224.508 Y-1.688 Z-1.
G3 X221.912 Y-1.277 I-2.596 J-7.988
G2 Y59.277 J30.277
Y-1.277 J-30.277
X218.885 Y0.835 J3.226
G3 X216.11 Y3.269 I-3.624 J-1.333
G2 X227.714 Y54.731 I5.802 J25.731
X216.11 Y3.269 I-5.802 J-25.731
X213.611 Y6.026 I0.712 J3.155
G3 X211.492 Y9.084 I-3.978 J-0.493
G2 X232.332 Y48.916 I10.42 J19.916
X211.492 Y9.084 I-10.42 J-19.916
X211.369 Y9.206 I0.136 J0.259
G1 X205.491 Y20.313
G2 X221.225 Y47.565 I16.421 J8.687
G1 X222.599
G2 X238.333 Y20.312 I-0.687 J-18.565
G1 X237.652 Y19.132
G2 X206.172 Y19.133 I-15.74 J9.868
X206.423 Y22.95 I2.767 J1.735
G3 X207.425 Y26.642 I-3.562 J2.949
G2 X220.729 Y43.63 I14.487 J2.358
X236.589 Y29. I1.183 J-14.63
X207.425 Y26.642 I-14.677
X209.232 Y30.133 I3.253 J0.529
G3 X211.909 Y33.012 I-2.399 J4.915
G2 X231.915 Y24.988 I10.003 J-4.012
X211.909 Y33.012 I-10.003 J4.012
X215.501 Y35.082 I3.112 J-1.248
G3 X219.627 Y35.487 I1.241 J8.592
G2 X224.197 Y22.513 I2.285 J-6.487
X219.627 Y35.487 I-2.285 J6.487
X224.035 Y33.567 I1.173 J-3.328
X224.885 Y28.835 I-9.542 J-4.156
X218.939 Y29.165 I-2.973 J0.165
X224.885 Y28.835 I2.973 J-0.165
X223.794 Y28.417 I-0.639 J0.035
G3 X222.627 Y28.375 I-0.565 J-0.568
G2 X221.197 Y29.625 I-0.715 J0.625
X222.627 Y28.375 I0.715 J-0.625
G3 X225.606 Y23.913 Z-1.198 I2.092 J-1.829
G1 X248.524 Y31.633 Z-1.857
G2 X252.189 Y29. Z-2. I0.887 J-2.633
X191.635 I-30.277
X252.189 I30.277
X250.077 Y25.973 I-3.226
G3 X247.643 Y23.198 I1.333 J-3.624
G2 X196.181 Y34.802 I-25.731 J5.802
X247.643 Y23.198 I25.731 J-5.802
X244.886 Y20.699 I-3.155 J0.712
G3 X241.828 Y18.58 I0.493 J-3.978
G2 X201.996 Y39.42 I-19.916 J10.42
X241.828 Y18.58 I19.916 J-10.42
X241.502 Y18.431 I-0.259 J0.136
G1 X237.967 Y19.262
G3 X237.652 Y19.132 I-0.067 J-0.285
G2 X206.172 Y19.133 I-15.74 J9.868
G1 X205.491 Y20.313
G2 X221.225 Y47.565 I16.421 J8.687
G1 X222.599
G2 X238.333 Y20.312 I-0.687 J-18.565
X234.902 Y18.619 I-2.887 J1.527
G3 X231.205 Y17.639 I-0.77 J-4.56
G2 X212.619 Y40.361 I-9.293 J11.361
X231.205 Y17.639 I9.293 J-11.361
X227.278 Y17.456 I-2.087 J2.551
G3 X223.446 Y18.332 I-3.054 J-4.537
G2 X220.378 Y39.668 I-1.534 J10.668
X223.446 Y18.332 I1.534 J-10.668
X219.855 Y20.405 I-0.477 J3.319
G3 X217.44 Y23.775 I-8.059 J-3.226
G2 X226.384 Y34.225 I4.472 J5.225
X217.44 Y23.775 I-4.472 J-5.225
X216.895 Y28.552 I2.295 J2.681
X220.567 Y31.656 I8.375 J-6.18
X223.257 Y26.344 I1.345 J-2.656
X220.567 Y31.656 I-1.345 J2.656
X221.475 Y30.921 I0.289 J-0.571
G3 X222.095 Y29.931 I0.774 J-0.204
G2 X222.861 Y29. I-0.183 J-0.931
X220.963 I-0.949
X222.095 Y29.931 I0.949
X222.268 Y29.88 Z-1.971 I-0.183 J-0.931
X222.413 Y29.806 Z-1.888 I-0.356 J-0.88
X222.518 Y29.73 Z-1.759 I-0.501 J-0.806
X222.58 Y29.674 Z-1.596 I-0.606 J-0.73
X222.6 Y29.654 Z-1.415 I-0.668 J-0.674
G0 Z15.
(BORE1)
G0 X28.535 Y48.811
Z15.
Z0.
G1 Z-1.415 F1000.
G18 G2 X29.12 Z-2. I0.585
G1 X29.413
G17 G3 X29.825 Y49.224 J0.413
X28.175 Z-2.5 I-0.825
X29.825 Z-3. I0.825
X28.175 Z-3.5 I-0.825
X29.825 Z-4. I0.825
X28.175 Z-4.5 I-0.825
X29.825 Z-5. I0.825
X28.175 Z-5.5 I-0.825
X29.825 Z-6. I0.825
X28.175 Z-6.5 I-0.825
X29.825 Z-7. I0.825
X28.175 I-0.825
X29.825 I0.825
X29.413 Y49.636 I-0.413
G1 X29.12
G18 G3 X28.535 Z-6.415 K0.585
G0 Z5.
X12.947 Y21.811
Z0.
G1 Z-1.415 F1000.
G2 X13.532 Z-2. I0.585
G1 X13.824
G17 G3 X14.237 Y22.224 J0.413
X12.587 Z-2.5 I-0.825
X14.237 Z-3. I0.825
X12.587 Z-3.5 I-0.825
X14.237 Z-4. I0.825
X12.587 Z-4.5 I-0.825
X14.237 Z-5. I0.825
X12.587 Z-5.5 I-0.825
X14.237 Z-6. I0.825
X12.587 Z-6.5 I-0.825
X14.237 Z-7. I0.825
X12.587 I-0.825
X14.237 I0.825
X13.824 Y22.636 I-0.413
G1 X13.532
G18 G3 X12.947 Z-6.415 K0.585
G0 Z5.
X44.123 Y21.811
Z0.
G1 Z-1.415 F1000.
G2 X44.708 Z-2. I0.585
G1 X45.001
G17 G3 X45.413 Y22.224 J0.413
X43.763 Z-2.5 I-0.825
X45.413 Z-3. I0.825
X43.763 Z-3.5 I-0.825
X45.413 Z-4. I0.825
X43.763 Z-4.5 I-0.825
X45.413 Z-5. I0.825
X43.763 Z-5.5 I-0.825
X45.413 Z-6. I0.825
X43.763 Z-6.5 I-0.825
X45.413 Z-7. I0.825
X43.763 I-0.825
X45.413 I0.825
X45.001 Y22.636 I-0.412
G1 X44.708
G18 G3 X44.123 Z-6.415 K0.585
G0 Z5.
X77.152 Y22.335
Z0.
G1 Z-1.415 F1000.
G2 X77.737 Z-2. I0.585
G1 X78.029
G17 G3 X78.442 Y22.747 J0.412
X76.792 Z-2.5 I-0.825
X78.442 Z-3. I0.825
X76.792 Z-3.5 I-0.825
X78.442 Z-4. I0.825
X76.792 Z-4.5 I-0.825
X78.442 Z-5. I0.825
X76.792 Z-5.5 I-0.825
X78.442 Z-6. I0.825
X76.792 Z-6.5 I-0.825
X78.442 Z-7. I0.825
X76.792 I-0.825
X78.442 I0.825
X78.029 Y23.16 I-0.412
G1 X77.737
G18 G3 X77.152 Z-6.415 K0.585
G0 Z5.
X108.329 Y22.335
Z0.
G1 Z-1.415 F1000.
G2 X108.914 Z-2. I0.585
G1 X109.206
G17 G3 X109.619 Y22.747 J0.412
X107.969 Z-2.5 I-0.825
X109.619 Z-3. I0.825
X107.969 Z-3.5 I-0.825
X109.619 Z-4. I0.825
X107.969 Z-4.5 I-0.825
X109.619 Z-5. I0.825
X107.969 Z-5.5 I-0.825
X109.619 Z-6. I0.825
X107.969 Z-6.5 I-0.825
X109.619 Z-7. I0.825
X107.969 I-0.825
X109.619 I0.825
X109.206 Y23.16 I-0.412
G1 X108.914
G18 G3 X108.329 Z-6.415 K0.585
G0 Z5.
X92.74 Y49.335
Z0.
G1 Z-1.415 F1000.
G2 X93.325 Z-2. I0.585
G1 X93.618
G17 G3 X94.03 Y49.747 J0.412
X92.38 Z-2.5 I-0.825
X94.03 Z-3. I0.825
X92.38 Z-3.5 I-0.825
X94.03 Z-4. I0.825
X92.38 Z-4.5 I-0.825
X94.03 Z-5. I0.825
X92.38 Z-5.5 I-0.825
X94.03 Z-6. I0.825
X92.38 Z-6.5 I-0.825
X94.03 Z-7. I0.825
X92.38 I-0.825
X94.03 I0.825
X93.618 Y50.16 I-0.412
G1 X93.325
G18 G3 X92.74 Z-6.415 K0.585
G0 Z15.
G17
(2D CONTOUR1)
G0 X156.458 Y61.813
Z15.
Z5.
G1 Z2. F1000.
Z-0.9 F333.3
X156.459 Y61.806 Z-0.938
Y61.784 Z-0.971
X156.46 Y61.752 Z-0.992
X156.462 Y61.713 Z-1.
X156.465 Y61.613 F1000.
G3 X156.569 Y61.517 I0.1 J0.003
G2 X188.568 Y30.611 I1.074 J-30.906
X126.718 I-30.925
X156.569 Y61.517 I30.925
G3 X156.665 Y61.62 I-0.003 J0.1
G1 X156.662 Y61.72
X156.66 Y61.759 Z-0.992
X156.659 Y61.791 Z-0.971
X156.658 Y61.813 Z-0.938
Y61.82 Z-0.9
G0 Z5.
X156.458 Y61.813
G1 Z1. F1000.
Z-1.9 F333.3
X156.459 Y61.806 Z-1.938
Y61.784 Z-1.971
X156.46 Y61.752 Z-1.992
X156.462 Y61.713 Z-2.
X156.465 Y61.613 F1000.
G3 X156.569 Y61.517 I0.1 J0.003
G2 X188.568 Y30.611 I1.074 J-30.906
X126.718 I-30.925
X156.569 Y61.517 I30.925
G3 X156.665 Y61.62 I-0.003 J0.1
G1 X156.662 Y61.72
X156.66 Y61.759 Z-1.992
X156.659 Y61.791 Z-1.971
X156.658 Y61.813 Z-1.938
Y61.82 Z-1.9
G0 Z5.
X156.458 Y61.813
G1 Z0. F1000.
Z-2.9 F333.3
X156.459 Y61.806 Z-2.938
Y61.784 Z-2.971
X156.46 Y61.752 Z-2.992
X156.462 Y61.713 Z-3.
X156.465 Y61.613 F1000.
G3 X156.569 Y61.517 I0.1 J0.003
G2 X188.568 Y30.611 I1.074 J-30.906
X126.718 I-30.925
X156.569 Y61.517 I30.925
G3 X156.665 Y61.62 I-0.003 J0.1
G1 X156.662 Y61.72
X156.66 Y61.759 Z-2.992
X156.659 Y61.791 Z-2.971
X156.658 Y61.813 Z-2.938
Y61.82 Z-2.9
G0 Z5.
X156.458 Y61.813
G1 Z-1. F1000.
Z-3.9 F333.3
X156.459 Y61.806 Z-3.938
Y61.784 Z-3.971
X156.46 Y61.752 Z-3.992
X156.462 Y61.713 Z-4.
X156.465 Y61.613 F1000.
G3 X156.569 Y61.517 I0.1 J0.003
G2 X188.568 Y30.611 I1.074 J-30.906
X126.718 I-30.925
X156.569 Y61.517 I30.925
G3 X156.665 Y61.62 I-0.003 J0.1
G1 X156.662 Y61.72
X156.66 Y61.759 Z-3.992
X156.659 Y61.791 Z-3.971
X156.658 Y61.813 Z-3.938
Y61.82 Z-3.9
G0 Z5.
X156.458 Y61.813
G1 Z-2. F1000.
Z-4.9 F333.3
X156.459 Y61.806 Z-4.938
Y61.784 Z-4.971
X156.46 Y61.752 Z-4.992
X156.462 Y61.713 Z-5.
X156.465 Y61.613 F1000.
G3 X156.569 Y61.517 I0.1 J0.003
G2 X188.568 Y30.611 I1.074 J-30.906
X126.718 I-30.925
X156.569 Y61.517 I30.925
G3 X156.665 Y61.62 I-0.003 J0.1
G1 X156.662 Y61.72
X156.66 Y61.759 Z-4.992
X156.659 Y61.791 Z-4.971
X156.658 Y61.813 Z-4.938
Y61.82 Z-4.9
G0 Z5.
X156.458 Y61.813
G1 Z-3. F1000.
Z-5.9 F333.3
X156.459 Y61.806 Z-5.938
Y61.784 Z-5.971
X156.46 Y61.752 Z-5.992
X156.462 Y61.713 Z-6.
X156.465 Y61.613 F1000.
G3 X156.569 Y61.517 I0.1 J0.003
G2 X188.568 Y30.611 I1.074 J-30.906
X126.718 I-30.925
X156.569 Y61.517 I30.925
G3 X156.665 Y61.62 I-0.003 J0.1
G1 X156.662 Y61.72
X156.66 Y61.759 Z-5.992
X156.659 Y61.791 Z-5.971
X156.658 Y61.813 Z-5.938
Y61.82 Z-5.9
G0 Z5.
X156.458 Y61.813
G1 Z-4. F1000.
Z-6.9 F333.3
X156.459 Y61.806 Z-6.938
Y61.784 Z-6.971
X156.46 Y61.752 Z-6.992
X156.462 Y61.713 Z-7.
X156.465 Y61.613 F1000.
G3 X156.569 Y61.517 I0.1 J0.003
G2 X188.568 Y30.611 I1.074 J-30.906
X126.718 I-30.925
X156.569 Y61.517 I30.925
G3 X156.665 Y61.62 I-0.003 J0.1
G1 X156.662 Y61.72
X156.66 Y61.759 Z-6.992
X156.659 Y61.791 Z-6.971
X156.658 Y61.813 Z-6.938
Y61.82 Z-6.9
G0 Z5.
X156.458 Y61.813
G1 Z-5. F1000.
Z-7.9 F333.3
X156.459 Y61.806 Z-7.938
Y61.784 Z-7.971
X156.46 Y61.752 Z-7.992
X156.462 Y61.713 Z-8.
X156.465 Y61.613 F1000.
G3 X156.569 Y61.517 I0.1 J0.003
G2 X188.568 Y30.611 I1.074 J-30.906
X126.718 I-30.925
X156.569 Y61.517 I30.925
G3 X156.665 Y61.62 I-0.003 J0.1
G1 X156.662 Y61.72
X156.66 Y61.759 Z-7.992
X156.659 Y61.791 Z-7.971
X156.658 Y61.813 Z-7.938
Y61.82 Z-7.9
G0 Z5.
X156.458 Y61.813
G1 Z-6. F1000.
Z-8.9 F333.3
X156.459 Y61.806 Z-8.938
Y61.784 Z-8.971
X156.46 Y61.752 Z-8.992
X156.462 Y61.713 Z-9.
X156.465 Y61.613 F1000.
G3 X156.569 Y61.517 I0.1 J0.003
G2 X188.568 Y30.611 I1.074 J-30.906
X126.718 I-30.925
X156.569 Y61.517 I30.925
G3 X156.665 Y61.62 I-0.003 J0.1
G1 X156.662 Y61.72
X156.66 Y61.759 Z-8.992
X156.659 Y61.791 Z-8.971
X156.658 Y61.813 Z-8.938
Y61.82 Z-8.9
G0 Z5.
X156.458 Y61.813
G1 Z-7. F1000.
Z-9.9 F333.3
X156.459 Y61.806 Z-9.938
Y61.784 Z-9.971
X156.46 Y61.752 Z-9.992
X156.462 Y61.713 Z-10.
X156.465 Y61.613 F1000.
G3 X156.569 Y61.517 I0.1 J0.003
G2 X188.568 Y30.611 I1.074 J-30.906
X126.718 I-30.925
X156.569 Y61.517 I30.925
G3 X156.665 Y61.62 I-0.003 J0.1
G1 X156.662 Y61.72
X156.66 Y61.759 Z-9.992
X156.659 Y61.791 Z-9.971
X156.658 Y61.813 Z-9.938
Y61.82 Z-9.9
G0 Z5.
X156.458 Y61.813
G1 Z-8. F1000.
Z-10.9 F333.3
X156.459 Y61.806 Z-10.938
Y61.784 Z-10.971
X156.46 Y61.752 Z-10.992
X156.462 Y61.713 Z-11.
X156.465 Y61.613 F1000.
G3 X156.569 Y61.517 I0.1 J0.003
G2 X188.568 Y30.611 I1.074 J-30.906
X126.718 I-30.925
X156.569 Y61.517 I30.925
G3 X156.665 Y61.62 I-0.003 J0.1
G1 X156.662 Y61.72
X156.66 Y61.759 Z-10.992
X156.659 Y61.791 Z-10.971
X156.658 Y61.813 Z-10.938
Y61.82 Z-10.9
G0 Z5.
X156.458 Y61.813
G1 Z-9. F1000.
Z-11.9 F333.3
X156.459 Y61.806 Z-11.938
Y61.784 Z-11.971
X156.46 Y61.752 Z-11.992
X156.462 Y61.713 Z-12.
X156.465 Y61.613 F1000.
G3 X156.569 Y61.517 I0.1 J0.003
G2 X188.568 Y30.611 I1.074 J-30.906
X126.718 I-30.925
X156.569 Y61.517 I30.925
G3 X156.665 Y61.62 I-0.003 J0.1
G1 X156.662 Y61.72
X156.66 Y61.759 Z-11.992
X156.659 Y61.791 Z-11.971
X156.658 Y61.813 Z-11.938
Y61.82 Z-11.9
G0 Z5.
X156.458 Y61.813
G1 Z-10. F1000.
Z-12.9 F333.3
X156.459 Y61.806 Z-12.938
Y61.784 Z-12.971
X156.46 Y61.752 Z-12.992
X156.462 Y61.713 Z-13.
X156.465 Y61.613 F1000.
G3 X156.569 Y61.517 I0.1 J0.003
G2 X188.568 Y30.611 I1.074 J-30.906
X126.718 I-30.925
X156.569 Y61.517 I30.925
G3 X156.665 Y61.62 I-0.003 J0.1
G1 X156.662 Y61.72
X156.66 Y61.759 Z-12.992
X156.659 Y61.791 Z-12.971
X156.658 Y61.813 Z-12.938
Y61.82 Z-12.9
G0 Z5.
X156.458 Y61.813
G1 Z-11. F1000.
Z-13.5 F333.3
X156.462 Y61.713
X156.465 Y61.613 F1000.
G3 X156.569 Y61.517 I0.1 J0.003
G2 X161.668 Y61.273 I1.074 J-30.906
G1 Z-14. F333.3
G2 X188.44 Y33.419 I-4.025 J-30.662 F1000.
G1 Z-13.5
G2 X132.506 Y12.597 I-30.797 J-2.808
X182.78 Y48.625 I25.137 J18.014
X188.069 Y25.075 I-25.137 J-18.014
G1 Z-14. F333.3
G2 X161.568 Y-0.064 I-30.426 J5.536 F1000.
G1 Z-13.5
G2 X153.718 I-3.925 J30.675
G1 Z-14. F333.3
G2 X126.968 Y26.686 I3.925 J30.675 F1000.
G1 Z-13.5
G2 X188.318 Y34.536 I30.675 J3.925
X157.181 Y-0.311 I-30.675 J-3.925
X127.099 Y35.451 I0.462 J30.922
G1 Z-14. F333.3
G2 X153.818 Y61.298 I30.544 J-4.84 F1000.
G1 Z-13.5
G2 X156.569 Y61.517 I3.825 J-30.688
G3 X156.665 Y61.62 I-0.003 J0.1
G1 X156.658 Y61.82
G0 Z5.
X156.458 Y61.813
G1 Z-12. F1000.
Z-13.5 F333.3
X156.462 Y61.713
X156.465 Y61.613 F1000.
G3 X156.569 Y61.517 I0.1 J0.003
G2 X161.668 Y61.273 I1.074 J-30.906
G1 Z-15. F333.3
G2 X188.44 Y33.419 I-4.025 J-30.662 F1000.
G1 Z-13.5
G2 X132.506 Y12.597 I-30.797 J-2.808
X182.78 Y48.625 I25.137 J18.014
X188.069 Y25.075 I-25.137 J-18.014
G1 Z-15. F333.3
G2 X161.568 Y-0.064 I-30.426 J5.536 F1000.
G1 Z-13.5
G2 X153.718 I-3.925 J30.675
G1 Z-15. F333.3
G2 X126.968 Y26.686 I3.925 J30.675 F1000.
G1 Z-13.5
G2 X188.318 Y34.536 I30.675 J3.925
X157.181 Y-0.311 I-30.675 J-3.925
X127.099 Y35.451 I0.462 J30.922
G1 Z-15. F333.3
G2 X153.818 Y61.298 I30.544 J-4.84 F1000.
G1 Z-13.5
G2 X156.569 Y61.517 I3.825 J-30.688
G3 X156.665 Y61.62 I-0.003 J0.1
G1 X156.658 Y61.82
G0 Z5.
X94.655 Y62.939
G1 Z2. F1000.
Z-0.9 F333.3
Y62.931 Z-0.938
X94.654 Y62.909 Z-0.971
X94.652 Y62.877 Z-0.992
X94.65 Y62.839 Z-1.
X94.645 Y62.739 F1000.
G3 X94.74 Y62.634 I0.1 J-0.005
G2 X91.67 Y0.86 I-1.535 J-30.887
X93.205 Y62.672 I1.535 J30.887
X94.74 Y62.634 J-30.925
G3 X94.845 Y62.729 I0.005 J0.1
G1 X94.85 Y62.829
X94.852 Y62.867 Z-0.992
X94.854 Y62.899 Z-0.971
X94.855 Y62.921 Z-0.938
Y62.929 Z-0.9
G0 Z5.
X94.655 Y62.939
G1 Z1. F1000.
Z-1.9 F333.3
Y62.931 Z-1.938
X94.654 Y62.909 Z-1.971
X94.652 Y62.877 Z-1.992
X94.65 Y62.839 Z-2.
X94.645 Y62.739 F1000.
G3 X94.74 Y62.634 I0.1 J-0.005
G2 X91.67 Y0.86 I-1.535 J-30.887
X93.205 Y62.672 I1.535 J30.887
X94.74 Y62.634 J-30.925
G3 X94.845 Y62.729 I0.005 J0.1
G1 X94.85 Y62.829
X94.852 Y62.867 Z-1.992
X94.854 Y62.899 Z-1.971
X94.855 Y62.921 Z-1.938
Y62.929 Z-1.9
G0 Z5.
X94.655 Y62.939
G1 Z0. F1000.
Z-2.9 F333.3
Y62.931 Z-2.938
X94.654 Y62.909 Z-2.971
X94.652 Y62.877 Z-2.992
X94.65 Y62.839 Z-3.
X94.645 Y62.739 F1000.
G3 X94.74 Y62.634 I0.1 J-0.005
G2 X91.67 Y0.86 I-1.535 J-30.887
X93.205 Y62.672 I1.535 J30.887
X94.74 Y62.634 J-30.925
G3 X94.845 Y62.729 I0.005 J0.1
G1 X94.85 Y62.829
X94.852 Y62.867 Z-2.992
X94.854 Y62.899 Z-2.971
X94.855 Y62.921 Z-2.938
Y62.929 Z-2.9
G0 Z5.
X94.655 Y62.939
G1 Z-1. F1000.
Z-3.9 F333.3
Y62.931 Z-3.938
X94.654 Y62.909 Z-3.971
X94.652 Y62.877 Z-3.992
X94.65 Y62.839 Z-4.
X94.645 Y62.739 F1000.
G3 X94.74 Y62.634 I0.1 J-0.005
G2 X91.67 Y0.86 I-1.535 J-30.887
X93.205 Y62.672 I1.535 J30.887
X94.74 Y62.634 J-30.925
G3 X94.845 Y62.729 I0.005 J0.1
G1 X94.85 Y62.829
X94.852 Y62.867 Z-3.992
X94.854 Y62.899 Z-3.971
X94.855 Y62.921 Z-3.938
Y62.929 Z-3.9
G0 Z5.
X94.655 Y62.939
G1 Z-2. F1000.
Z-4.9 F333.3
Y62.931 Z-4.938
X94.654 Y62.909 Z-4.971
X94.652 Y62.877 Z-4.992
X94.65 Y62.839 Z-5.
X94.645 Y62.739 F1000.
G3 X94.74 Y62.634 I0.1 J-0.005
G2 X91.67 Y0.86 I-1.535 J-30.887
X93.205 Y62.672 I1.535 J30.887
X94.74 Y62.634 J-30.925
G3 X94.845 Y62.729 I0.005 J0.1
G1 X94.85 Y62.829
X94.852 Y62.867 Z-4.992
X94.854 Y62.899 Z-4.971
X94.855 Y62.921 Z-4.938
Y62.929 Z-4.9
G0 Z5.
X94.655 Y62.939
G1 Z-3. F1000.
Z-5.9 F333.3
Y62.931 Z-5.938
X94.654 Y62.909 Z-5.971
X94.652 Y62.877 Z-5.992
X94.65 Y62.839 Z-6.
X94.645 Y62.739 F1000.
G3 X94.74 Y62.634 I0.1 J-0.005
G2 X91.67 Y0.86 I-1.535 J-30.887
X93.205 Y62.672 I1.535 J30.887
X94.74 Y62.634 J-30.925
G3 X94.845 Y62.729 I0.005 J0.1
G1 X94.85 Y62.829
X94.852 Y62.867 Z-5.992
X94.854 Y62.899 Z-5.971
X94.855 Y62.921 Z-5.938
Y62.929 Z-5.9
G0 Z5.
X94.655 Y62.939
G1 Z-4. F1000.
Z-6.9 F333.3
Y62.931 Z-6.938
X94.654 Y62.909 Z-6.971
X94.652 Y62.877 Z-6.992
X94.65 Y62.839 Z-7.
X94.645 Y62.739 F1000.
G3 X94.74 Y62.634 I0.1 J-0.005
G2 X91.67 Y0.86 I-1.535 J-30.887
X93.205 Y62.672 I1.535 J30.887
X94.74 Y62.634 J-30.925
G3 X94.845 Y62.729 I0.005 J0.1
G1 X94.85 Y62.829
X94.852 Y62.867 Z-6.992
X94.854 Y62.899 Z-6.971
X94.855 Y62.921 Z-6.938
Y62.929 Z-6.9
G0 Z5.
X94.655 Y62.939
G1 Z-5. F1000.
Z-7.9 F333.3
Y62.931 Z-7.938
X94.654 Y62.909 Z-7.971
X94.652 Y62.877 Z-7.992
X94.65 Y62.839 Z-8.
X94.645 Y62.739 F1000.
G3 X94.74 Y62.634 I0.1 J-0.005
G2 X91.67 Y0.86 I-1.535 J-30.887
X93.205 Y62.672 I1.535 J30.887
X94.74 Y62.634 J-30.925
G3 X94.845 Y62.729 I0.005 J0.1
G1 X94.85 Y62.829
X94.852 Y62.867 Z-7.992
X94.854 Y62.899 Z-7.971
X94.855 Y62.921 Z-7.938
Y62.929 Z-7.9
G0 Z5.
X94.655 Y62.939
G1 Z-6. F1000.
Z-8.9 F333.3
Y62.931 Z-8.938
X94.654 Y62.909 Z-8.971
X94.652 Y62.877 Z-8.992
X94.65 Y62.839 Z-9.
X94.645 Y62.739 F1000.
G3 X94.74 Y62.634 I0.1 J-0.005
G2 X91.67 Y0.86 I-1.535 J-30.887
X93.205 Y62.672 I1.535 J30.887
X94.74 Y62.634 J-30.925
G3 X94.845 Y62.729 I0.005 J0.1
G1 X94.85 Y62.829
X94.852 Y62.867 Z-8.992
X94.854 Y62.899 Z-8.971
X94.855 Y62.921 Z-8.938
Y62.929 Z-8.9
G0 Z5.
X94.655 Y62.939
G1 Z-7. F1000.
Z-9.9 F333.3
Y62.931 Z-9.938
X94.654 Y62.909 Z-9.971
X94.652 Y62.877 Z-9.992
X94.65 Y62.839 Z-10.
X94.645 Y62.739 F1000.
G3 X94.74 Y62.634 I0.1 J-0.005
G2 X91.67 Y0.86 I-1.535 J-30.887
X93.205 Y62.672 I1.535 J30.887
X94.74 Y62.634 J-30.925
G3 X94.845 Y62.729 I0.005 J0.1
G1 X94.85 Y62.829
X94.852 Y62.867 Z-9.992
X94.854 Y62.899 Z-9.971
X94.855 Y62.921 Z-9.938
Y62.929 Z-9.9
G0 Z5.
X94.655 Y62.939
G1 Z-8. F1000.
Z-10.9 F333.3
Y62.931 Z-10.938
X94.654 Y62.909 Z-10.971
X94.652 Y62.877 Z-10.992
X94.65 Y62.839 Z-11.
X94.645 Y62.739 F1000.
G3 X94.74 Y62.634 I0.1 J-0.005
G2 X91.67 Y0.86 I-1.535 J-30.887
X93.205 Y62.672 I1.535 J30.887
X94.74 Y62.634 J-30.925
G3 X94.845 Y62.729 I0.005 J0.1
G1 X94.85 Y62.829
X94.852 Y62.867 Z-10.992
X94.854 Y62.899 Z-10.971
X94.855 Y62.921 Z-10.938
Y62.929 Z-10.9
G0 Z5.
X94.655 Y62.939
G1 Z-9. F1000.
Z-11.9 F333.3
Y62.931 Z-11.938
X94.654 Y62.909 Z-11.971
X94.652 Y62.877 Z-11.992
X94.65 Y62.839 Z-12.
X94.645 Y62.739 F1000.
G3 X94.74 Y62.634 I0.1 J-0.005
G2 X91.67 Y0.86 I-1.535 J-30.887
X93.205 Y62.672 I1.535 J30.887
X94.74 Y62.634 J-30.925
G3 X94.845 Y62.729 I0.005 J0.1
G1 X94.85 Y62.829
X94.852 Y62.867 Z-11.992
X94.854 Y62.899 Z-11.971
X94.855 Y62.921 Z-11.938
Y62.929 Z-11.9
G0 Z5.
X94.655 Y62.939
G1 Z-10. F1000.
Z-12.9 F333.3
Y62.931 Z-12.938
X94.654 Y62.909 Z-12.971
X94.652 Y62.877 Z-12.992
X94.65 Y62.839 Z-13.
X94.645 Y62.739 F1000.
G3 X94.74 Y62.634 I0.1 J-0.005
G2 X91.67 Y0.86 I-1.535 J-30.887
X93.205 Y62.672 I1.535 J30.887
X94.74 Y62.634 J-30.925
G3 X94.845 Y62.729 I0.005 J0.1
G1 X94.85 Y62.829
X94.852 Y62.867 Z-12.992
X94.854 Y62.899 Z-12.971
X94.855 Y62.921 Z-12.938
Y62.929 Z-12.9
G0 Z5.
X94.655 Y62.939
G1 Z-11. F1000.
Z-13.5 F333.3
X94.65 Y62.839
X94.645 Y62.739 F1000.
G3 X94.74 Y62.634 I0.1 J-0.005
G2 X97.232 Y62.409 I-1.535 J-30.887
G1 Z-14. F333.3
G2 X123.905 Y35.472 I-4.027 J-30.662 F1000.
G1 Z-13.5
G2 X62.505 Y28.023 I-30.7 J-3.724
X93.881 Y62.665 I30.7 J3.724
X123.713 Y26.686 I-0.675 J-30.918
G1 Z-14. F333.3
G2 X97.13 Y1.072 I-30.508 J5.062 F1000.
G1 Z-13.5
G2 X89.28 I-3.925 J30.675
G1 Z-14. F333.3
G2 X62.616 Y27.199 I3.925 J30.675 F1000.
G1 Z-13.5
G2 X62.53 Y35.672 I30.589 J4.548
G1 Z-14. F333.3
G2 X89.382 Y62.435 I30.675 J-3.925 F1000.
G1 Z-13.5
G2 X94.74 Y62.634 I3.823 J-30.688
G3 X94.845 Y62.729 I0.005 J0.1
G1 X94.855 Y62.929
G0 Z5.
X94.655 Y62.939
G1 Z-12. F1000.
Z-13.5 F333.3
X94.65 Y62.839
X94.645 Y62.739 F1000.
G3 X94.74 Y62.634 I0.1 J-0.005
G2 X97.232 Y62.409 I-1.535 J-30.887
G1 Z-15. F333.3
G2 X123.905 Y35.472 I-4.027 J-30.662 F1000.
G1 Z-13.5
G2 X62.505 Y28.023 I-30.7 J-3.724
X93.881 Y62.665 I30.7 J3.724
X123.713 Y26.686 I-0.675 J-30.918
G1 Z-15. F333.3
G2 X97.13 Y1.072 I-30.508 J5.062 F1000.
G1 Z-13.5
G2 X89.28 I-3.925 J30.675
G1 Z-15. F333.3
G2 X62.616 Y27.199 I3.925 J30.675 F1000.
G1 Z-13.5
G2 X62.53 Y35.672 I30.589 J4.548
G1 Z-15. F333.3
G2 X89.382 Y62.435 I30.675 J-3.925 F1000.
G1 Z-13.5
G2 X94.74 Y62.634 I3.823 J-30.688
G3 X94.845 Y62.729 I0.005 J0.1
G1 X94.855 Y62.929
G0 Z5.
X28.9 Y62.449
G1 Z2. F1000.
Z-0.9 F333.3
G19 G2 Y62.348 Z-1. J-0.1
G1 Y62.249 F1000.
G17 G3 X29. Y62.148 I0.1
G2 Y0.299 J-30.925
Y62.148 J30.925
G3 X29.1 Y62.249 J0.1
G1 Y62.348
G19 G3 Y62.449 Z-0.9 K0.1
G0 Z5.
X28.9
G1 Z1. F1000.
Z-1.9 F333.3
G2 Y62.348 Z-2. J-0.1
G1 Y62.249 F1000.
G17 G3 X29. Y62.148 I0.1
G2 Y0.299 J-30.925
Y62.148 J30.925
G3 X29.1 Y62.249 J0.1
G1 Y62.348
G19 G3 Y62.449 Z-1.9 K0.1
G0 Z5.
X28.9
G1 Z0. F1000.
Z-2.9 F333.3
G2 Y62.348 Z-3. J-0.1
G1 Y62.249 F1000.
G17 G3 X29. Y62.148 I0.1
G2 Y0.299 J-30.925
Y62.148 J30.925
G3 X29.1 Y62.249 J0.1
G1 Y62.348
G19 G3 Y62.449 Z-2.9 K0.1
G0 Z5.
X28.9
G1 Z-1. F1000.
Z-3.9 F333.3
G2 Y62.348 Z-4. J-0.1
G1 Y62.249 F1000.
G17 G3 X29. Y62.148 I0.1
G2 Y0.299 J-30.925
Y62.148 J30.925
G3 X29.1 Y62.249 J0.1
G1 Y62.348
G19 G3 Y62.449 Z-3.9 K0.1
G0 Z5.
X28.9
G1 Z-2. F1000.
Z-4.9 F333.3
G2 Y62.348 Z-5. J-0.1
G1 Y62.249 F1000.
G17 G3 X29. Y62.148 I0.1
G2 Y0.299 J-30.925
Y62.148 J30.925
G3 X29.1 Y62.249 J0.1
G1 Y62.348
G19 G3 Y62.449 Z-4.9 K0.1
G0 Z5.
X28.9
G1 Z-3. F1000.
Z-5.9 F333.3
G2 Y62.348 Z-6. J-0.1
G1 Y62.249 F1000.
G17 G3 X29. Y62.148 I0.1
G2 Y0.299 J-30.925
Y62.148 J30.925
G3 X29.1 Y62.249 J0.1
G1 Y62.348
G19 G3 Y62.449 Z-5.9 K0.1
G0 Z5.
X28.9
G1 Z-4. F1000.
Z-6.9 F333.3
G2 Y62.348 Z-7. J-0.1
G1 Y62.249 F1000.
G17 G3 X29. Y62.148 I0.1
G2 Y0.299 J-30.925
Y62.148 J30.925
G3 X29.1 Y62.249 J0.1
G1 Y62.348
G19 G3 Y62.449 Z-6.9 K0.1
G0 Z5.
X28.9
G1 Z-5. F1000.
Z-7.9 F333.3
G2 Y62.348 Z-8. J-0.1
G1 Y62.249 F1000.
G17 G3 X29. Y62.148 I0.1
G2 Y0.299 J-30.925
Y62.148 J30.925
G3 X29.1 Y62.249 J0.1
G1 Y62.348
G19 G3 Y62.449 Z-7.9 K0.1
G0 Z5.
X28.9
G1 Z-6. F1000.
Z-8.9 F333.3
G2 Y62.348 Z-9. J-0.1
G1 Y62.249 F1000.
G17 G3 X29. Y62.148 I0.1
G2 Y0.299 J-30.925
Y62.148 J30.925
G3 X29.1 Y62.249 J0.1
G1 Y62.348
G19 G3 Y62.449 Z-8.9 K0.1
G0 Z5.
X28.9
G1 Z-7. F1000.
Z-9.9 F333.3
G2 Y62.348 Z-10. J-0.1
G1 Y62.249 F1000.
G17 G3 X29. Y62.148 I0.1
G2 Y0.299 J-30.925
Y62.148 J30.925
G3 X29.1 Y62.249 J0.1
G1 Y62.348
G19 G3 Y62.449 Z-9.9 K0.1
G0 Z5.
X28.9
G1 Z-8. F1000.
Z-10.9 F333.3
G2 Y62.348 Z-11. J-0.1
G1 Y62.249 F1000.
G17 G3 X29. Y62.148 I0.1
G2 Y0.299 J-30.925
Y62.148 J30.925
G3 X29.1 Y62.249 J0.1
G1 Y62.348
G19 G3 Y62.449 Z-10.9 K0.1
G0 Z5.
X28.9
G1 Z-9. F1000.
Z-11.9 F333.3
G2 Y62.348 Z-12. J-0.1
G1 Y62.249 F1000.
G17 G3 X29. Y62.148 I0.1
G2 Y0.299 J-30.925
Y62.148 J30.925
G3 X29.1 Y62.249 J0.1
G1 Y62.348
G19 G3 Y62.449 Z-11.9 K0.1
G0 Z5.
X28.9
G1 Z-10. F1000.
Z-12.9 F333.3
G2 Y62.348 Z-13. J-0.1
G1 Y62.249 F1000.
G17 G3 X29. Y62.148 I0.1
G2 Y0.299 J-30.925
Y62.148 J30.925
G3 X29.1 Y62.249 J0.1
G1 Y62.348
G19 G3 Y62.449 Z-12.9 K0.1
G0 Z5.
X28.9
G1 Z-11. F1000.
Z-13.5 F333.3
Y62.348
Y62.249 F1000.
G17 G3 X29. Y62.148 I0.1
G2 X32.994 Y61.889 J-30.925
G1 Z-14. F333.3
G2 X59.603 Y35.672 I-3.994 J-30.666 F1000.
G1 Z-13.5
G2 X59.663 Y27.208 I-30.603 J-4.449
G1 Z-14. F333.3
G2 X32.925 Y0.549 I-30.663 J4.015 F1000.
G1 Z-13.5
G2 X25.075 I-3.925 J30.675
G1 Z-14. F333.3
G2 X-1.675 Y27.299 I3.925 J30.675 F1000.
G1 Z-13.5
G2 Y35.148 I30.675 J3.925
G1 Z-14. F333.3
G2 X25.144 Y61.907 I30.675 J-3.925 F1000.
G1 Z-13.5
G2 X29. Y62.148 I3.856 J-30.684
G3 X29.1 Y62.249 J0.1
G1 Y62.449
G0 Z5.
X28.9
G1 Z-12. F1000.
Z-13.5 F333.3
Y62.348
Y62.249 F1000.
G3 X29. Y62.148 I0.1
G2 X32.994 Y61.889 J-30.925
G1 Z-15. F333.3
G2 X59.603 Y35.672 I-3.994 J-30.666 F1000.
G1 Z-13.5
G2 X59.663 Y27.208 I-30.603 J-4.449
G1 Z-15. F333.3
G2 X32.925 Y0.549 I-30.663 J4.015 F1000.
G1 Z-13.5
G2 X25.075 I-3.925 J30.675
G1 Z-15. F333.3
G2 X-1.675 Y27.299 I3.925 J30.675 F1000.
G1 Z-13.5
G2 Y35.148 I30.675 J3.925
G1 Z-15. F333.3
G2 X25.144 Y61.907 I30.675 J-3.925 F1000.
G1 Z-13.5
G2 X29. Y62.148 I3.856 J-30.684
G3 X29.1 Y62.249 J0.1
G1 Y62.449
G0 Z5.
X220.325 Y60.185
G1 Z2. F1000.
Z-0.9 F333.3
Y60.177 Z-0.938
X220.326 Y60.156 Z-0.971
X220.328 Y60.123 Z-0.992
X220.33 Y60.085 Z-1.
X220.335 Y59.985 F1000.
G3 X220.439 Y59.89 I0.1 J0.005
G2 X223.385 Y-1.89 I1.473 J-30.89
X220.439 Y59.89 I-1.473 J30.89
G3 X220.534 Y59.995 I-0.005 J0.1
G1 X220.53 Y60.094
X220.528 Y60.133 Z-0.992
X220.526 Y60.165 Z-0.971
X220.525 Y60.187 Z-0.938
Y60.194 Z-0.9
G0 Z5.
X220.325 Y60.185
G1 Z1. F1000.
Z-1.9 F333.3
Y60.177 Z-1.938
X220.326 Y60.156 Z-1.971
X220.328 Y60.123 Z-1.992
X220.33 Y60.085 Z-2.
X220.335 Y59.985 F1000.
G3 X220.439 Y59.89 I0.1 J0.005
G2 X223.385 Y-1.89 I1.473 J-30.89
X220.439 Y59.89 I-1.473 J30.89
G3 X220.534 Y59.995 I-0.005 J0.1
G1 X220.53 Y60.094
X220.528 Y60.133 Z-1.992
X220.526 Y60.165 Z-1.971
X220.525 Y60.187 Z-1.938
Y60.194 Z-1.9
G0 Z5.
X220.325 Y60.185
G1 Z0. F1000.
Z-2.9 F333.3
Y60.177 Z-2.938
X220.326 Y60.156 Z-2.971
X220.328 Y60.123 Z-2.992
X220.33 Y60.085 Z-3.
X220.335 Y59.985 F1000.
G3 X220.439 Y59.89 I0.1 J0.005
G2 X223.385 Y-1.89 I1.473 J-30.89
X220.439 Y59.89 I-1.473 J30.89
G3 X220.534 Y59.995 I-0.005 J0.1
G1 X220.53 Y60.094
X220.528 Y60.133 Z-2.992
X220.526 Y60.165 Z-2.971
X220.525 Y60.187 Z-2.938
Y60.194 Z-2.9
G0 Z5.
X220.325 Y60.185
G1 Z-1. F1000.
Z-3.9 F333.3
Y60.177 Z-3.938
X220.326 Y60.156 Z-3.971
X220.328 Y60.123 Z-3.992
X220.33 Y60.085 Z-4.
X220.335 Y59.985 F1000.
G3 X220.439 Y59.89 I0.1 J0.005
G2 X223.385 Y-1.89 I1.473 J-30.89
X220.439 Y59.89 I-1.473 J30.89
G3 X220.534 Y59.995 I-0.005 J0.1
G1 X220.53 Y60.094
X220.528 Y60.133 Z-3.992
X220.526 Y60.165 Z-3.971
X220.525 Y60.187 Z-3.938
Y60.194 Z-3.9
G0 Z5.
X220.325 Y60.185
G1 Z-2. F1000.
Z-4.9 F333.3
Y60.177 Z-4.938
X220.326 Y60.156 Z-4.971
X220.328 Y60.123 Z-4.992
X220.33 Y60.085 Z-5.
X220.335 Y59.985 F1000.
G3 X220.439 Y59.89 I0.1 J0.005
G2 X223.385 Y-1.89 I1.473 J-30.89
X220.439 Y59.89 I-1.473 J30.89
G3 X220.534 Y59.995 I-0.005 J0.1
G1 X220.53 Y60.094
X220.528 Y60.133 Z-4.992
X220.526 Y60.165 Z-4.971
X220.525 Y60.187 Z-4.938
Y60.194 Z-4.9
G0 Z5.
X220.325 Y60.185
G1 Z-3. F1000.
Z-5.9 F333.3
Y60.177 Z-5.938
X220.326 Y60.156 Z-5.971
X220.328 Y60.123 Z-5.992
X220.33 Y60.085 Z-6.
X220.335 Y59.985 F1000.
G3 X220.439 Y59.89 I0.1 J0.005
G2 X223.385 Y-1.89 I1.473 J-30.89
X220.439 Y59.89 I-1.473 J30.89
G3 X220.534 Y59.995 I-0.005 J0.1
G1 X220.53 Y60.094
X220.528 Y60.133 Z-5.992
X220.526 Y60.165 Z-5.971
X220.525 Y60.187 Z-5.938
Y60.194 Z-5.9
G0 Z5.
X220.325 Y60.185
G1 Z-4. F1000.
Z-6.9 F333.3
Y60.177 Z-6.938
X220.326 Y60.156 Z-6.971
X220.328 Y60.123 Z-6.992
X220.33 Y60.085 Z-7.
X220.335 Y59.985 F1000.
G3 X220.439 Y59.89 I0.1 J0.005
G2 X223.385 Y-1.89 I1.473 J-30.89
X220.439 Y59.89 I-1.473 J30.89
G3 X220.534 Y59.995 I-0.005 J0.1
G1 X220.53 Y60.094
X220.528 Y60.133 Z-6.992
X220.526 Y60.165 Z-6.971
X220.525 Y60.187 Z-6.938
Y60.194 Z-6.9
G0 Z5.
X220.325 Y60.185
G1 Z-5. F1000.
Z-7.9 F333.3
Y60.177 Z-7.938
X220.326 Y60.156 Z-7.971
X220.328 Y60.123 Z-7.992
X220.33 Y60.085 Z-8.
X220.335 Y59.985 F1000.
G3 X220.439 Y59.89 I0.1 J0.005
G2 X223.385 Y-1.89 I1.473 J-30.89
X220.439 Y59.89 I-1.473 J30.89
G3 X220.534 Y59.995 I-0.005 J0.1
G1 X220.53 Y60.094
X220.528 Y60.133 Z-7.992
X220.526 Y60.165 Z-7.971
X220.525 Y60.187 Z-7.938
Y60.194 Z-7.9
G0 Z5.
X220.325 Y60.185
G1 Z-6. F1000.
Z-8.9 F333.3
Y60.177 Z-8.938
X220.326 Y60.156 Z-8.971
X220.328 Y60.123 Z-8.992
X220.33 Y60.085 Z-9.
X220.335 Y59.985 F1000.
G3 X220.439 Y59.89 I0.1 J0.005
G2 X223.385 Y-1.89 I1.473 J-30.89
X220.439 Y59.89 I-1.473 J30.89
G3 X220.534 Y59.995 I-0.005 J0.1
G1 X220.53 Y60.094
X220.528 Y60.133 Z-8.992
X220.526 Y60.165 Z-8.971
X220.525 Y60.187 Z-8.938
Y60.194 Z-8.9
G0 Z5.
X220.325 Y60.185
G1 Z-7. F1000.
Z-9.9 F333.3
Y60.177 Z-9.938
X220.326 Y60.156 Z-9.971
X220.328 Y60.123 Z-9.992
X220.33 Y60.085 Z-10.
X220.335 Y59.985 F1000.
G3 X220.439 Y59.89 I0.1 J0.005
G2 X223.385 Y-1.89 I1.473 J-30.89
X220.439 Y59.89 I-1.473 J30.89
G3 X220.534 Y59.995 I-0.005 J0.1
G1 X220.53 Y60.094
X220.528 Y60.133 Z-9.992
X220.526 Y60.165 Z-9.971
X220.525 Y60.187 Z-9.938
Y60.194 Z-9.9
G0 Z5.
X220.325 Y60.185
G1 Z-8. F1000.
Z-10.9 F333.3
Y60.177 Z-10.938
X220.326 Y60.156 Z-10.971
X220.328 Y60.123 Z-10.992
X220.33 Y60.085 Z-11.
X220.335 Y59.985 F1000.
G3 X220.439 Y59.89 I0.1 J0.005
G2 X223.385 Y-1.89 I1.473 J-30.89
X220.439 Y59.89 I-1.473 J30.89
G3 X220.534 Y59.995 I-0.005 J0.1
G1 X220.53 Y60.094
X220.528 Y60.133 Z-10.992
X220.526 Y60.165 Z-10.971
X220.525 Y60.187 Z-10.938
Y60.194 Z-10.9
G0 Z5.
X220.325 Y60.185
G1 Z-9. F1000.
Z-11.9 F333.3
Y60.177 Z-11.938
X220.326 Y60.156 Z-11.971
X220.328 Y60.123 Z-11.992
X220.33 Y60.085 Z-12.
X220.335 Y59.985 F1000.
G3 X220.439 Y59.89 I0.1 J0.005
G2 X223.385 Y-1.89 I1.473 J-30.89
X220.439 Y59.89 I-1.473 J30.89
G3 X220.534 Y59.995 I-0.005 J0.1
G1 X220.53 Y60.094
X220.528 Y60.133 Z-11.992
X220.526 Y60.165 Z-11.971
X220.525 Y60.187 Z-11.938
Y60.194 Z-11.9
G0 Z5.
X220.325 Y60.185
G1 Z-10. F1000.
Z-12.9 F333.3
Y60.177 Z-12.938
X220.326 Y60.156 Z-12.971
X220.328 Y60.123 Z-12.992
X220.33 Y60.085 Z-13.
X220.335 Y59.985 F1000.
G3 X220.439 Y59.89 I0.1 J0.005
G2 X223.385 Y-1.89 I1.473 J-30.89
X220.439 Y59.89 I-1.473 J30.89
G3 X220.534 Y59.995 I-0.005 J0.1
G1 X220.53 Y60.094
X220.528 Y60.133 Z-12.992
X220.526 Y60.165 Z-12.971
X220.525 Y60.187 Z-12.938
Y60.194 Z-12.9
G0 Z5.
X220.325 Y60.185
G1 Z-11. F1000.
Z-13.5 F333.3
X220.33 Y60.085
X220.335 Y59.985 F1000.
G3 X220.439 Y59.89 I0.1 J0.005
G2 X225.837 Y59.675 I1.473 J-30.89
G1 Z-14. F333.3
G2 X252.829 Y29.697 I-3.925 J-30.675 F1000.
G1 Z-13.5
G2 X252.009 Y21.89 I-30.917 J-0.697
G1 Z-14. F333.3
G2 X224.493 Y-1.817 I-30.097 J7.11 F1000.
G1 Z-13.5
G2 X216.651 Y-1.474 I-2.581 J30.817
G1 Z-14. F333.3
G2 X191.237 Y25.075 I5.261 J30.474 F1000.
G1 Z-13.5
G2 X191.29 Y33.315 I30.675 J3.925
G1 Z-14. F333.3
G2 X217.987 Y59.675 I30.622 J-4.315 F1000.
G1 Z-13.5
G2 X220.439 Y59.89 I3.925 J-30.675
G3 X220.534 Y59.995 I-0.005 J0.1
G1 X220.525 Y60.194
G0 Z5.
X220.325 Y60.185
G1 Z-12. F1000.
Z-13.5 F333.3
X220.33 Y60.085
X220.335 Y59.985 F1000.
G3 X220.439 Y59.89 I0.1 J0.005
G2 X225.837 Y59.675 I1.473 J-30.89
G1 Z-15. F333.3
G2 X252.829 Y29.697 I-3.925 J-30.675 F1000.
G1 Z-13.5
G2 X252.009 Y21.89 I-30.917 J-0.697
G1 Z-15. F333.3
G2 X224.493 Y-1.817 I-30.097 J7.11 F1000.
G1 Z-13.5
G2 X216.651 Y-1.474 I-2.581 J30.817
G1 Z-15. F333.3
G2 X191.237 Y25.075 I5.261 J30.474 F1000.
G1 Z-13.5
G2 X191.29 Y33.315 I30.675 J3.925
G1 Z-15. F333.3
G2 X217.987 Y59.675 I30.622 J-4.315 F1000.
G1 Z-13.5
G2 X220.439 Y59.89 I3.925 J-30.675
G3 X220.534 Y59.995 I-0.005 J0.1
G1 X220.525 Y60.194
G0 Z15.
G91
G28 Z0.
M5
G28 X0. Y0.
M30
%
