%
O00001012
(T3  D=5.85 CR=0. - ZMIN=-15. - FLAT END MILL)
G90 G94 G17
G21
G91
G28 Z0.
G90
(2D CONTOUR1 (2))
T3 M6
S5000 M3
G54
G0 X29.666 Y62.442
G43 Z15. H3
G0 Z5.
G1 Z2. F1000.
Z-0.9 F333.3
Y62.434 Z-0.938
Y62.412 Z-0.971
X29.665 Y62.38 Z-0.992
X29.664 Y62.342 Z-1.
X29.661 Y62.242 F1000.
G3 X29.759 Y62.139 I0.1 J-0.002
G2 X28.241 Y0.308 I-0.759 J-30.916
X-1.925 Y31.223 I0.759 J30.916
X1.857 Y46.044 I30.925
X29. Y62.148 I27.143 J-14.82
X29.759 Y62.139 J-30.925
G3 X29.861 Y62.237 I0.002 J0.1
G1 X29.864 Y62.337
X29.865 Y62.375 Z-0.992
X29.866 Y62.407 Z-0.971
Y62.429 Z-0.938
Y62.437 Z-0.9
G0 Z5.
X29.666 Y62.442
G1 Z1. F1000.
Z-1.9 F333.3
Y62.434 Z-1.938
Y62.412 Z-1.971
X29.665 Y62.38 Z-1.992
X29.664 Y62.342 Z-2.
X29.661 Y62.242 F1000.
G3 X29.759 Y62.139 I0.1 J-0.002
G2 X28.241 Y0.308 I-0.759 J-30.916
X-1.925 Y31.223 I0.759 J30.916
X1.857 Y46.044 I30.925
X29. Y62.148 I27.143 J-14.82
X29.759 Y62.139 J-30.925
G3 X29.861 Y62.237 I0.002 J0.1
G1 X29.864 Y62.337
X29.865 Y62.375 Z-1.992
X29.866 Y62.407 Z-1.971
Y62.429 Z-1.938
Y62.437 Z-1.9
G0 Z5.
X29.666 Y62.442
G1 Z0. F1000.
Z-2.9 F333.3
Y62.434 Z-2.938
Y62.412 Z-2.971
X29.665 Y62.38 Z-2.992
X29.664 Y62.342 Z-3.
X29.661 Y62.242 F1000.
G3 X29.759 Y62.139 I0.1 J-0.002
G2 X28.241 Y0.308 I-0.759 J-30.916
X-1.925 Y31.223 I0.759 J30.916
X1.857 Y46.044 I30.925
X29. Y62.148 I27.143 J-14.82
X29.759 Y62.139 J-30.925
G3 X29.861 Y62.237 I0.002 J0.1
G1 X29.864 Y62.337
X29.865 Y62.375 Z-2.992
X29.866 Y62.407 Z-2.971
Y62.429 Z-2.938
Y62.437 Z-2.9
G0 Z5.
X29.666 Y62.442
G1 Z-1. F1000.
Z-3.9 F333.3
Y62.434 Z-3.938
Y62.412 Z-3.971
X29.665 Y62.38 Z-3.992
X29.664 Y62.342 Z-4.
X29.661 Y62.242 F1000.
G3 X29.759 Y62.139 I0.1 J-0.002
G2 X28.241 Y0.308 I-0.759 J-30.916
X-1.925 Y31.223 I0.759 J30.916
X1.857 Y46.044 I30.925
X29. Y62.148 I27.143 J-14.82
X29.759 Y62.139 J-30.925
G3 X29.861 Y62.237 I0.002 J0.1
G1 X29.864 Y62.337
X29.865 Y62.375 Z-3.992
X29.866 Y62.407 Z-3.971
Y62.429 Z-3.938
Y62.437 Z-3.9
G0 Z5.
X29.666 Y62.442
G1 Z-2. F1000.
Z-4.9 F333.3
Y62.434 Z-4.938
Y62.412 Z-4.971
X29.665 Y62.38 Z-4.992
X29.664 Y62.342 Z-5.
X29.661 Y62.242 F1000.
G3 X29.759 Y62.139 I0.1 J-0.002
G2 X28.241 Y0.308 I-0.759 J-30.916
X-1.925 Y31.223 I0.759 J30.916
X1.857 Y46.044 I30.925
X29. Y62.148 I27.143 J-14.82
X29.759 Y62.139 J-30.925
G3 X29.861 Y62.237 I0.002 J0.1
G1 X29.864 Y62.337
X29.865 Y62.375 Z-4.992
X29.866 Y62.407 Z-4.971
Y62.429 Z-4.938
Y62.437 Z-4.9
G0 Z5.
X29.666 Y62.442
G1 Z-3. F1000.
Z-5.9 F333.3
Y62.434 Z-5.938
Y62.412 Z-5.971
X29.665 Y62.38 Z-5.992
X29.664 Y62.342 Z-6.
X29.661 Y62.242 F1000.
G3 X29.759 Y62.139 I0.1 J-0.002
G2 X28.241 Y0.308 I-0.759 J-30.916
X-1.925 Y31.223 I0.759 J30.916
X1.857 Y46.044 I30.925
X29. Y62.148 I27.143 J-14.82
X29.759 Y62.139 J-30.925
G3 X29.861 Y62.237 I0.002 J0.1
G1 X29.864 Y62.337
X29.865 Y62.375 Z-5.992
X29.866 Y62.407 Z-5.971
Y62.429 Z-5.938
Y62.437 Z-5.9
G0 Z5.
X29.666 Y62.442
G1 Z-4. F1000.
Z-6.9 F333.3
Y62.434 Z-6.938
Y62.412 Z-6.971
X29.665 Y62.38 Z-6.992
X29.664 Y62.342 Z-7.
X29.661 Y62.242 F1000.
G3 X29.759 Y62.139 I0.1 J-0.002
G2 X28.241 Y0.308 I-0.759 J-30.916
X-1.925 Y31.223 I0.759 J30.916
X1.857 Y46.044 I30.925
X29. Y62.148 I27.143 J-14.82
X29.759 Y62.139 J-30.925
G3 X29.861 Y62.237 I0.002 J0.1
G1 X29.864 Y62.337
X29.865 Y62.375 Z-6.992
X29.866 Y62.407 Z-6.971
Y62.429 Z-6.938
Y62.437 Z-6.9
G0 Z5.
X29.666 Y62.442
G1 Z-5. F1000.
Z-7.9 F333.3
Y62.434 Z-7.938
Y62.412 Z-7.971
X29.665 Y62.38 Z-7.992
X29.664 Y62.342 Z-8.
X29.661 Y62.242 F1000.
G3 X29.759 Y62.139 I0.1 J-0.002
G2 X28.241 Y0.308 I-0.759 J-30.916
X-1.925 Y31.223 I0.759 J30.916
X1.857 Y46.044 I30.925
X29. Y62.148 I27.143 J-14.82
X29.759 Y62.139 J-30.925
G3 X29.861 Y62.237 I0.002 J0.1
G1 X29.864 Y62.337
X29.865 Y62.375 Z-7.992
X29.866 Y62.407 Z-7.971
Y62.429 Z-7.938
Y62.437 Z-7.9
G0 Z5.
X29.666 Y62.442
G1 Z-6. F1000.
Z-8.9 F333.3
Y62.434 Z-8.938
Y62.412 Z-8.971
X29.665 Y62.38 Z-8.992
X29.664 Y62.342 Z-9.
X29.661 Y62.242 F1000.
G3 X29.759 Y62.139 I0.1 J-0.002
G2 X28.241 Y0.308 I-0.759 J-30.916
X-1.925 Y31.223 I0.759 J30.916
X1.857 Y46.044 I30.925
X29. Y62.148 I27.143 J-14.82
X29.759 Y62.139 J-30.925
G3 X29.861 Y62.237 I0.002 J0.1
G1 X29.864 Y62.337
X29.865 Y62.375 Z-8.992
X29.866 Y62.407 Z-8.971
Y62.429 Z-8.938
Y62.437 Z-8.9
G0 Z5.
X29.666 Y62.442
G1 Z-7. F1000.
Z-9.9 F333.3
Y62.434 Z-9.938
Y62.412 Z-9.971
X29.665 Y62.38 Z-9.992
X29.664 Y62.342 Z-10.
X29.661 Y62.242 F1000.
G3 X29.759 Y62.139 I0.1 J-0.002
G2 X28.241 Y0.308 I-0.759 J-30.916
X-1.925 Y31.223 I0.759 J30.916
X1.857 Y46.044 I30.925
X29. Y62.148 I27.143 J-14.82
X29.759 Y62.139 J-30.925
G3 X29.861 Y62.237 I0.002 J0.1
G1 X29.864 Y62.337
X29.865 Y62.375 Z-9.992
X29.866 Y62.407 Z-9.971
Y62.429 Z-9.938
Y62.437 Z-9.9
G0 Z5.
X29.666 Y62.442
G1 Z-8. F1000.
Z-10.9 F333.3
Y62.434 Z-10.938
Y62.412 Z-10.971
X29.665 Y62.38 Z-10.992
X29.664 Y62.342 Z-11.
X29.661 Y62.242 F1000.
G3 X29.759 Y62.139 I0.1 J-0.002
G2 X28.241 Y0.308 I-0.759 J-30.916
X-1.925 Y31.223 I0.759 J30.916
X1.857 Y46.044 I30.925
X29. Y62.148 I27.143 J-14.82
X29.759 Y62.139 J-30.925
G3 X29.861 Y62.237 I0.002 J0.1
G1 X29.864 Y62.337
X29.865 Y62.375 Z-10.992
X29.866 Y62.407 Z-10.971
Y62.429 Z-10.938
Y62.437 Z-10.9
G0 Z5.
X29.666 Y62.442
G1 Z-9. F1000.
Z-11.9 F333.3
Y62.434 Z-11.938
Y62.412 Z-11.971
X29.665 Y62.38 Z-11.992
X29.664 Y62.342 Z-12.
X29.661 Y62.242 F1000.
G3 X29.759 Y62.139 I0.1 J-0.002
G2 X28.241 Y0.308 I-0.759 J-30.916
X-1.925 Y31.223 I0.759 J30.916
X1.857 Y46.044 I30.925
X29. Y62.148 I27.143 J-14.82
X29.759 Y62.139 J-30.925
G3 X29.861 Y62.237 I0.002 J0.1
G1 X29.864 Y62.337
X29.865 Y62.375 Z-11.992
X29.866 Y62.407 Z-11.971
Y62.429 Z-11.938
Y62.437 Z-11.9
G0 Z5.
X29.666 Y62.442
G1 Z-10. F1000.
Z-12.9 F333.3
Y62.434 Z-12.938
Y62.412 Z-12.971
X29.665 Y62.38 Z-12.992
X29.664 Y62.342 Z-13.
X29.661 Y62.242 F1000.
G3 X29.759 Y62.139 I0.1 J-0.002
G2 X28.241 Y0.308 I-0.759 J-30.916
X-1.925 Y31.223 I0.759 J30.916
X1.857 Y46.044 I30.925
X29. Y62.148 I27.143 J-14.82
X29.759 Y62.139 J-30.925
G3 X29.861 Y62.237 I0.002 J0.1
G1 X29.864 Y62.337
X29.865 Y62.375 Z-12.992
X29.866 Y62.407 Z-12.971
Y62.429 Z-12.938
Y62.437 Z-12.9
G0 Z5.
X29.666 Y62.442
G1 Z-11. F1000.
Z-13.5 F333.3
X29.664 Y62.342
X29.661 Y62.242 F1000.
G3 X29.759 Y62.139 I0.1 J-0.002
G2 X32.925 Y61.898 I-0.759 J-30.916
G1 Z-14. F333.3
G2 X59.726 Y34.727 I-3.925 J-30.675 F1000.
G1 Z-13.5
G2 X59.618 Y26.878 I-30.726 J-3.504
G1 Z-14. F333.3
G2 X32.925 Y0.549 I-30.618 J4.345 F1000.
G1 Z-13.5
G2 X25.075 I-3.925 J30.675
G1 Z-14. F333.3
G2 X-1.675 Y27.299 I3.925 J30.675 F1000.
G1 Z-13.5
G2 X-1.925 Y31.223 I30.675 J3.925
X-1.675 Y35.148 I30.925
G1 Z-14. F333.3
G2 X1.857 Y46.044 I30.675 J-3.925 F1000.
X25.075 Y61.898 I27.143 J-14.82
G1 Z-13.5
G2 X29. Y62.148 I3.925 J-30.675
X29.759 Y62.139 J-30.925
G3 X29.861 Y62.237 I0.002 J0.1
G1 X29.866 Y62.437
G0 Z5.
X29.666 Y62.442
G1 Z-12. F1000.
Z-13.5 F333.3
X29.664 Y62.342
X29.661 Y62.242 F1000.
G3 X29.759 Y62.139 I0.1 J-0.002
G2 X32.925 Y61.898 I-0.759 J-30.916
G1 Z-15. F333.3
G2 X59.726 Y34.727 I-3.925 J-30.675 F1000.
G1 Z-13.5
G2 X59.618 Y26.878 I-30.726 J-3.504
G1 Z-15. F333.3
G2 X32.925 Y0.549 I-30.618 J4.345 F1000.
G1 Z-13.5
G2 X25.075 I-3.925 J30.675
G1 Z-15. F333.3
G2 X-1.675 Y27.299 I3.925 J30.675 F1000.
G1 Z-13.5
G2 X-1.925 Y31.223 I30.675 J3.925
X-1.675 Y35.148 I30.925
G1 Z-15. F333.3
G2 X1.857 Y46.044 I30.675 J-3.925 F1000.
X25.075 Y61.898 I27.143 J-14.82
G1 Z-13.5
G2 X29. Y62.148 I3.925 J-30.675
X29.759 Y62.139 J-30.925
G3 X29.861 Y62.237 I0.002 J0.1
G1 X29.866 Y62.437
G0 Z5.
X222.012 Y-2.225
G1 Z2. F1000.
Z-0.9 F333.3
G19 G3 Y-2.125 Z-1. J0.1
G1 Y-2.025 F1000.
G17 G3 X221.912 Y-1.925 I-0.1
G2 Y59.925 J30.925
X248.931 Y44.045 J-30.925
X252.837 Y29. I-27.019 J-15.044
X221.912 Y-1.925 I-30.925
G3 X221.812 Y-2.025 J-0.1
G1 Y-2.125
G19 G2 Y-2.225 Z-0.9 K0.1
G0 Z5.
X222.012
G1 Z1. F1000.
Z-1.9 F333.3
G3 Y-2.125 Z-2. J0.1
G1 Y-2.025 F1000.
G17 G3 X221.912 Y-1.925 I-0.1
G2 Y59.925 J30.925
X248.931 Y44.045 J-30.925
X252.837 Y29. I-27.019 J-15.044
X221.912 Y-1.925 I-30.925
G3 X221.812 Y-2.025 J-0.1
G1 Y-2.125
G19 G2 Y-2.225 Z-1.9 K0.1
G0 Z5.
X222.012
G1 Z0. F1000.
Z-2.9 F333.3
G3 Y-2.125 Z-3. J0.1
G1 Y-2.025 F1000.
G17 G3 X221.912 Y-1.925 I-0.1
G2 Y59.925 J30.925
X248.931 Y44.045 J-30.925
X252.837 Y29. I-27.019 J-15.044
X221.912 Y-1.925 I-30.925
G3 X221.812 Y-2.025 J-0.1
G1 Y-2.125
G19 G2 Y-2.225 Z-2.9 K0.1
G0 Z5.
X222.012
G1 Z-1. F1000.
Z-3.9 F333.3
G3 Y-2.125 Z-4. J0.1
G1 Y-2.025 F1000.
G17 G3 X221.912 Y-1.925 I-0.1
G2 Y59.925 J30.925
X248.931 Y44.045 J-30.925
X252.837 Y29. I-27.019 J-15.044
X221.912 Y-1.925 I-30.925
G3 X221.812 Y-2.025 J-0.1
G1 Y-2.125
G19 G2 Y-2.225 Z-3.9 K0.1
G0 Z5.
X222.012
G1 Z-2. F1000.
Z-4.9 F333.3
G3 Y-2.125 Z-5. J0.1
G1 Y-2.025 F1000.
G17 G3 X221.912 Y-1.925 I-0.1
G2 Y59.925 J30.925
X248.931 Y44.045 J-30.925
X252.837 Y29. I-27.019 J-15.044
X221.912 Y-1.925 I-30.925
G3 X221.812 Y-2.025 J-0.1
G1 Y-2.125
G19 G2 Y-2.225 Z-4.9 K0.1
G0 Z5.
X222.012
G1 Z-3. F1000.
Z-5.9 F333.3
G3 Y-2.125 Z-6. J0.1
G1 Y-2.025 F1000.
G17 G3 X221.912 Y-1.925 I-0.1
G2 Y59.925 J30.925
X248.931 Y44.045 J-30.925
X252.837 Y29. I-27.019 J-15.044
X221.912 Y-1.925 I-30.925
G3 X221.812 Y-2.025 J-0.1
G1 Y-2.125
G19 G2 Y-2.225 Z-5.9 K0.1
G0 Z5.
X222.012
G1 Z-4. F1000.
Z-6.9 F333.3
G3 Y-2.125 Z-7. J0.1
G1 Y-2.025 F1000.
G17 G3 X221.912 Y-1.925 I-0.1
G2 Y59.925 J30.925
X248.931 Y44.045 J-30.925
X252.837 Y29. I-27.019 J-15.044
X221.912 Y-1.925 I-30.925
G3 X221.812 Y-2.025 J-0.1
G1 Y-2.125
G19 G2 Y-2.225 Z-6.9 K0.1
G0 Z5.
X222.012
G1 Z-5. F1000.
Z-7.9 F333.3
G3 Y-2.125 Z-8. J0.1
G1 Y-2.025 F1000.
G17 G3 X221.912 Y-1.925 I-0.1
G2 Y59.925 J30.925
X248.931 Y44.045 J-30.925
X252.837 Y29. I-27.019 J-15.044
X221.912 Y-1.925 I-30.925
G3 X221.812 Y-2.025 J-0.1
G1 Y-2.125
G19 G2 Y-2.225 Z-7.9 K0.1
G0 Z5.
X222.012
G1 Z-6. F1000.
Z-8.9 F333.3
G3 Y-2.125 Z-9. J0.1
G1 Y-2.025 F1000.
G17 G3 X221.912 Y-1.925 I-0.1
G2 Y59.925 J30.925
X248.931 Y44.045 J-30.925
X252.837 Y29. I-27.019 J-15.044
X221.912 Y-1.925 I-30.925
G3 X221.812 Y-2.025 J-0.1
G1 Y-2.125
G19 G2 Y-2.225 Z-8.9 K0.1
G0 Z5.
X222.012
G1 Z-7. F1000.
Z-9.9 F333.3
G3 Y-2.125 Z-10. J0.1
G1 Y-2.025 F1000.
G17 G3 X221.912 Y-1.925 I-0.1
G2 Y59.925 J30.925
X248.931 Y44.045 J-30.925
X252.837 Y29. I-27.019 J-15.044
X221.912 Y-1.925 I-30.925
G3 X221.812 Y-2.025 J-0.1
G1 Y-2.125
G19 G2 Y-2.225 Z-9.9 K0.1
G0 Z5.
X222.012
G1 Z-8. F1000.
Z-10.9 F333.3
G3 Y-2.125 Z-11. J0.1
G1 Y-2.025 F1000.
G17 G3 X221.912 Y-1.925 I-0.1
G2 Y59.925 J30.925
X248.931 Y44.045 J-30.925
X252.837 Y29. I-27.019 J-15.044
X221.912 Y-1.925 I-30.925
G3 X221.812 Y-2.025 J-0.1
G1 Y-2.125
G19 G2 Y-2.225 Z-10.9 K0.1
G0 Z5.
X222.012
G1 Z-9. F1000.
Z-11.9 F333.3
G3 Y-2.125 Z-12. J0.1
G1 Y-2.025 F1000.
G17 G3 X221.912 Y-1.925 I-0.1
G2 Y59.925 J30.925
X248.931 Y44.045 J-30.925
X252.837 Y29. I-27.019 J-15.044
X221.912 Y-1.925 I-30.925
G3 X221.812 Y-2.025 J-0.1
G1 Y-2.125
G19 G2 Y-2.225 Z-11.9 K0.1
G0 Z5.
X222.012
G1 Z-10. F1000.
Z-12.9 F333.3
G3 Y-2.125 Z-13. J0.1
G1 Y-2.025 F1000.
G17 G3 X221.912 Y-1.925 I-0.1
G2 Y59.925 J30.925
X248.931 Y44.045 J-30.925
X252.837 Y29. I-27.019 J-15.044
X221.912 Y-1.925 I-30.925
G3 X221.812 Y-2.025 J-0.1
G1 Y-2.125
G19 G2 Y-2.225 Z-12.9 K0.1
G0 Z5.
X222.012
G1 Z-11. F1000.
Z-13.5 F333.3
Y-2.125
Y-2.025 F1000.
G17 G3 X221.912 Y-1.925 I-0.1
G2 X217.987 Y-1.675 J30.925
G1 Z-14. F333.3
G2 X191.237 Y25.075 I3.925 J30.675 F1000.
G1 Z-13.5
G2 Y32.925 I30.675 J3.925
G1 Z-14. F333.3
G2 X216.371 Y59.425 I30.675 J-3.925 F1000.
G1 Z-13.5
G2 X221.912 Y59.925 I5.541 J-30.425
X224.21 Y59.84 J-30.925
G1 Z-14. F333.3
G2 X248.931 Y44.045 I-2.298 J-30.84 F1000.
X252.629 Y32.584 I-27.019 J-15.044
G1 Z-13.5
G2 X252.837 Y29. I-30.717 J-3.584
X252.541 Y24.735 I-30.925
G1 Z-14. F333.3
G2 X225.837 Y-1.675 I-30.629 J4.265 F1000.
G1 Z-13.5
G2 X221.912 Y-1.925 I-3.925 J30.675
G3 X221.812 Y-2.025 J-0.1
G1 Y-2.225
G0 Z5.
X222.012
G1 Z-12. F1000.
Z-13.5 F333.3
Y-2.125
Y-2.025 F1000.
G3 X221.912 Y-1.925 I-0.1
G2 X217.987 Y-1.675 J30.925
G1 Z-15. F333.3
G2 X191.237 Y25.075 I3.925 J30.675 F1000.
G1 Z-13.5
G2 Y32.925 I30.675 J3.925
G1 Z-15. F333.3
G2 X216.371 Y59.425 I30.675 J-3.925 F1000.
G1 Z-13.5
G2 X221.912 Y59.925 I5.541 J-30.425
X224.21 Y59.84 J-30.925
G1 Z-15. F333.3
G2 X248.931 Y44.045 I-2.298 J-30.84 F1000.
X252.629 Y32.584 I-27.019 J-15.044
G1 Z-13.5
G2 X252.837 Y29. I-30.717 J-3.584
X252.541 Y24.735 I-30.925
G1 Z-15. F333.3
G2 X225.837 Y-1.675 I-30.629 J4.265 F1000.
G1 Z-13.5
G2 X221.912 Y-1.925 I-3.925 J30.675
G3 X221.812 Y-2.025 J-0.1
G1 Y-2.225
G0 Z15.
G91
G28 Z0.
M5
G28 X0. Y0.
M30
%
