%
O00001013
(T3  D=5.85 CR=0. - ZMIN=-15.1 - FLAT END MILL)
G90 G94 G17
G21
G91
G28 Z0.
G90
(2D CONTOUR1 (2))
T3 M6
S5000 M3
G54
G0 X156.458 Y61.813
G43 Z15. H3
G0 Z5.
G1 Z1. F1000.
Z-13.6 F333.3
X156.462 Y61.713
X156.465 Y61.613 F1000.
G3 X156.569 Y61.517 I0.1 J0.003
G2 X161.668 Y61.273 I1.074 J-30.906
G1 Z-15.1 F333.3
G2 X188.44 Y33.419 I-4.025 J-30.662 F1000.
G1 Z-13.6
G2 X132.506 Y12.597 I-30.797 J-2.808
X182.78 Y48.625 I25.137 J18.014
X188.069 Y25.075 I-25.137 J-18.014
G1 Z-15.1 F333.3
G2 X161.568 Y-0.064 I-30.426 J5.536 F1000.
G1 Z-13.6
G2 X153.718 I-3.925 J30.675
G1 Z-15.1 F333.3
G2 X126.968 Y26.686 I3.925 J30.675 F1000.
G1 Z-13.6
G2 X188.318 Y34.536 I30.675 J3.925
X157.181 Y-0.311 I-30.675 J-3.925
X127.099 Y35.451 I0.462 J30.922
G1 Z-15.1 F333.3
G2 X153.818 Y61.298 I30.544 J-4.84 F1000.
G1 Z-13.6
G2 X156.569 Y61.517 I3.825 J-30.688
G3 X156.665 Y61.62 I-0.003 J0.1
G1 X156.658 Y61.82
G0 Z5.
X94.655 Y62.939
G1 Z1. F1000.
Z-13.6 F333.3
X94.65 Y62.839
X94.645 Y62.739 F1000.
G3 X94.74 Y62.634 I0.1 J-0.005
G2 X97.232 Y62.409 I-1.535 J-30.887
G1 Z-15.1 F333.3
G2 X123.905 Y35.472 I-4.027 J-30.662 F1000.
G1 Z-13.6
G2 X62.505 Y28.023 I-30.7 J-3.724
X93.881 Y62.665 I30.7 J3.724
X123.713 Y26.686 I-0.675 J-30.918
G1 Z-15.1 F333.3
G2 X97.13 Y1.072 I-30.508 J5.062 F1000.
G1 Z-13.6
G2 X89.28 I-3.925 J30.675
G1 Z-15.1 F333.3
G2 X62.616 Y27.199 I3.925 J30.675 F1000.
G1 Z-13.6
G2 X62.53 Y35.672 I30.589 J4.548
G1 Z-15.1 F333.3
G2 X89.382 Y62.435 I30.675 J-3.925 F1000.
G1 Z-13.6
G2 X94.74 Y62.634 I3.823 J-30.688
G3 X94.845 Y62.729 I0.005 J0.1
G1 X94.855 Y62.929
G0 Z5.
X28.9 Y62.449
G1 Z1. F1000.
Z-13.6 F333.3
Y62.348
Y62.249 F1000.
G3 X29. Y62.148 I0.1
G2 X32.994 Y61.889 J-30.925
G1 Z-15.1 F333.3
G2 X59.603 Y35.672 I-3.994 J-30.666 F1000.
G1 Z-13.6
G2 X59.663 Y27.208 I-30.603 J-4.449
G1 Z-15.1 F333.3
G2 X32.925 Y0.549 I-30.663 J4.015 F1000.
G1 Z-13.6
G2 X25.075 I-3.925 J30.675
G1 Z-15.1 F333.3
G2 X-1.675 Y27.299 I3.925 J30.675 F1000.
G1 Z-13.6
G2 Y35.148 I30.675 J3.925
G1 Z-15.1 F333.3
G2 X25.144 Y61.907 I30.675 J-3.925 F1000.
G1 Z-13.6
G2 X29. Y62.148 I3.856 J-30.684
G3 X29.1 Y62.249 J0.1
G1 Y62.449
G0 Z5.
X220.325 Y60.185
G1 Z1. F1000.
Z-13.6 F333.3
X220.33 Y60.085
X220.335 Y59.985 F1000.
G3 X220.439 Y59.89 I0.1 J0.005
G2 X225.837 Y59.675 I1.473 J-30.89
G1 Z-15.1 F333.3
G2 X252.829 Y29.697 I-3.925 J-30.675 F1000.
G1 Z-13.6
G2 X252.009 Y21.89 I-30.917 J-0.697
G1 Z-15.1 F333.3
G2 X224.493 Y-1.817 I-30.097 J7.11 F1000.
G1 Z-13.6
G2 X216.651 Y-1.474 I-2.581 J30.817
G1 Z-15.1 F333.3
G2 X191.237 Y25.075 I5.261 J30.474 F1000.
G1 Z-13.6
G2 X191.29 Y33.315 I30.675 J3.925
G1 Z-15.1 F333.3
G2 X217.987 Y59.675 I30.622 J-4.315 F1000.
G1 Z-13.6
G2 X220.439 Y59.89 I3.925 J-30.675
G3 X220.534 Y59.995 I-0.005 J0.1
G1 X220.525 Y60.194
G0 Z15.
G91
G28 Z0.
M5
G28 X0. Y0.
M30
%
