%
O00001014
(T3  D=5.85 CR=0. - ZMIN=-15. - FLAT END MILL)
G90 G94 G17
G21
G91
G28 Z0.
G90
(DRILL1)
T3 M6
S5000 M3
G54
G0 X93.205 Y49.747
G43 Z15. H3
G0 Z5.
G98 G81 X93.205 Y49.747 Z-15. R5. F333.3
X29. Y49.224
X13.412 Y22.224
X29. Y31.224
X44.588 Y22.224
X77.617 Y22.747
X93.205 Y31.747
X108.794 Y22.747
X142.055 Y21.611
X157.643 Y30.611
X173.232 Y21.611
X206.324 Y20.
X221.912 Y29.
X237.5 Y20.
X221.912 Y47.
X157.643 Y48.611
G80
Z15.
G91
G28 Z0.
M5
G28 X0. Y0.
M30
%
