%
O00001001
(T2  D=2. CR=0. - ZMIN=-3. - FLAT END MILL)
G90 G94 G17
G21
G91
G28 Z0.
G90
(2D POCKET3)
T2 M6
S8000 M3
G54
G0 X77.473 Y30.408
G43 Z15. H2
G0 Z5.
G1 Z2.7 F1500.
G18 G2 X77.666 Z2.5 I0.2
G1 X122.891 Z0.921
Y31.508 Z0.882
X69.729 Z-0.974
Y30.768 Z-1.
Y30.408 F320.
X122.891
Y31.508
X69.729
Y30.768
Y30.408 Z-1.013 F1500.
X98.005 Z-2.
X122.891 F320.
Y31.508
X69.729
Y30.768
Y30.408
X98.005
X122.891 Z-2.869 F1500.
Y31.508 Z-2.907
X120.24 Z-3.
X69.729 F320.
Y30.408
X98.005
X122.891
Y31.508
X120.24
G17 G3 X120.145 Y31.483 Z-2.973 J-0.2 F1500.
X120.088 Y31.437 Z-2.9 I0.096 J-0.176
X120.072 Y31.416 Z-2.8 I0.152 J-0.13
G0 Z15.
G91
G28 Z0.
M5
G28 X0. Y0.
M30
%
