%
O00001002
(T2  D=2. CR=0. - ZMIN=-6. - FLAT END MILL)
G90 G94 G17
G21
G91
G28 Z0.
G90
(BORE1)
T2 M6
S8000 M3
G54
G0 X206.2 Y10.9
G43 Z15. H2
G0 Z2.
G1 Z0.2 F1500.
G19 G3 Y11.1 Z0. J0.2
G1 Y11.2
G17 G3 X206. Y11.4 I-0.2
Y6.6 Z-0.5 J-2.4 F320.
Y11.4 Z-1. J2.4
Y6.6 Z-1.5 J-2.4
Y11.4 Z-2. J2.4
Y6.6 Z-2.5 J-2.4
Y11.4 Z-3. J2.4
Y6.6 Z-3.5 J-2.4
Y11.4 Z-4. J2.4
Y6.6 Z-4.5 J-2.4
Y11.4 Z-5. J2.4
Y6.6 Z-5.5 J-2.4
Y11.4 Z-6. J2.4
Y6.6 J-2.4
Y11.4 J2.4
X205.8 Y11.2 J-0.2 F1500.
G1 Y11.1
G19 G2 Y10.9 Z-5.8 K0.2
G0 Z5.
X183.2
Z2.
G1 Z0.2 F1500.
G3 Y11.1 Z0. J0.2
G1 Y11.2
G17 G3 X183. Y11.4 I-0.2
Y6.6 Z-0.5 J-2.4 F320.
Y11.4 Z-1. J2.4
Y6.6 Z-1.5 J-2.4
Y11.4 Z-2. J2.4
Y6.6 Z-2.5 J-2.4
Y11.4 Z-3. J2.4
Y6.6 Z-3.5 J-2.4
Y11.4 Z-4. J2.4
Y6.6 Z-4.5 J-2.4
Y11.4 Z-5. J2.4
Y6.6 Z-5.5 J-2.4
Y11.4 Z-6. J2.4
Y6.6 J-2.4
Y11.4 J2.4
X182.8 Y11.2 J-0.2 F1500.
G1 Y11.1
G19 G2 Y10.9 Z-5.8 K0.2
G0 Z5.
X160.2
Z2.
G1 Z0.2 F1500.
G3 Y11.1 Z0. J0.2
G1 Y11.2
G17 G3 X160. Y11.4 I-0.2
Y6.6 Z-0.5 J-2.4 F320.
Y11.4 Z-1. J2.4
Y6.6 Z-1.5 J-2.4
Y11.4 Z-2. J2.4
Y6.6 Z-2.5 J-2.4
Y11.4 Z-3. J2.4
Y6.6 Z-3.5 J-2.4
Y11.4 Z-4. J2.4
Y6.6 Z-4.5 J-2.4
Y11.4 Z-5. J2.4
Y6.6 Z-5.5 J-2.4
Y11.4 Z-6. J2.4
Y6.6 J-2.4
Y11.4 J2.4
X159.8 Y11.2 J-0.2 F1500.
G1 Y11.1
G19 G2 Y10.9 Z-5.8 K0.2
G0 Z5.
X135.1 Y9.2
Z2.
G1 Z0.2 F1500.
G18 G3 X134.9 Z0. I-0.2
G1 X134.8
G17 G3 X134.6 Y9. J-0.2
X139.4 Z-0.5 I2.4 F320.
X134.6 Z-1. I-2.4
X139.4 Z-1.5 I2.4
X134.6 Z-2. I-2.4
X139.4 Z-2.5 I2.4
X134.6 Z-3. I-2.4
X139.4 Z-3.5 I2.4
X134.6 Z-4. I-2.4
X139.4 Z-4.5 I2.4
X134.6 Z-5. I-2.4
X139.4 Z-5.5 I2.4
X134.6 Z-6. I-2.4
X139.4 I2.4
X134.6 I-2.4
X134.8 Y8.8 I0.2 F1500.
G1 X134.9
G18 G2 X135.1 Z-5.8 K0.2
G0 Z5.
X50.2 Y24.
Z2.
G1 Z0.2 F1500.
G19 G3 Y24.2 Z0. J0.2
G1 Y24.3
G17 G3 X50. Y24.5 I-0.2
Y15.5 Z-0.5 J-4.5 F320.
Y24.5 Z-1. J4.5
Y15.5 Z-1.5 J-4.5
Y24.5 Z-2. J4.5
Y15.5 Z-2.5 J-4.5
Y24.5 Z-3. J4.5
Y15.5 Z-3.5 J-4.5
Y24.5 Z-4. J4.5
Y15.5 Z-4.5 J-4.5
Y24.5 Z-5. J4.5
Y15.5 Z-5.5 J-4.5
Y24.5 Z-6. J4.5
Y15.5 J-4.5
Y24.5 J4.5
X49.8 Y24.3 J-0.2 F1500.
G1 Y24.2
G19 G2 Y24. Z-5.8 K0.2
G0 Z5.
X19. Y19.8
Z2.
G1 Z0.2 F1500.
G18 G2 X19.2 Z0. I0.2
G1 X19.3
G17 G3 X19.5 Y20. J0.2
X10.5 Z-0.5 I-4.5 F320.
X19.5 Z-1. I4.5
X10.5 Z-1.5 I-4.5
X19.5 Z-2. I4.5
X10.5 Z-2.5 I-4.5
X19.5 Z-3. I4.5
X10.5 Z-3.5 I-4.5
X19.5 Z-4. I4.5
X10.5 Z-4.5 I-4.5
X19.5 Z-5. I4.5
X10.5 Z-5.5 I-4.5
X19.5 Z-6. I4.5
X10.5 I-4.5
X19.5 I4.5
X19.3 Y20.2 I-0.2 F1500.
G1 X19.2
G18 G3 X19. Z-5.8 K0.2
G0 Z5.
Y58.618
Z2.
G1 Z0.2 F1500.
G2 X19.2 Z0. I0.2
G1 X19.3
G17 G3 X19.5 Y58.818 J0.2
X10.5 Z-0.5 I-4.5 F320.
X19.5 Z-1. I4.5
X10.5 Z-1.5 I-4.5
X19.5 Z-2. I4.5
X10.5 Z-2.5 I-4.5
X19.5 Z-3. I4.5
X10.5 Z-3.5 I-4.5
X19.5 Z-4. I4.5
X10.5 Z-4.5 I-4.5
X19.5 Z-5. I4.5
X10.5 Z-5.5 I-4.5
X19.5 Z-6. I4.5
X10.5 I-4.5
X19.5 I4.5
X19.3 Y59.018 I-0.2 F1500.
G1 X19.2
G18 G3 X19. Z-5.8 K0.2
G0 Z5.
X50.2 Y62.818
Z2.
G1 Z0.2 F1500.
G19 G3 Y63.018 Z0. J0.2
G1 Y63.118
G17 G3 X50. Y63.318 I-0.2
Y54.318 Z-0.5 J-4.5 F320.
Y63.318 Z-1. J4.5
Y54.318 Z-1.5 J-4.5
Y63.318 Z-2. J4.5
Y54.318 Z-2.5 J-4.5
Y63.318 Z-3. J4.5
Y54.318 Z-3.5 J-4.5
Y63.318 Z-4. J4.5
Y54.318 Z-4.5 J-4.5
Y63.318 Z-5. J4.5
Y54.318 Z-5.5 J-4.5
Y63.318 Z-6. J4.5
Y54.318 J-4.5
Y63.318 J4.5
X49.8 Y63.118 J-0.2 F1500.
G1 Y63.018
G19 G2 Y62.818 Z-5.8 K0.2
G0 Z15.
G17
G91
G28 Z0.
M5
G0
G28 X0. Y0.
M30
%
