%
O00001003
(T2  D=2. CR=0. - ZMIN=-6. - FLAT END MILL)
G90 G94 G17
G21
G91
G28 Z0.
G90
(BORE1 (2))
T2 M6
S8000 M3
G54
G0 X136.5 Y26.2
G43 Z15. H2
G0 Z2.
G1 Z0.2 F1500.
G18 G3 X136.3 Z0. I-0.2
G1 X136.2
G17 G3 X136. Y26. J-0.2
X138. Z-0.5 I1. F800.
X136. Z-1. I-1.
X138. Z-1.5 I1.
X136. Z-2. I-1.
X138. Z-2.5 I1.
X136. Z-3. I-1.
X138. Z-3.5 I1.
X136. Z-4. I-1.
X138. Z-4.5 I1.
X136. Z-5. I-1.
X138. Z-5.5 I1.
X136. Z-6. I-1.
X138. I1.
X136. I-1.
X136.2 Y25.8 I0.2 F1500.
G1 X136.3
G18 G2 X136.5 Z-5.8 K0.2
G0 Z5.
Y37.2
Z2.
G1 Z0.2 F1500.
G3 X136.3 Z0. I-0.2
G1 X136.2
G17 G3 X136. Y37. J-0.2
X138. Z-0.5 I1. F800.
X136. Z-1. I-1.
X138. Z-1.5 I1.
X136. Z-2. I-1.
X138. Z-2.5 I1.
X136. Z-3. I-1.
X138. Z-3.5 I1.
X136. Z-4. I-1.
X138. Z-4.5 I1.
X136. Z-5. I-1.
X138. Z-5.5 I1.
X136. Z-6. I-1.
X138. I1.
X136. I-1.
X136.2 Y36.8 I0.2 F1500.
G1 X136.3
G18 G2 X136.5 Z-5.8 K0.2
G0 Z5.
X160.5
Z2.
G1 Z0.2 F1500.
G2 X160.7 Z0. I0.2
G1 X160.8
G17 G3 X161. Y37. J0.2
X159. Z-0.5 I-1. F800.
X161. Z-1. I1.
X159. Z-1.5 I-1.
X161. Z-2. I1.
X159. Z-2.5 I-1.
X161. Z-3. I1.
X159. Z-3.5 I-1.
X161. Z-4. I1.
X159. Z-4.5 I-1.
X161. Z-5. I1.
X159. Z-5.5 I-1.
X161. Z-6. I1.
X159. I-1.
X161. I1.
X160.8 Y37.2 I-0.2 F1500.
G1 X160.7
G18 G3 X160.5 Z-5.8 K0.2
G0 Z5.
Y25.8
Z2.
G1 Z0.2 F1500.
G2 X160.7 Z0. I0.2
G1 X160.8
G17 G3 X161. Y26. J0.2
X159. Z-0.5 I-1. F800.
X161. Z-1. I1.
X159. Z-1.5 I-1.
X161. Z-2. I1.
X159. Z-2.5 I-1.
X161. Z-3. I1.
X159. Z-3.5 I-1.
X161. Z-4. I1.
X159. Z-4.5 I-1.
X161. Z-5. I1.
X159. Z-5.5 I-1.
X161. Z-6. I1.
X159. I-1.
X161. I1.
X160.8 Y26.2 I-0.2 F1500.
G1 X160.7
G18 G3 X160.5 Z-5.8 K0.2
G0 Z5.
X183.2 Y26.5
Z2.
G1 Z0.2 F1500.
G19 G3 Y26.7 Z0. J0.2
G1 Y26.8
G17 G3 X183. Y27. I-0.2
Y25. Z-0.5 J-1. F800.
Y27. Z-1. J1.
Y25. Z-1.5 J-1.
Y27. Z-2. J1.
Y25. Z-2.5 J-1.
Y27. Z-3. J1.
Y25. Z-3.5 J-1.
Y27. Z-4. J1.
Y25. Z-4.5 J-1.
Y27. Z-5. J1.
Y25. Z-5.5 J-1.
Y27. Z-6. J1.
Y25. J-1.
Y27. J1.
X182.8 Y26.8 J-0.2 F1500.
G1 Y26.7
G19 G2 Y26.5 Z-5.8 K0.2
G0 Z5.
X182.5 Y37.2
Z2.
G1 Z0.2 F1500.
G18 G3 X182.3 Z0. I-0.2
G1 X182.2
G17 G3 X182. Y37. J-0.2
X184. Z-0.5 I1. F800.
X182. Z-1. I-1.
X184. Z-1.5 I1.
X182. Z-2. I-1.
X184. Z-2.5 I1.
X182. Z-3. I-1.
X184. Z-3.5 I1.
X182. Z-4. I-1.
X184. Z-4.5 I1.
X182. Z-5. I-1.
X184. Z-5.5 I1.
X182. Z-6. I-1.
X184. I1.
X182. I-1.
X182.2 Y36.8 I0.2 F1500.
G1 X182.3
G18 G2 X182.5 Z-5.8 K0.2
G0 Z5.
X205.5 Y37.2
Z2.
G1 Z0.2 F1500.
G3 X205.3 Z0. I-0.2
G1 X205.2
G17 G3 X205. Y37. J-0.2
X207. Z-0.5 I1. F800.
X205. Z-1. I-1.
X207. Z-1.5 I1.
X205. Z-2. I-1.
X207. Z-2.5 I1.
X205. Z-3. I-1.
X207. Z-3.5 I1.
X205. Z-4. I-1.
X207. Z-4.5 I1.
X205. Z-5. I-1.
X207. Z-5.5 I1.
X205. Z-6. I-1.
X207. I1.
X205. I-1.
X205.2 Y36.8 I0.2 F1500.
G1 X205.3
G18 G2 X205.5 Z-5.8 K0.2
G0 Z5.
X206.2 Y26.5
Z2.
G1 Z0.2 F1500.
G19 G3 Y26.7 Z0. J0.2
G1 Y26.8
G17 G3 X206. Y27. I-0.2
Y25. Z-0.5 J-1. F800.
Y27. Z-1. J1.
Y25. Z-1.5 J-1.
Y27. Z-2. J1.
Y25. Z-2.5 J-1.
Y27. Z-3. J1.
Y25. Z-3.5 J-1.
Y27. Z-4. J1.
Y25. Z-4.5 J-1.
Y27. Z-5. J1.
Y25. Z-5.5 J-1.
Y27. Z-6. J1.
Y25. J-1.
Y27. J1.
X205.8 Y26.8 J-0.2 F1500.
G1 Y26.7
G19 G2 Y26.5 Z-5.8 K0.2
G0 Z15.
G17
G91
G28 Z0.
M5
G0
G28 X0. Y0.
M30
%
