%
O00001004
(T4  D=2. CR=0. TAPER=118DEG - ZMIN=-6. - DRILL)
G90 G94 G17
G21
G91
G28 Z0.
G90
(DRILL1)
T4 M6
S9700 M3
G54
G0 X119. Y23.
G43 Z15. H4
G0 Z5.
G98 G81 X119. Y23. Z-6. R5. F485.
Y7.
X74.
Y23.
X58. Y20.
X50. Y12.
X42. Y20.
X50. Y28.
X23. Y20.
X15. Y12.
X7. Y20.
X15. Y28.
Y66.818
X7. Y58.818
X15. Y50.818
X23. Y58.818
X50. Y66.818
X42. Y58.818
X50. Y50.818
X58. Y58.818
G80
Z15.
G91
G28 Z0.
M5
G28 X0. Y0.
M30
%
