%
O00001005
(T3  D=5.85 CR=0. - ZMIN=-2. - FLAT END MILL)
G90 G94 G17
G21
G91
G28 Z0.
G90
(2D POCKET2)
T3 M6
S5000 M3
G54
G0 X100.454 Y64.323
G43 Z15. H3
G0 Z5.
G1 Z3.083 F1000.
G3 X100.451 Y64.348 Z2.912 I-2.749 J-0.407 F333.3
X100.438 Y64.422 Z2.756 I-2.745 J-0.433
X100.414 Y64.536 Z2.628 I-2.732 J-0.506
X100.377 Y64.68 Z2.54 I-2.709 J-0.621
X100.326 Y64.84 Z2.5 I-2.671 J-0.765
X95.085 Y62.991 Z1.736 I-2.62 J-0.925
X100.326 Y64.84 Z0.973 I2.62 J0.925
X95.085 Y62.991 Z0.209 I-2.62 J-0.925
X100.326 Y64.84 Z-0.555 I2.62 J0.925
X95.085 Y62.991 Z-1.319 I-2.62 J-0.925
X100.484 Y63.916 Z-2. I2.62 J0.925
X95.205 I-2.64
G2 X95.183 Y61.813 I-98.207 F1000.
G3 X95.16 Y59.711 I98.185 J-2.102
X95.48 Y59.392 I0.319
G1 X97.52
G3 X97.84 Y59.711 J0.319
X97.817 Y61.813 I-98.207
G2 X97.795 Y63.916 I98.185 J2.102
G3 X95.205 I-1.295
G2 X93.815 Y61.83 I-2.259
G3 X92.425 Y59.745 I0.869 J-2.085
G1 Y56.657
X100.575
Y63.916
G3 X92.425 I-4.075
G1 Y59.745
G3 X92.453 Y59.567 Z-1.971 I0.585
X92.523 Y59.421 Z-1.888 I0.557 J0.178
X92.606 Y59.322 Z-1.759 I0.487 J0.324
X92.67 Y59.269 Z-1.596 I0.404 J0.423
X92.694 Y59.253 Z-1.415 I0.34 J0.476
G0 Z15.
G91
G28 Z0.
M5
G28 X0. Y0.
M30
%
