%
O00001006
(T3  D=5.85 CR=0. - ZMIN=-6. - FLAT END MILL)
G90 G94 G17
G21
G91
G28 Z0.
G90
(2D CONTOUR1)
T3 M6
S5000 M3
G54
G0 X126.78 Y37.585
G43 Z15. H3
G0 Z5.
G1 Z2. F1000.
Z-0.415 F333.3
G18 G3 X126.195 Z-1. I-0.585
G1 X125.61 F1000.
G17 G3 X125.025 Y37. J-0.585
G1 Y1. F800.
G2 X122. Y-2.025 I-3.025
G1 X71.
G2 X67.975 Y1. J3.025
G1 Y37.732
G2 X79. Y48.757 I11.025
G1 X80.5
G3 X85.475 Y53.732 J4.975
G1 Y63.916
G2 X107.525 I11.025
G1 Y53.732
G3 X112.5 Y48.757 I4.975
G1 X114.
G2 X125.025 Y37.732 J-11.025
G1 Y37.
G3 X125.61 Y36.415 I0.585 F1000.
G1 X126.195
G18 G2 X126.78 Z-0.415 K0.585
G0 Z5.
X127.22 Y21.486
G1 Z2. F1000.
Z-0.415 F333.3
G2 X127.805 Z-1. I0.585
G1 X128.39 F1000.
G17 G3 X128.975 Y22.071 J0.585
G1 Y37. F800.
G2 X145.025 I8.025
G1 Y21.253
X147.139 Y19.139
G2 X148.025 Y17. I-2.139 J-2.139
G1 Y9.
G2 X125.975 I-11.025
G1 Y17.
G2 X126.861 Y19.139 I3.025
G1 X128.975 Y21.253
Y22.071
G3 X128.39 Y22.656 I-0.585 F1000.
G1 X127.805
G18 G3 X127.22 Z-0.415 K0.585
G0 Z5.
Y21.486
G1 Z1. F1000.
Z-1.415 F333.3
G2 X127.805 Z-2. I0.585
G1 X128.39 F1000.
G17 G3 X128.975 Y22.071 J0.585
G1 Y37. F800.
G2 X145.025 I8.025
G1 Y21.253
X147.139 Y19.139
G2 X148.025 Y17. I-2.139 J-2.139
G1 Y9.
G2 X125.975 I-11.025
G1 Y17.
G2 X126.861 Y19.139 I3.025
G1 X128.975 Y21.253
Y22.071
G3 X128.39 Y22.656 I-0.585 F1000.
G1 X127.805
G18 G3 X127.22 Z-1.415 K0.585
G0 Z5.
X126.78 Y37.585
G1 Z1. F1000.
Z-1.415 F333.3
G3 X126.195 Z-2. I-0.585
G1 X125.61 F1000.
G17 G3 X125.025 Y37. J-0.585
G1 Y1. F800.
G2 X122. Y-2.025 I-3.025
G1 X71.
G2 X67.975 Y1. J3.025
G1 Y37.732
G2 X79. Y48.757 I11.025
G1 X80.5
G3 X85.475 Y53.732 J4.975
G1 Y63.916
G2 X107.525 I11.025
G1 Y53.732
G3 X112.5 Y48.757 I4.975
G1 X114.
G2 X125.025 Y37.732 J-11.025
G1 Y37.
G3 X125.61 Y36.415 I0.585 F1000.
G1 X126.195
G18 G2 X126.78 Z-1.415 K0.585
G0 Z5.
Y37.585
G1 Z0. F1000.
Z-2.415 F333.3
G3 X126.195 Z-3. I-0.585
G1 X125.61 F1000.
G17 G3 X125.025 Y37. J-0.585
G1 Y1. F800.
G2 X122. Y-2.025 I-3.025
G1 X71.
G2 X67.975 Y1. J3.025
G1 Y37.732
G2 X79. Y48.757 I11.025
G1 X80.5
G3 X85.475 Y53.732 J4.975
G1 Y63.916
G2 X107.525 I11.025
G1 Y53.732
G3 X112.5 Y48.757 I4.975
G1 X114.
G2 X125.025 Y37.732 J-11.025
G1 Y37.
G3 X125.61 Y36.415 I0.585 F1000.
G1 X126.195
G18 G2 X126.78 Z-2.415 K0.585
G0 Z5.
X127.22 Y21.486
G1 Z0. F1000.
Z-2.415 F333.3
G2 X127.805 Z-3. I0.585
G1 X128.39 F1000.
G17 G3 X128.975 Y22.071 J0.585
G1 Y37. F800.
G2 X145.025 I8.025
G1 Y21.253
X147.139 Y19.139
G2 X148.025 Y17. I-2.139 J-2.139
G1 Y9.
G2 X125.975 I-11.025
G1 Y17.
G2 X126.861 Y19.139 I3.025
G1 X128.975 Y21.253
Y22.071
G3 X128.39 Y22.656 I-0.585 F1000.
G1 X127.805
G18 G3 X127.22 Z-2.415 K0.585
G0 Z5.
Y21.486
G1 Z-1. F1000.
Z-3.415 F333.3
G2 X127.805 Z-4. I0.585
G1 X128.39 F1000.
G17 G3 X128.975 Y22.071 J0.585
G1 Y37. F800.
G2 X145.025 I8.025
G1 Y21.253
X147.139 Y19.139
G2 X148.025 Y17. I-2.139 J-2.139
G1 Y9.
G2 X125.975 I-11.025
G1 Y17.
G2 X126.861 Y19.139 I3.025
G1 X128.975 Y21.253
Y22.071
G3 X128.39 Y22.656 I-0.585 F1000.
G1 X127.805
G18 G3 X127.22 Z-3.415 K0.585
G0 Z5.
X126.78 Y37.585
G1 Z-1. F1000.
Z-3.415 F333.3
G3 X126.195 Z-4. I-0.585
G1 X125.61 F1000.
G17 G3 X125.025 Y37. J-0.585
G1 Y1. F800.
G2 X122. Y-2.025 I-3.025
G1 X71.
G2 X67.975 Y1. J3.025
G1 Y37.732
G2 X79. Y48.757 I11.025
G1 X80.5
G3 X85.475 Y53.732 J4.975
G1 Y63.916
G2 X107.525 I11.025
G1 Y53.732
G3 X112.5 Y48.757 I4.975
G1 X114.
G2 X125.025 Y37.732 J-11.025
G1 Y37.
G3 X125.61 Y36.415 I0.585 F1000.
G1 X126.195
G18 G2 X126.78 Z-3.415 K0.585
G0 Z5.
Y37.585
G1 Z-2. F1000.
Z-4.415 F333.3
G3 X126.195 Z-5. I-0.585
G1 X125.61 F1000.
G17 G3 X125.025 Y37. J-0.585
G1 Y18.001 F800.
Z-4.537
Y6.301
Z-5. F333.3
Y1. F800.
G2 X122. Y-2.025 I-3.025
G1 X71.
G2 X67.975 Y1. J3.025
G1 Y14.429
Z-4.537
Y26.161
Z-5. F333.3
Y37.732 F800.
G2 X79. Y48.757 I11.025
G1 X80.5
G3 X85.475 Y53.732 J4.975
G1 Y63.916
G2 X90.65 Y73.26 I11.025
G1 Z-4.537
G2 X102.35 I5.85 J-9.345
G1 Z-5. F333.3
G2 X107.525 Y63.916 I-5.85 J-9.345 F800.
G1 Y53.732
G3 X112.5 Y48.757 I4.975
G1 X114.
G2 X125.025 Y37.732 J-11.025
G1 Y37.
G3 X125.61 Y36.415 I0.585 F1000.
G1 X126.195
G18 G2 X126.78 Z-4.415 K0.585
G0 Z5.
X127.22 Y21.486
G1 Z-2. F1000.
Z-4.415 F333.3
G2 X127.805 Z-5. I0.585
G1 X128.39 F1000.
G17 G3 X128.975 Y22.071 J0.585
G1 Y37. F800.
G2 X131.15 Y42.493 I8.025
G1 Z-4.537
G2 X142.85 I5.85 J-5.493
G1 Z-5. F333.3
G2 X145.025 Y37. I-5.85 J-5.493 F800.
G1 Y21.253
X147.139 Y19.139
G2 X148.005 Y17.345 I-2.139 J-2.139
G1 Z-4.537
G2 X148.025 Y17. I-3.005 J-0.345
G1 Y9.
G2 X147.502 Y5.645 I-11.025
G1 Z-5. F333.3
G2 X126.311 Y6.301 I-10.502 J3.355 F800.
G1 Z-4.537
G2 X125.975 Y9. I10.689 J2.699
G1 Y17.
G2 X126.145 Y18.001 I3.025
G1 Z-5. F333.3
G2 X126.861 Y19.139 I2.855 J-1.001 F800.
G1 X128.975 Y21.253
Y22.071
G3 X128.39 Y22.656 I-0.585 F1000.
G1 X127.805
G18 G3 X127.22 Z-4.415 K0.585
G0 Z5.
Y21.486
G1 Z-3. F1000.
Z-5.415 F333.3
G2 X127.805 Z-6. I0.585
G1 X128.39 F1000.
G17 G3 X128.975 Y22.071 J0.585
G1 Y37. F800.
G2 X131.15 Y42.493 I8.025
G1 Z-4.537
G2 X142.85 I5.85 J-5.493
G1 Z-6. F333.3
G2 X145.025 Y37. I-5.85 J-5.493 F800.
G1 Y21.253
X147.139 Y19.139
G2 X148.005 Y17.345 I-2.139 J-2.139
G1 Z-4.537
G2 X148.025 Y17. I-3.005 J-0.345
G1 Y9.
G2 X147.502 Y5.645 I-11.025
G1 Z-6. F333.3
G2 X126.311 Y6.301 I-10.502 J3.355 F800.
G1 Z-4.537
G2 X125.975 Y9. I10.689 J2.699
G1 Y17.
G2 X126.145 Y18.001 I3.025
G1 Z-6. F333.3
G2 X126.861 Y19.139 I2.855 J-1.001 F800.
G1 X128.975 Y21.253
Y22.071
G2 X129.025 Y22.146 I0.081
G3 X129.075 Y22.221 I-0.031 J0.075
G1 Y37.
G2 X131.15 Y42.346 I7.925
G1 Z-4.537
G2 X142.85 I5.85 J-5.346
G1 Z-6. F333.3
G2 X144.925 Y37. I-5.85 J-5.346 F800.
G1 Y21.212
X147.068 Y19.068
G2 X147.905 Y17.345 I-2.068 J-2.068
G1 Z-4.537
G2 X147.925 Y17. I-2.905 J-0.345
G1 Y9.
G2 X147.397 Y5.645 I-10.925
G1 Z-6. F333.3
G2 X126.414 Y6.301 I-10.397 J3.355 F800.
G1 Z-4.537
G2 X126.075 Y9. I10.586 J2.699
G1 Y17.
G2 X126.252 Y18.001 I2.925
G1 Z-6. F333.3
G2 X126.932 Y19.068 I2.748 J-1.001 F800.
G1 X129.075 Y21.212
Y22.221
G3 X128.49 Y22.806 I-0.585 F1000.
G1 X127.905
G18 G3 X127.32 Z-5.415 K0.585
G0 Z5.
X126.78 Y37.585
G1 Z-3. F1000.
Z-5.415 F333.3
G3 X126.195 Z-6. I-0.585
G1 X125.61 F1000.
G17 G3 X125.025 Y37. J-0.585
G1 Y18.001 F800.
Z-4.537
Y6.301
Z-6. F333.3
Y1. F800.
G2 X122. Y-2.025 I-3.025
G1 X71.
G2 X67.975 Y1. J3.025
G1 Y14.429
Z-4.537
Y26.161
Z-6. F333.3
Y37.732 F800.
G2 X79. Y48.757 I11.025
G1 X80.5
G3 X85.475 Y53.732 J4.975
G1 Y63.916
G2 X90.65 Y73.26 I11.025
G1 Z-4.537
G2 X102.35 I5.85 J-9.345
G1 Z-6. F333.3
G2 X107.525 Y63.916 I-5.85 J-9.345 F800.
G1 Y53.732
G3 X112.5 Y48.757 I4.975
G1 X114.
G2 X125.025 Y37.732 J-11.025
G1 Y37.
G2 X124.975 Y36.925 I-0.081
G3 X124.925 Y36.85 I0.031 J-0.075
G1 Y18.001
Z-4.537
Y6.301
Z-6. F333.3
Y1. F800.
G2 X122. Y-1.925 I-2.925
G1 X71.
G2 X68.075 Y1. J2.925
G1 Y14.436
Z-4.537
Y26.168
Z-6. F333.3
Y37.732 F800.
G2 X79. Y48.657 I10.925
G1 X80.5
G3 X85.575 Y53.732 J5.075
G1 Y63.916
G2 X90.65 Y73.142 I10.925
G1 Z-4.537
G2 X102.35 I5.85 J-9.227
G1 Z-6. F333.3
G2 X107.425 Y63.916 I-5.85 J-9.227 F800.
G1 Y53.732
G3 X112.5 Y48.657 I5.075
G1 X114.
G2 X124.925 Y37.732 J-10.925
G1 Y36.85
G3 X125.51 Y36.265 I0.585 F1000.
G1 X126.095
G18 G2 X126.68 Z-5.415 K0.585
G0 Z5.
X150.22 Y36.415
G1 Z2. F1000.
Z-0.415 F333.3
G2 X150.805 Z-1. I0.585
G1 X151.39 F1000.
G17 G3 X151.975 Y37. J0.585
G2 X168.025 I8.025 F800.
G1 Y21.253
X170.139 Y19.139
G2 X171.025 Y17. I-2.139 J-2.139
G1 Y9.
G2 X148.975 I-11.025
G1 Y17.
G2 X149.861 Y19.139 I3.025
G1 X151.975 Y21.253
Y37.
G3 X151.39 Y37.585 I-0.585 F1000.
G1 X150.805
G18 G3 X150.22 Z-0.415 K0.585
G0 Z5.
Y36.415
G1 Z1. F1000.
Z-1.415 F333.3
G2 X150.805 Z-2. I0.585
G1 X151.39 F1000.
G17 G3 X151.975 Y37. J0.585
G2 X168.025 I8.025 F800.
G1 Y21.253
X170.139 Y19.139
G2 X171.025 Y17. I-2.139 J-2.139
G1 Y9.
G2 X148.975 I-11.025
G1 Y17.
G2 X149.861 Y19.139 I3.025
G1 X151.975 Y21.253
Y37.
G3 X151.39 Y37.585 I-0.585 F1000.
G1 X150.805
G18 G3 X150.22 Z-1.415 K0.585
G0 Z5.
Y36.415
G1 Z0. F1000.
Z-2.415 F333.3
G2 X150.805 Z-3. I0.585
G1 X151.39 F1000.
G17 G3 X151.975 Y37. J0.585
G2 X168.025 I8.025 F800.
G1 Y21.253
X170.139 Y19.139
G2 X171.025 Y17. I-2.139 J-2.139
G1 Y9.
G2 X148.975 I-11.025
G1 Y17.
G2 X149.861 Y19.139 I3.025
G1 X151.975 Y21.253
Y37.
G3 X151.39 Y37.585 I-0.585 F1000.
G1 X150.805
G18 G3 X150.22 Z-2.415 K0.585
G0 Z5.
Y36.415
G1 Z-1. F1000.
Z-3.415 F333.3
G2 X150.805 Z-4. I0.585
G1 X151.39 F1000.
G17 G3 X151.975 Y37. J0.585
G2 X168.025 I8.025 F800.
G1 Y21.253
X170.139 Y19.139
G2 X171.025 Y17. I-2.139 J-2.139
G1 Y9.
G2 X148.975 I-11.025
G1 Y17.
G2 X149.861 Y19.139 I3.025
G1 X151.975 Y21.253
Y37.
G3 X151.39 Y37.585 I-0.585 F1000.
G1 X150.805
G18 G3 X150.22 Z-3.415 K0.585
G0 Z5.
Y36.415
G1 Z-2. F1000.
Z-4.415 F333.3
G2 X150.805 Z-5. I0.585
G1 X151.39 F1000.
G17 G3 X151.975 Y37. J0.585
G2 X153.668 Y41.931 I8.025 F800.
G1 Z-4.537
G2 X165.319 Y43.009 I6.332 J-4.931
G1 Z-5. F333.3
G2 X168.025 Y37. I-5.319 J-6.009 F800.
G1 Y21.253
X170.139 Y19.139
G2 X170.818 Y18.101 I-2.139 J-2.139
G1 Z-4.537
G2 X171.025 Y17. I-2.818 J-1.101
G1 Y9.
G2 X170.714 Y6.401 I-11.025
G1 Z-5. F333.3
G2 X149.498 Y5.645 I-10.714 J2.599 F800.
G1 Z-4.537
G2 X148.975 Y9. I10.502 J3.355
G1 Y17.
G2 X148.995 Y17.345 I3.025
G1 Z-5. F333.3
G2 X149.861 Y19.139 I3.005 J-0.345 F800.
G1 X151.975 Y21.253
Y37.
G3 X151.39 Y37.585 I-0.585 F1000.
G1 X150.805
G18 G3 X150.22 Z-4.415 K0.585
G0 Z5.
Y36.415
G1 Z-3. F1000.
Z-5.415 F333.3
G2 X150.805 Z-6. I0.585
G1 X151.39 F1000.
G17 G3 X151.975 Y37. J0.585
G2 X153.668 Y41.931 I8.025 F800.
G1 Z-4.537
G2 X165.319 Y43.009 I6.332 J-4.931
G1 Z-6. F333.3
G2 X168.025 Y37. I-5.319 J-6.009 F800.
G1 Y21.253
X170.139 Y19.139
G2 X170.818 Y18.101 I-2.139 J-2.139
G1 Z-4.537
G2 X171.025 Y17. I-2.818 J-1.101
G1 Y9.
G2 X170.714 Y6.401 I-11.025
G1 Z-6. F333.3
G2 X149.498 Y5.645 I-10.714 J2.599 F800.
G1 Z-4.537
G2 X148.975 Y9. I10.502 J3.355
G1 Y17.
G2 X148.995 Y17.345 I3.025
G1 Z-6. F333.3
G2 X149.861 Y19.139 I3.005 J-0.345 F800.
G1 X151.975 Y21.253
Y37.
G2 X152.025 Y37.075 I0.081
G3 X152.076 Y37.15 I-0.031 J0.076
G2 X153.682 Y41.784 I7.924 J-0.15
G1 Z-4.537
G2 X165.332 Y42.863 I6.318 J-4.784
G1 Z-6. F333.3
G2 X167.925 Y37. I-5.332 J-5.863 F800.
G1 Y21.212
X170.068 Y19.068
G2 X170.71 Y18.101 I-2.068 J-2.068
G1 Z-4.537
G2 X170.925 Y17. I-2.71 J-1.101
G1 Y9.
G2 X170.611 Y6.401 I-10.925
G1 Z-6. F333.3
G2 X149.603 Y5.645 I-10.611 J2.599 F800.
G1 Z-4.537
G2 X149.075 Y9. I10.397 J3.355
G1 Y17.
G2 X149.095 Y17.345 I2.925
G1 Z-6. F333.3
G2 X149.932 Y19.068 I2.905 J-0.345 F800.
G1 X152.075 Y21.212
Y37.
G2 X152.076 Y37.15 I7.925
G3 X151.503 Y37.746 I-0.585 J0.011 F1000.
G1 X150.918 Y37.757
X150.826 Y37.759 Z-5.993
X150.737 Y37.76 Z-5.971
X150.652 Y37.762 Z-5.936
X150.574 Y37.764 Z-5.888
X150.504 Y37.765 Z-5.829
X150.445 Y37.766 Z-5.759
X150.397 Y37.767 Z-5.681
X150.361 Y37.768 Z-5.596
X150.34 Z-5.507
X150.333 Z-5.415
G0 Z5.
X173.22 Y36.415
G1 Z2. F1000.
Z-0.415 F333.3
G18 G2 X173.805 Z-1. I0.585
G1 X174.39 F1000.
G17 G3 X174.975 Y37. J0.585
G2 X191.025 I8.025 F800.
G1 Y21.253
X193.139 Y19.139
G2 X194.025 Y17. I-2.139 J-2.139
G1 Y9.
G2 X171.975 I-11.025
G1 Y17.
G2 X172.861 Y19.139 I3.025
G1 X174.975 Y21.253
Y37.
G3 X174.39 Y37.585 I-0.585 F1000.
G1 X173.805
G18 G3 X173.22 Z-0.415 K0.585
G0 Z5.
Y36.415
G1 Z1. F1000.
Z-1.415 F333.3
G2 X173.805 Z-2. I0.585
G1 X174.39 F1000.
G17 G3 X174.975 Y37. J0.585
G2 X191.025 I8.025 F800.
G1 Y21.253
X193.139 Y19.139
G2 X194.025 Y17. I-2.139 J-2.139
G1 Y9.
G2 X171.975 I-11.025
G1 Y17.
G2 X172.861 Y19.139 I3.025
G1 X174.975 Y21.253
Y37.
G3 X174.39 Y37.585 I-0.585 F1000.
G1 X173.805
G18 G3 X173.22 Z-1.415 K0.585
G0 Z5.
Y36.415
G1 Z0. F1000.
Z-2.415 F333.3
G2 X173.805 Z-3. I0.585
G1 X174.39 F1000.
G17 G3 X174.975 Y37. J0.585
G2 X191.025 I8.025 F800.
G1 Y21.253
X193.139 Y19.139
G2 X194.025 Y17. I-2.139 J-2.139
G1 Y9.
G2 X171.975 I-11.025
G1 Y17.
G2 X172.861 Y19.139 I3.025
G1 X174.975 Y21.253
Y37.
G3 X174.39 Y37.585 I-0.585 F1000.
G1 X173.805
G18 G3 X173.22 Z-2.415 K0.585
G0 Z5.
Y36.415
G1 Z-1. F1000.
Z-3.415 F333.3
G2 X173.805 Z-4. I0.585
G1 X174.39 F1000.
G17 G3 X174.975 Y37. J0.585
G2 X191.025 I8.025 F800.
G1 Y21.253
X193.139 Y19.139
G2 X194.025 Y17. I-2.139 J-2.139
G1 Y9.
G2 X171.975 I-11.025
G1 Y17.
G2 X172.861 Y19.139 I3.025
G1 X174.975 Y21.253
Y37.
G3 X174.39 Y37.585 I-0.585 F1000.
G1 X173.805
G18 G3 X173.22 Z-3.415 K0.585
G0 Z5.
Y36.415
G1 Z-2. F1000.
Z-4.415 F333.3
G2 X173.805 Z-5. I0.585
G1 X174.39 F1000.
G17 G3 X174.975 Y37. J0.585
G2 X177.15 Y42.493 I8.025 F800.
G1 Z-4.537
G2 X188.85 I5.85 J-5.493
G1 Z-5. F333.3
G2 X191.025 Y37. I-5.85 J-5.493 F800.
G1 Y21.253
X193.139 Y19.139
G2 X193.88 Y17.925 I-2.139 J-2.139
G1 Z-4.537
G2 X194.025 Y17. I-2.88 J-0.925
G1 Y9.
G2 X193.67 Y6.225 I-11.025
G1 Z-5. F333.3
G2 X172.286 Y6.401 I-10.67 J2.775 F800.
G1 Z-4.537
G2 X171.975 Y9. I10.714 J2.599
G1 Y17.
G2 X172.182 Y18.101 I3.025
G1 Z-5. F333.3
G2 X172.861 Y19.139 I2.818 J-1.101 F800.
G1 X174.975 Y21.253
Y37.
G3 X174.39 Y37.585 I-0.585 F1000.
G1 X173.805
G18 G3 X173.22 Z-4.415 K0.585
G0 Z5.
Y36.415
G1 Z-3. F1000.
Z-5.415 F333.3
G2 X173.805 Z-6. I0.585
G1 X174.39 F1000.
G17 G3 X174.975 Y37. J0.585
G2 X177.15 Y42.493 I8.025 F800.
G1 Z-4.537
G2 X188.85 I5.85 J-5.493
G1 Z-6. F333.3
G2 X191.025 Y37. I-5.85 J-5.493 F800.
G1 Y21.253
X193.139 Y19.139
G2 X193.88 Y17.925 I-2.139 J-2.139
G1 Z-4.537
G2 X194.025 Y17. I-2.88 J-0.925
G1 Y9.
G2 X193.67 Y6.225 I-11.025
G1 Z-6. F333.3
G2 X172.286 Y6.401 I-10.67 J2.775 F800.
G1 Z-4.537
G2 X171.975 Y9. I10.714 J2.599
G1 Y17.
G2 X172.182 Y18.101 I3.025
G1 Z-6. F333.3
G2 X172.861 Y19.139 I2.818 J-1.101 F800.
G1 X174.975 Y21.253
Y37.
G2 X175.025 Y37.075 I0.081
G3 X175.076 Y37.15 I-0.031 J0.076
G2 X177.15 Y42.346 I7.924 J-0.15
G1 Z-4.537
G2 X188.85 I5.85 J-5.346
G1 Z-6. F333.3
G2 X190.925 Y37. I-5.85 J-5.346 F800.
G1 Y21.212
X193.068 Y19.068
G2 X193.775 Y17.925 I-2.068 J-2.068
G1 Z-4.537
G2 X193.925 Y17. I-2.775 J-0.925
G1 Y9.
G2 X193.567 Y6.225 I-10.925
G1 Z-6. F333.3
G2 X172.389 Y6.401 I-10.567 J2.775 F800.
G1 Z-4.537
G2 X172.075 Y9. I10.611 J2.599
G1 Y17.
G2 X172.29 Y18.101 I2.925
G1 Z-6. F333.3
G2 X172.932 Y19.068 I2.71 J-1.101 F800.
G1 X175.075 Y21.212
Y37.
G2 X175.076 Y37.15 I7.925
G3 X174.503 Y37.746 I-0.585 J0.011 F1000.
G1 X173.918 Y37.757
X173.826 Y37.759 Z-5.993
X173.737 Y37.76 Z-5.971
X173.652 Y37.762 Z-5.936
X173.574 Y37.764 Z-5.888
X173.504 Y37.765 Z-5.829
X173.445 Y37.766 Z-5.759
X173.397 Y37.767 Z-5.681
X173.361 Y37.768 Z-5.596
X173.34 Z-5.507
X173.333 Z-5.415
G0 Z5.
X196.22 Y36.415
G1 Z2. F1000.
Z-0.415 F333.3
G18 G2 X196.805 Z-1. I0.585
G1 X197.39 F1000.
G17 G3 X197.975 Y37. J0.585
G2 X214.025 I8.025 F800.
G1 Y21.253
X216.139 Y19.139
G2 X217.025 Y17. I-2.139 J-2.139
G1 Y9.
G2 X194.975 I-11.025
G1 Y17.
G2 X195.861 Y19.139 I3.025
G1 X197.975 Y21.253
Y37.
G3 X197.39 Y37.585 I-0.585 F1000.
G1 X196.805
G18 G3 X196.22 Z-0.415 K0.585
G0 Z5.
Y36.415
G1 Z1. F1000.
Z-1.415 F333.3
G2 X196.805 Z-2. I0.585
G1 X197.39 F1000.
G17 G3 X197.975 Y37. J0.585
G2 X214.025 I8.025 F800.
G1 Y21.253
X216.139 Y19.139
G2 X217.025 Y17. I-2.139 J-2.139
G1 Y9.
G2 X194.975 I-11.025
G1 Y17.
G2 X195.861 Y19.139 I3.025
G1 X197.975 Y21.253
Y37.
G3 X197.39 Y37.585 I-0.585 F1000.
G1 X196.805
G18 G3 X196.22 Z-1.415 K0.585
G0 Z5.
Y36.415
G1 Z0. F1000.
Z-2.415 F333.3
G2 X196.805 Z-3. I0.585
G1 X197.39 F1000.
G17 G3 X197.975 Y37. J0.585
G2 X214.025 I8.025 F800.
G1 Y21.253
X216.139 Y19.139
G2 X217.025 Y17. I-2.139 J-2.139
G1 Y9.
G2 X194.975 I-11.025
G1 Y17.
G2 X195.861 Y19.139 I3.025
G1 X197.975 Y21.253
Y37.
G3 X197.39 Y37.585 I-0.585 F1000.
G1 X196.805
G18 G3 X196.22 Z-2.415 K0.585
G0 Z5.
Y36.415
G1 Z-1. F1000.
Z-3.415 F333.3
G2 X196.805 Z-4. I0.585
G1 X197.39 F1000.
G17 G3 X197.975 Y37. J0.585
G2 X214.025 I8.025 F800.
G1 Y21.253
X216.139 Y19.139
G2 X217.025 Y17. I-2.139 J-2.139
G1 Y9.
G2 X194.975 I-11.025
G1 Y17.
G2 X195.861 Y19.139 I3.025
G1 X197.975 Y21.253
Y37.
G3 X197.39 Y37.585 I-0.585 F1000.
G1 X196.805
G18 G3 X196.22 Z-3.415 K0.585
G0 Z5.
Y36.415
G1 Z-2. F1000.
Z-4.415 F333.3
G2 X196.805 Z-5. I0.585
G1 X197.39 F1000.
G17 G3 X197.975 Y37. J0.585
G2 X199.668 Y41.931 I8.025 F800.
G1 Z-4.537
G2 X211.319 Y43.009 I6.332 J-4.931
G1 Z-5. F333.3
G2 X214.025 Y37. I-5.319 J-6.009 F800.
G1 Y21.253
X216.139 Y19.139
G2 X216.889 Y17.898 I-2.139 J-2.139
G1 Z-4.537
G2 X217.025 Y17. I-2.889 J-0.898
G1 Y9.
G2 X216.663 Y6.198 I-11.025
G1 Z-5. F333.3
G2 X195.33 Y6.225 I-10.663 J2.802 F800.
G1 Z-4.537
G2 X194.975 Y9. I10.67 J2.775
G1 Y17.
G2 X195.12 Y17.925 I3.025
G1 Z-5. F333.3
G2 X195.861 Y19.139 I2.88 J-0.925 F800.
G1 X197.975 Y21.253
Y37.
G3 X197.39 Y37.585 I-0.585 F1000.
G1 X196.805
G18 G3 X196.22 Z-4.415 K0.585
G0 Z5.
Y36.415
G1 Z-3. F1000.
Z-5.415 F333.3
G2 X196.805 Z-6. I0.585
G1 X197.39 F1000.
G17 G3 X197.975 Y37. J0.585
G2 X199.668 Y41.931 I8.025 F800.
G1 Z-4.537
G2 X211.319 Y43.009 I6.332 J-4.931
G1 Z-6. F333.3
G2 X214.025 Y37. I-5.319 J-6.009 F800.
G1 Y21.253
X216.139 Y19.139
G2 X216.889 Y17.898 I-2.139 J-2.139
G1 Z-4.537
G2 X217.025 Y17. I-2.889 J-0.898
G1 Y9.
G2 X216.663 Y6.198 I-11.025
G1 Z-6. F333.3
G2 X195.33 Y6.225 I-10.663 J2.802 F800.
G1 Z-4.537
G2 X194.975 Y9. I10.67 J2.775
G1 Y17.
G2 X195.12 Y17.925 I3.025
G1 Z-6. F333.3
G2 X195.861 Y19.139 I2.88 J-0.925 F800.
G1 X197.975 Y21.253
Y37.
G2 X198.025 Y37.075 I0.081
G3 X198.076 Y37.15 I-0.031 J0.076
G2 X199.682 Y41.784 I7.924 J-0.15
G1 Z-4.537
G2 X211.332 Y42.863 I6.318 J-4.784
G1 Z-6. F333.3
G2 X213.925 Y37. I-5.332 J-5.863 F800.
G1 Y21.212
X216.068 Y19.068
G2 X216.784 Y17.898 I-2.068 J-2.068
G1 Z-4.537
G2 X216.925 Y17. I-2.784 J-0.898
G1 Y9.
G2 X216.559 Y6.198 I-10.925
G1 Z-6. F333.3
G2 X195.433 Y6.225 I-10.559 J2.802 F800.
G1 Z-4.537
G2 X195.075 Y9. I10.567 J2.775
G1 Y17.
G2 X195.225 Y17.925 I2.925
G1 Z-6. F333.3
G2 X195.932 Y19.068 I2.775 J-0.925 F800.
G1 X198.075 Y21.212
Y37.
G2 X198.076 Y37.15 I7.925
G3 X197.503 Y37.746 I-0.585 J0.011 F1000.
G1 X196.918 Y37.757
X196.826 Y37.759 Z-5.993
X196.737 Y37.76 Z-5.971
X196.652 Y37.762 Z-5.936
X196.574 Y37.764 Z-5.888
X196.504 Y37.765 Z-5.829
X196.445 Y37.766 Z-5.759
X196.397 Y37.767 Z-5.681
X196.361 Y37.768 Z-5.596
X196.34 Z-5.507
X196.333 Z-5.415
G0 Z5.
X68.78 Y59.403
G1 Z2. F1000.
Z-0.415 F333.3
G18 G3 X68.195 Z-1. I-0.585
G1 X67.61 F1000.
G17 G3 X67.025 Y58.818 J-0.585
G1 Y39.818 F800.
G2 X64. Y36.793 I-3.025
G1 X36.
G2 X32.975 Y39.818 J3.025
G1 Y58.818
G2 X32.983 Y59.041 I3.025
X67.017 I17.017 J-1.262
X67.025 Y58.818 I-3.017 J-0.224
G3 X67.61 Y58.233 I0.585 F1000.
G1 X68.195
G18 G2 X68.78 Z-0.415 K0.585
G0 Z5.
Y59.403
G1 Z1. F1000.
Z-1.415 F333.3
G3 X68.195 Z-2. I-0.585
G1 X67.61 F1000.
G17 G3 X67.025 Y58.818 J-0.585
G1 Y39.818 F800.
G2 X64. Y36.793 I-3.025
G1 X36.
G2 X32.975 Y39.818 J3.025
G1 Y58.818
G2 X32.983 Y59.041 I3.025
X67.017 I17.017 J-1.262
X67.025 Y58.818 I-3.017 J-0.224
G3 X67.61 Y58.233 I0.585 F1000.
G1 X68.195
G18 G2 X68.78 Z-1.415 K0.585
G0 Z5.
Y59.403
G1 Z0. F1000.
Z-2.415 F333.3
G3 X68.195 Z-3. I-0.585
G1 X67.61 F1000.
G17 G3 X67.025 Y58.818 J-0.585
G1 Y39.818 F800.
G2 X64. Y36.793 I-3.025
G1 X36.
G2 X32.975 Y39.818 J3.025
G1 Y58.818
G2 X32.983 Y59.041 I3.025
X67.017 I17.017 J-1.262
X67.025 Y58.818 I-3.017 J-0.224
G3 X67.61 Y58.233 I0.585 F1000.
G1 X68.195
G18 G2 X68.78 Z-2.415 K0.585
G0 Z5.
Y59.403
G1 Z-1. F1000.
Z-3.415 F333.3
G3 X68.195 Z-4. I-0.585
G1 X67.61 F1000.
G17 G3 X67.025 Y58.818 J-0.585
G1 Y39.818 F800.
G2 X64. Y36.793 I-3.025
G1 X36.
G2 X32.975 Y39.818 J3.025
G1 Y58.818
G2 X32.983 Y59.041 I3.025
X67.017 I17.017 J-1.262
X67.025 Y58.818 I-3.017 J-0.224
G3 X67.61 Y58.233 I0.585 F1000.
G1 X68.195
G18 G2 X68.78 Z-3.415 K0.585
G0 Z5.
Y59.403
G1 Z-2. F1000.
Z-4.415 F333.3
G3 X68.767 Z-4.537 I-0.585
G1 X68.195
X67.61 F1000.
G17 G3 X67.025 Y58.818 J-0.585
G1 Y53.176 F800.
Z-5. F333.3
Y39.818 F800.
G2 X64. Y36.793 I-3.025
G1 X56.921
Z-4.537
X45.221
Z-5. F333.3
X36. F800.
G2 X32.975 Y39.818 J3.025
G1 Y53.176
Z-4.537
Y58.818
G2 X32.983 Y59.041 I3.025
X34.447 Y64.799 I17.017 J-1.262
G1 Z-5. F333.3
G2 X65.553 I15.553 J-7.02 F800.
G1 Z-4.537
G2 X67.017 Y59.041 I-15.553 J-7.02
X67.025 Y58.818 I-3.017 J-0.224
G3 X67.61 Y58.233 I0.585 F1000.
G1 X68.195
X68.767 F333.3
G18 G2 X68.78 Z-4.415 I-0.572 K0.122 F1000.
G0 Z5.
Y58.906
G1 Z-3. F1000.
Z-4.537 F333.3
X68.195
X67.61 F1000.
G17 G3 X67.025 Y58.321 J-0.585
G1 Y53.176 F800.
Z-6. F333.3
Y39.818 F800.
G2 X64. Y36.793 I-3.025
G1 X56.921
Z-4.537
X45.221
Z-6. F333.3
X36. F800.
G2 X32.975 Y39.818 J3.025
G1 Y53.176
Z-4.537
Y58.818
G2 X32.983 Y59.041 I3.025
X34.447 Y64.799 I17.017 J-1.262
G1 Z-6. F333.3
G2 X65.553 I15.553 J-7.02 F800.
G1 Z-4.537
G2 X67.017 Y59.041 I-15.553 J-7.02
X67.025 Y58.818 I-3.017 J-0.224
G1 Y58.321
G2 X66.975 Y58.246 I-0.081
G3 X66.925 Y58.171 I0.031 J-0.075
G1 Y53.168
Z-6. F333.3
Y39.818 F800.
G2 X64. Y36.893 I-2.925
G1 X56.921
Z-4.537
X45.221
Z-6. F333.3
X36. F800.
G2 X33.075 Y39.818 J2.925
G1 Y53.168
Z-4.537
Y58.818
G2 X33.083 Y59.034 I2.925
X34.554 Y64.791 I16.917 J-1.255
G1 Z-6. F333.3
G2 X65.446 I15.446 J-7.012 F800.
G1 Z-4.537
G2 X66.917 Y59.034 I-15.446 J-7.012
X66.925 Y58.818 I-2.917 J-0.216
G1 Y58.171
G3 X67.51 Y57.586 I0.585 F1000.
G1 X68.68
G0 Z5.
X62.95 Y32.628
G1 Z2. F1000.
Z-0.415 F333.3
X62.945 Y32.623 Z-0.507
X62.93 Y32.608 Z-0.596
X62.905 Y32.583 Z-0.681
X62.871 Y32.549 Z-0.759
X62.828 Y32.507 Z-0.829
X62.779 Y32.458 Z-0.888
X62.723 Y32.403 Z-0.936
X62.663 Y32.343 Z-0.971
X62.6 Y32.281 Z-0.993
X62.535 Y32.216 Z-1.
X62.119 Y31.804 F1000.
G3 X62.116 Y30.977 I0.412 J-0.415
G2 X67.017 Y20.224 I-12.116 J-12.015 F800.
X67.025 Y20. I-3.017 J-0.224
G1 Y1.
G2 X64. Y-2.025 I-3.025
G1 X36.
G2 X32.975 Y1. J3.025
G1 Y20.
G2 X32.983 Y20.224 I3.025
X62.116 Y30.977 I17.017 J-1.262
G3 X62.943 Y30.973 I0.415 J0.412 F1000.
G1 X63.358 Y31.385
X63.423 Y31.45 Z-0.993
X63.487 Y31.513 Z-0.971
X63.547 Y31.572 Z-0.936
X63.603 Y31.628 Z-0.888
X63.652 Y31.677 Z-0.829
X63.694 Y31.719 Z-0.759
X63.729 Y31.752 Z-0.681
X63.753 Y31.777 Z-0.596
X63.769 Y31.792 Z-0.507
X63.774 Y31.797 Z-0.415
G0 Z5.
X62.95 Y32.628
G1 Z1. F1000.
Z-1.415 F333.3
X62.945 Y32.623 Z-1.507
X62.93 Y32.608 Z-1.596
X62.905 Y32.583 Z-1.681
X62.871 Y32.549 Z-1.759
X62.828 Y32.507 Z-1.829
X62.779 Y32.458 Z-1.888
X62.723 Y32.403 Z-1.936
X62.663 Y32.343 Z-1.971
X62.6 Y32.281 Z-1.993
X62.535 Y32.216 Z-2.
X62.119 Y31.804 F1000.
G3 X62.116 Y30.977 I0.412 J-0.415
G2 X67.017 Y20.224 I-12.116 J-12.015 F800.
X67.025 Y20. I-3.017 J-0.224
G1 Y1.
G2 X64. Y-2.025 I-3.025
G1 X36.
G2 X32.975 Y1. J3.025
G1 Y20.
G2 X32.983 Y20.224 I3.025
X62.116 Y30.977 I17.017 J-1.262
G3 X62.943 Y30.973 I0.415 J0.412 F1000.
G1 X63.358 Y31.385
X63.423 Y31.45 Z-1.993
X63.487 Y31.513 Z-1.971
X63.547 Y31.572 Z-1.936
X63.603 Y31.628 Z-1.888
X63.652 Y31.677 Z-1.829
X63.694 Y31.719 Z-1.759
X63.729 Y31.752 Z-1.681
X63.753 Y31.777 Z-1.596
X63.769 Y31.792 Z-1.507
X63.774 Y31.797 Z-1.415
G0 Z5.
X62.95 Y32.628
G1 Z0. F1000.
Z-2.415 F333.3
X62.945 Y32.623 Z-2.507
X62.93 Y32.608 Z-2.596
X62.905 Y32.583 Z-2.681
X62.871 Y32.549 Z-2.759
X62.828 Y32.507 Z-2.829
X62.779 Y32.458 Z-2.888
X62.723 Y32.403 Z-2.936
X62.663 Y32.343 Z-2.971
X62.6 Y32.281 Z-2.993
X62.535 Y32.216 Z-3.
X62.119 Y31.804 F1000.
G3 X62.116 Y30.977 I0.412 J-0.415
G2 X67.017 Y20.224 I-12.116 J-12.015 F800.
X67.025 Y20. I-3.017 J-0.224
G1 Y1.
G2 X64. Y-2.025 I-3.025
G1 X36.
G2 X32.975 Y1. J3.025
G1 Y20.
G2 X32.983 Y20.224 I3.025
X62.116 Y30.977 I17.017 J-1.262
G3 X62.943 Y30.973 I0.415 J0.412 F1000.
G1 X63.358 Y31.385
X63.423 Y31.45 Z-2.993
X63.487 Y31.513 Z-2.971
X63.547 Y31.572 Z-2.936
X63.603 Y31.628 Z-2.888
X63.652 Y31.677 Z-2.829
X63.694 Y31.719 Z-2.759
X63.729 Y31.752 Z-2.681
X63.753 Y31.777 Z-2.596
X63.769 Y31.792 Z-2.507
X63.774 Y31.797 Z-2.415
G0 Z5.
X62.95 Y32.628
G1 Z-1. F1000.
Z-3.415 F333.3
X62.945 Y32.623 Z-3.507
X62.93 Y32.608 Z-3.596
X62.905 Y32.583 Z-3.681
X62.871 Y32.549 Z-3.759
X62.828 Y32.507 Z-3.829
X62.779 Y32.458 Z-3.888
X62.723 Y32.403 Z-3.936
X62.663 Y32.343 Z-3.971
X62.6 Y32.281 Z-3.993
X62.535 Y32.216 Z-4.
X62.119 Y31.804 F1000.
G3 X62.116 Y30.977 I0.412 J-0.415
G2 X67.017 Y20.224 I-12.116 J-12.015 F800.
X67.025 Y20. I-3.017 J-0.224
G1 Y1.
G2 X64. Y-2.025 I-3.025
G1 X36.
G2 X32.975 Y1. J3.025
G1 Y20.
G2 X32.983 Y20.224 I3.025
X62.116 Y30.977 I17.017 J-1.262
G3 X62.943 Y30.973 I0.415 J0.412 F1000.
G1 X63.358 Y31.385
X63.423 Y31.45 Z-3.993
X63.487 Y31.513 Z-3.971
X63.547 Y31.572 Z-3.936
X63.603 Y31.628 Z-3.888
X63.652 Y31.677 Z-3.829
X63.694 Y31.719 Z-3.759
X63.729 Y31.752 Z-3.681
X63.753 Y31.777 Z-3.596
X63.769 Y31.792 Z-3.507
X63.774 Y31.797 Z-3.415
G0 Z5.
X62.95 Y32.628
G1 Z-2. F1000.
Z-4.415 F333.3
X62.945 Y32.623 Z-4.507
X62.93 Y32.608 Z-4.596
X62.905 Y32.583 Z-4.681
X62.871 Y32.549 Z-4.759
X62.828 Y32.507 Z-4.829
X62.779 Y32.458 Z-4.888
X62.723 Y32.403 Z-4.936
X62.663 Y32.343 Z-4.971
X62.6 Y32.281 Z-4.993
X62.535 Y32.216 Z-5.
X62.119 Y31.804 F1000.
G3 X62.116 Y30.977 I0.412 J-0.415
G2 X65.553 Y25.981 I-12.116 J-12.015 F800.
G1 Z-4.537
G2 X67.017 Y20.224 I-15.553 J-7.02
X67.025 Y20. I-3.017 J-0.224
G1 Y14.358
Z-5. F333.3
Y1. F800.
G2 X64. Y-2.025 I-3.025
G1 X36.
G2 X32.975 Y1. J3.025
G1 Y14.15
Z-4.537
Y20.
G2 X32.983 Y20.224 I3.025
X34.389 Y25.85 I17.017 J-1.262
G1 Z-5. F333.3
G2 X45.221 Y35.342 I15.611 J-6.889 F800.
G1 Z-4.537
G2 X56.921 Y34.558 I4.779 J-16.381
G1 Z-5. F333.3
G2 X62.116 Y30.977 I-6.921 J-15.597 F800.
G3 X62.943 Y30.973 I0.415 J0.412 F1000.
G1 X63.358 Y31.385
X63.423 Y31.45 Z-4.993
X63.487 Y31.513 Z-4.971
X63.547 Y31.572 Z-4.936
X63.603 Y31.628 Z-4.888
X63.652 Y31.677 Z-4.829
X63.694 Y31.719 Z-4.759
X63.729 Y31.752 Z-4.681
X63.753 Y31.777 Z-4.596
X63.769 Y31.792 Z-4.507
X63.774 Y31.797 Z-4.415
G0 Z5.
X62.95 Y32.628
G1 Z-3. F1000.
Z-5.415 F333.3
X62.945 Y32.623 Z-5.507
X62.93 Y32.608 Z-5.596
X62.905 Y32.583 Z-5.681
X62.871 Y32.549 Z-5.759
X62.828 Y32.507 Z-5.829
X62.779 Y32.458 Z-5.888
X62.723 Y32.403 Z-5.936
X62.663 Y32.343 Z-5.971
X62.6 Y32.281 Z-5.993
X62.535 Y32.216 Z-6.
X62.119 Y31.804 F1000.
G3 X62.116 Y30.977 I0.412 J-0.415
G2 X65.553 Y25.981 I-12.116 J-12.015 F800.
G1 Z-4.537
G2 X67.017 Y20.224 I-15.553 J-7.02
X67.025 Y20. I-3.017 J-0.224
G1 Y14.358
Z-6. F333.3
Y1. F800.
G2 X64. Y-2.025 I-3.025
G1 X36.
G2 X32.975 Y1. J3.025
G1 Y14.15
Z-4.537
Y20.
G2 X32.983 Y20.224 I3.025
X34.389 Y25.85 I17.017 J-1.262
G1 Z-6. F333.3
G2 X45.221 Y35.342 I15.611 J-6.889 F800.
G1 Z-4.537
G2 X56.921 Y34.558 I4.779 J-16.381
G1 Z-6. F333.3
G2 X62.116 Y30.977 I-6.921 J-15.597 F800.
X62.133 Y30.888 I-0.058 J-0.057
G3 X62.15 Y30.8 I0.076 J-0.031
G2 X65.446 Y25.973 I-12.15 J-11.838
G1 Z-4.537
G2 X66.917 Y20.216 I-15.446 J-7.012
X66.925 Y20. I-2.917 J-0.216
G1 Y14.351
Z-6. F333.3
Y1. F800.
G2 X64. Y-1.925 I-2.925
G1 X36.
G2 X33.075 Y1. J2.925
G1 Y14.15
Z-4.537
Y20.
G2 X33.083 Y20.216 I2.925
X34.498 Y25.85 I16.917 J-1.255
G1 Z-6. F333.3
G2 X45.221 Y35.238 I15.502 J-6.889 F800.
G1 Z-4.537
G2 X56.921 Y34.449 I4.779 J-16.276
G1 Z-6. F333.3
G2 X62.15 Y30.8 I-6.921 J-15.487 F800.
G3 X62.977 Y30.789 I0.419 J0.408 F1000.
G1 X63.396 Y31.197
X63.462 Y31.261 Z-5.993
X63.526 Y31.323 Z-5.971
X63.586 Y31.382 Z-5.936
X63.642 Y31.437 Z-5.888
X63.692 Y31.486 Z-5.829
X63.735 Y31.527 Z-5.759
X63.769 Y31.561 Z-5.681
X63.795 Y31.585 Z-5.596
X63.81 Y31.6 Z-5.507
X63.815 Y31.605 Z-5.415
G0 Z5.
X31.594 Y35.76
G1 Z2. F1000.
Z-0.415 F333.3
X31.591 Y35.767 Z-0.507
X31.581 Y35.786 Z-0.596
X31.566 Y35.818 Z-0.681
X31.545 Y35.861 Z-0.759
X31.52 Y35.915 Z-0.829
X31.49 Y35.978 Z-0.888
X31.456 Y36.048 Z-0.936
X31.419 Y36.125 Z-0.971
X31.38 Y36.205 Z-0.993
X31.341 Y36.288 Z-1.
X31.088 Y36.815 F1000.
G3 X30.308 Y37.09 I-0.528 J-0.253
G2 X29. Y36.793 I-1.308 J2.728 F800.
G1 X1.
G2 X-2.025 Y39.818 J3.025
G1 Y58.818
G2 X-2.017 Y59.041 I3.025
X32.017 I17.017 J-1.262
X32.025 Y58.818 I-3.017 J-0.224
G1 Y39.818
G2 X30.308 Y37.09 I-3.025
G3 X30.033 Y36.309 I0.253 J-0.528 F1000.
G1 X30.286 Y35.782
X30.325 Y35.699 Z-0.993
X30.364 Y35.619 Z-0.971
X30.401 Y35.542 Z-0.936
X30.434 Y35.472 Z-0.888
X30.465 Y35.409 Z-0.829
X30.49 Y35.355 Z-0.759
X30.511 Y35.312 Z-0.681
X30.526 Y35.28 Z-0.596
X30.536 Y35.261 Z-0.507
X30.539 Y35.254 Z-0.415
G0 Z5.
X31.594 Y35.76
G1 Z1. F1000.
Z-1.415 F333.3
X31.591 Y35.767 Z-1.507
X31.581 Y35.786 Z-1.596
X31.566 Y35.818 Z-1.681
X31.545 Y35.861 Z-1.759
X31.52 Y35.915 Z-1.829
X31.49 Y35.978 Z-1.888
X31.456 Y36.048 Z-1.936
X31.419 Y36.125 Z-1.971
X31.38 Y36.205 Z-1.993
X31.341 Y36.288 Z-2.
X31.088 Y36.815 F1000.
G3 X30.308 Y37.09 I-0.528 J-0.253
G2 X29. Y36.793 I-1.308 J2.728 F800.
G1 X1.
G2 X-2.025 Y39.818 J3.025
G1 Y58.818
G2 X-2.017 Y59.041 I3.025
X32.017 I17.017 J-1.262
X32.025 Y58.818 I-3.017 J-0.224
G1 Y39.818
G2 X30.308 Y37.09 I-3.025
G3 X30.033 Y36.309 I0.253 J-0.528 F1000.
G1 X30.286 Y35.782
X30.325 Y35.699 Z-1.993
X30.364 Y35.619 Z-1.971
X30.401 Y35.542 Z-1.936
X30.434 Y35.472 Z-1.888
X30.465 Y35.409 Z-1.829
X30.49 Y35.355 Z-1.759
X30.511 Y35.312 Z-1.681
X30.526 Y35.28 Z-1.596
X30.536 Y35.261 Z-1.507
X30.539 Y35.254 Z-1.415
G0 Z5.
X31.594 Y35.76
G1 Z0. F1000.
Z-2.415 F333.3
X31.591 Y35.767 Z-2.507
X31.581 Y35.786 Z-2.596
X31.566 Y35.818 Z-2.681
X31.545 Y35.861 Z-2.759
X31.52 Y35.915 Z-2.829
X31.49 Y35.978 Z-2.888
X31.456 Y36.048 Z-2.936
X31.419 Y36.125 Z-2.971
X31.38 Y36.205 Z-2.993
X31.341 Y36.288 Z-3.
X31.088 Y36.815 F1000.
G3 X30.308 Y37.09 I-0.528 J-0.253
G2 X29. Y36.793 I-1.308 J2.728 F800.
G1 X1.
G2 X-2.025 Y39.818 J3.025
G1 Y58.818
G2 X-2.017 Y59.041 I3.025
X32.017 I17.017 J-1.262
X32.025 Y58.818 I-3.017 J-0.224
G1 Y39.818
G2 X30.308 Y37.09 I-3.025
G3 X30.033 Y36.309 I0.253 J-0.528 F1000.
G1 X30.286 Y35.782
X30.325 Y35.699 Z-2.993
X30.364 Y35.619 Z-2.971
X30.401 Y35.542 Z-2.936
X30.434 Y35.472 Z-2.888
X30.465 Y35.409 Z-2.829
X30.49 Y35.355 Z-2.759
X30.511 Y35.312 Z-2.681
X30.526 Y35.28 Z-2.596
X30.536 Y35.261 Z-2.507
X30.539 Y35.254 Z-2.415
G0 Z5.
X31.594 Y35.76
G1 Z-1. F1000.
Z-3.415 F333.3
X31.591 Y35.767 Z-3.507
X31.581 Y35.786 Z-3.596
X31.566 Y35.818 Z-3.681
X31.545 Y35.861 Z-3.759
X31.52 Y35.915 Z-3.829
X31.49 Y35.978 Z-3.888
X31.456 Y36.048 Z-3.936
X31.419 Y36.125 Z-3.971
X31.38 Y36.205 Z-3.993
X31.341 Y36.288 Z-4.
X31.088 Y36.815 F1000.
G3 X30.308 Y37.09 I-0.528 J-0.253
G2 X29. Y36.793 I-1.308 J2.728 F800.
G1 X1.
G2 X-2.025 Y39.818 J3.025
G1 Y58.818
G2 X-2.017 Y59.041 I3.025
X32.017 I17.017 J-1.262
X32.025 Y58.818 I-3.017 J-0.224
G1 Y39.818
G2 X30.308 Y37.09 I-3.025
G3 X30.033 Y36.309 I0.253 J-0.528 F1000.
G1 X30.286 Y35.782
X30.325 Y35.699 Z-3.993
X30.364 Y35.619 Z-3.971
X30.401 Y35.542 Z-3.936
X30.434 Y35.472 Z-3.888
X30.465 Y35.409 Z-3.829
X30.49 Y35.355 Z-3.759
X30.511 Y35.312 Z-3.681
X30.526 Y35.28 Z-3.596
X30.536 Y35.261 Z-3.507
X30.539 Y35.254 Z-3.415
G0 Z5.
X31.594 Y35.76
G1 Z-2. F1000.
Z-4.415 F333.3
X31.591 Y35.767 Z-4.507
X31.581 Y35.786 Z-4.596
X31.566 Y35.818 Z-4.681
X31.545 Y35.861 Z-4.759
X31.52 Y35.915 Z-4.829
X31.49 Y35.978 Z-4.888
X31.456 Y36.048 Z-4.936
X31.419 Y36.125 Z-4.971
X31.38 Y36.205 Z-4.993
X31.341 Y36.288 Z-5.
X31.088 Y36.815 F1000.
G3 X30.308 Y37.09 I-0.528 J-0.253
G2 X29. Y36.793 I-1.308 J2.728 F800.
G1 X21.08
Z-4.537
X9.38
Z-5. F333.3
X1. F800.
G2 X-2.025 Y39.818 J3.025
G1 Y53.176
Z-4.537
Y58.818
G2 X-2.017 Y59.041 I3.025
X-0.553 Y64.799 I17.017 J-1.262
G1 Z-5. F333.3
G2 X30.414 Y65.098 I15.553 J-7.02 F800.
G1 Z-4.537
G2 X32.017 Y59.041 I-15.414 J-7.319
X32.025 Y58.818 I-3.017 J-0.224
G1 Y53.246
Z-5. F333.3
Y39.818 F800.
G2 X30.308 Y37.09 I-3.025
G3 X30.033 Y36.309 I0.253 J-0.528 F1000.
G1 X30.286 Y35.782
X30.325 Y35.699 Z-4.993
X30.364 Y35.619 Z-4.971
X30.401 Y35.542 Z-4.936
X30.434 Y35.472 Z-4.888
X30.465 Y35.409 Z-4.829
X30.49 Y35.355 Z-4.759
X30.511 Y35.312 Z-4.681
X30.526 Y35.28 Z-4.596
X30.536 Y35.261 Z-4.507
X30.539 Y35.254 Z-4.415
G0 Z5.
X31.594 Y35.76
G1 Z-3. F1000.
Z-5.415 F333.3
X31.591 Y35.767 Z-5.507
X31.581 Y35.786 Z-5.596
X31.566 Y35.818 Z-5.681
X31.545 Y35.861 Z-5.759
X31.52 Y35.915 Z-5.829
X31.49 Y35.978 Z-5.888
X31.456 Y36.048 Z-5.936
X31.419 Y36.125 Z-5.971
X31.38 Y36.205 Z-5.993
X31.341 Y36.288 Z-6.
X31.088 Y36.815 F1000.
G3 X30.308 Y37.09 I-0.528 J-0.253
G2 X29. Y36.793 I-1.308 J2.728 F800.
G1 X21.08
Z-4.537
X9.38
Z-6. F333.3
X1. F800.
G2 X-2.025 Y39.818 J3.025
G1 Y53.176
Z-4.537
Y58.818
G2 X-2.017 Y59.041 I3.025
X-0.553 Y64.799 I17.017 J-1.262
G1 Z-6. F333.3
G2 X30.414 Y65.098 I15.553 J-7.02 F800.
G1 Z-4.537
G2 X32.017 Y59.041 I-15.414 J-7.319
X32.025 Y58.818 I-3.017 J-0.224
G1 Y53.246
Z-6. F333.3
Y39.818 F800.
G2 X30.308 Y37.09 I-3.025
X30.217 Y37.103 I-0.035 J0.074
G3 X30.128 Y37.119 I-0.057 J-0.063
G2 X29. Y36.893 I-1.128 J2.699
G1 X21.08
Z-4.537
X9.38
Z-6. F333.3
X1. F800.
G2 X-1.925 Y39.818 J2.925
G1 Y53.168
Z-4.537
Y58.818
G2 X-1.917 Y59.034 I2.925
X-0.446 Y64.791 I16.917 J-1.255
G1 Z-6. F333.3
G2 X30.299 Y65.107 I15.446 J-7.012 F800.
G1 Z-4.537
G2 X31.917 Y59.034 I-15.299 J-7.327
X31.925 Y58.818 I-2.917 J-0.216
G1 Y53.254
Z-6. F333.3
Y39.818 F800.
G2 X30.128 Y37.119 I-2.925
G3 X29.813 Y36.353 I0.226 J-0.54 F1000.
G1 X30.039 Y35.814
X30.074 Y35.729 Z-5.993
X30.108 Y35.647 Z-5.971
X30.141 Y35.569 Z-5.936
X30.171 Y35.496 Z-5.888
X30.198 Y35.432 Z-5.829
X30.221 Y35.377 Z-5.759
X30.24 Y35.333 Z-5.681
X30.253 Y35.3 Z-5.596
X30.261 Y35.28 Z-5.507
X30.264 Y35.274 Z-5.415
G0 Z5.
X29.519 Y30.948
G1 Z2. F1000.
Z-0.415 F333.3
X29.514 Y30.943 Z-0.507
X29.497 Y30.93 Z-0.596
X29.469 Y30.909 Z-0.681
X29.431 Y30.879 Z-0.759
X29.384 Y30.843 Z-0.829
X29.329 Y30.8 Z-0.888
X29.267 Y30.752 Z-0.936
X29.2 Y30.7 Z-0.971
X29.129 Y30.645 Z-0.993
X29.057 Y30.589 Z-1.
X28.594 Y30.231 F1000.
G3 X28.49 Y29.41 I0.358 J-0.462
G2 X32.017 Y20.224 I-13.49 J-10.449 F800.
X32.025 Y20. I-3.017 J-0.224
G1 Y1.
G2 X29. Y-2.025 I-3.025
G1 X1.
G2 X-2.025 Y1. J3.025
G1 Y20.
G2 X-2.017 Y20.224 I3.025
X28.49 Y29.41 I17.017 J-1.262
G3 X29.311 Y29.306 I0.462 J0.358 F1000.
G1 X29.773 Y29.664
X29.846 Y29.72 Z-0.993
X29.916 Y29.775 Z-0.971
X29.983 Y29.827 Z-0.936
X30.045 Y29.875 Z-0.888
X30.1 Y29.918 Z-0.829
X30.147 Y29.954 Z-0.759
X30.185 Y29.984 Z-0.681
X30.213 Y30.005 Z-0.596
X30.23 Y30.018 Z-0.507
X30.236 Y30.023 Z-0.415
G0 Z5.
X29.519 Y30.948
G1 Z1. F1000.
Z-1.415 F333.3
X29.514 Y30.943 Z-1.507
X29.497 Y30.93 Z-1.596
X29.469 Y30.909 Z-1.681
X29.431 Y30.879 Z-1.759
X29.384 Y30.843 Z-1.829
X29.329 Y30.8 Z-1.888
X29.267 Y30.752 Z-1.936
X29.2 Y30.7 Z-1.971
X29.129 Y30.645 Z-1.993
X29.057 Y30.589 Z-2.
X28.594 Y30.231 F1000.
G3 X28.49 Y29.41 I0.358 J-0.462
G2 X32.017 Y20.224 I-13.49 J-10.449 F800.
X32.025 Y20. I-3.017 J-0.224
G1 Y1.
G2 X29. Y-2.025 I-3.025
G1 X1.
G2 X-2.025 Y1. J3.025
G1 Y20.
G2 X-2.017 Y20.224 I3.025
X28.49 Y29.41 I17.017 J-1.262
G3 X29.311 Y29.306 I0.462 J0.358 F1000.
G1 X29.773 Y29.664
X29.846 Y29.72 Z-1.993
X29.916 Y29.775 Z-1.971
X29.983 Y29.827 Z-1.936
X30.045 Y29.875 Z-1.888
X30.1 Y29.918 Z-1.829
X30.147 Y29.954 Z-1.759
X30.185 Y29.984 Z-1.681
X30.213 Y30.005 Z-1.596
X30.23 Y30.018 Z-1.507
X30.236 Y30.023 Z-1.415
G0 Z5.
X29.519 Y30.948
G1 Z0. F1000.
Z-2.415 F333.3
X29.514 Y30.943 Z-2.507
X29.497 Y30.93 Z-2.596
X29.469 Y30.909 Z-2.681
X29.431 Y30.879 Z-2.759
X29.384 Y30.843 Z-2.829
X29.329 Y30.8 Z-2.888
X29.267 Y30.752 Z-2.936
X29.2 Y30.7 Z-2.971
X29.129 Y30.645 Z-2.993
X29.057 Y30.589 Z-3.
X28.594 Y30.231 F1000.
G3 X28.49 Y29.41 I0.358 J-0.462
G2 X32.017 Y20.224 I-13.49 J-10.449 F800.
X32.025 Y20. I-3.017 J-0.224
G1 Y1.
G2 X29. Y-2.025 I-3.025
G1 X1.
G2 X-2.025 Y1. J3.025
G1 Y20.
G2 X-2.017 Y20.224 I3.025
X28.49 Y29.41 I17.017 J-1.262
G3 X29.311 Y29.306 I0.462 J0.358 F1000.
G1 X29.773 Y29.664
X29.846 Y29.72 Z-2.993
X29.916 Y29.775 Z-2.971
X29.983 Y29.827 Z-2.936
X30.045 Y29.875 Z-2.888
X30.1 Y29.918 Z-2.829
X30.147 Y29.954 Z-2.759
X30.185 Y29.984 Z-2.681
X30.213 Y30.005 Z-2.596
X30.23 Y30.018 Z-2.507
X30.236 Y30.023 Z-2.415
G0 Z5.
X29.519 Y30.948
G1 Z-1. F1000.
Z-3.415 F333.3
X29.514 Y30.943 Z-3.507
X29.497 Y30.93 Z-3.596
X29.469 Y30.909 Z-3.681
X29.431 Y30.879 Z-3.759
X29.384 Y30.843 Z-3.829
X29.329 Y30.8 Z-3.888
X29.267 Y30.752 Z-3.936
X29.2 Y30.7 Z-3.971
X29.129 Y30.645 Z-3.993
X29.057 Y30.589 Z-4.
X28.594 Y30.231 F1000.
G3 X28.49 Y29.41 I0.358 J-0.462
G2 X32.017 Y20.224 I-13.49 J-10.449 F800.
X32.025 Y20. I-3.017 J-0.224
G1 Y1.
G2 X29. Y-2.025 I-3.025
G1 X1.
G2 X-2.025 Y1. J3.025
G1 Y20.
G2 X-2.017 Y20.224 I3.025
X28.49 Y29.41 I17.017 J-1.262
G3 X29.311 Y29.306 I0.462 J0.358 F1000.
G1 X29.773 Y29.664
X29.846 Y29.72 Z-3.993
X29.916 Y29.775 Z-3.971
X29.983 Y29.827 Z-3.936
X30.045 Y29.875 Z-3.888
X30.1 Y29.918 Z-3.829
X30.147 Y29.954 Z-3.759
X30.185 Y29.984 Z-3.681
X30.213 Y30.005 Z-3.596
X30.23 Y30.018 Z-3.507
X30.236 Y30.023 Z-3.415
G0 Z5.
X29.519 Y30.948
G1 Z-2. F1000.
Z-4.415 F333.3
X29.514 Y30.943 Z-4.507
X29.497 Y30.93 Z-4.596
X29.469 Y30.909 Z-4.681
X29.431 Y30.879 Z-4.759
X29.384 Y30.843 Z-4.829
X29.329 Y30.8 Z-4.888
X29.267 Y30.752 Z-4.936
X29.2 Y30.7 Z-4.971
X29.129 Y30.645 Z-4.993
X29.057 Y30.589 Z-5.
X28.594 Y30.231 F1000.
G3 X28.49 Y29.41 I0.358 J-0.462
G2 X30.611 Y25.85 I-13.49 J-10.449 F800.
G1 Z-4.537
G2 X32.017 Y20.224 I-15.611 J-6.889
X32.025 Y20. I-3.017 J-0.224
G1 Y14.15
Z-5. F333.3
Y1. F800.
G2 X29. Y-2.025 I-3.025
G1 X1.
G2 X-2.025 Y1. J3.025
G1 Y14.15
Z-4.537
Y20.
G2 X-2.017 Y20.224 I3.025
X-0.611 Y25.85 I17.017 J-1.262
G1 Z-5. F333.3
G2 X9.38 Y35.073 I15.611 J-6.889 F800.
G1 Z-4.537
G2 X21.08 Y34.905 I5.62 J-16.112
G1 Z-5. F333.3
G2 X28.49 Y29.41 I-6.08 J-15.943 F800.
G3 X29.311 Y29.306 I0.462 J0.358 F1000.
G1 X29.773 Y29.664
X29.846 Y29.72 Z-4.993
X29.916 Y29.775 Z-4.971
X29.983 Y29.827 Z-4.936
X30.045 Y29.875 Z-4.888
X30.1 Y29.918 Z-4.829
X30.147 Y29.954 Z-4.759
X30.185 Y29.984 Z-4.681
X30.213 Y30.005 Z-4.596
X30.23 Y30.018 Z-4.507
X30.236 Y30.023 Z-4.415
G0 Z5.
X29.519 Y30.948
G1 Z-3. F1000.
Z-5.415 F333.3
X29.514 Y30.943 Z-5.507
X29.497 Y30.93 Z-5.596
X29.469 Y30.909 Z-5.681
X29.431 Y30.879 Z-5.759
X29.384 Y30.843 Z-5.829
X29.329 Y30.8 Z-5.888
X29.267 Y30.752 Z-5.936
X29.2 Y30.7 Z-5.971
X29.129 Y30.645 Z-5.993
X29.057 Y30.589 Z-6.
X28.594 Y30.231 F1000.
G3 X28.49 Y29.41 I0.358 J-0.462
G2 X30.611 Y25.85 I-13.49 J-10.449 F800.
G1 Z-4.537
G2 X32.017 Y20.224 I-15.611 J-6.889
X32.025 Y20. I-3.017 J-0.224
G1 Y14.15
Z-6. F333.3
Y1. F800.
G2 X29. Y-2.025 I-3.025
G1 X1.
G2 X-2.025 Y1. J3.025
G1 Y14.15
Z-4.537
Y20.
G2 X-2.017 Y20.224 I3.025
X-0.611 Y25.85 I17.017 J-1.262
G1 Z-6. F333.3
G2 X9.38 Y35.073 I15.611 J-6.889 F800.
G1 Z-4.537
G2 X21.08 Y34.905 I5.62 J-16.112
G1 Z-6. F333.3
G2 X28.49 Y29.41 I-6.08 J-15.943 F800.
X28.496 Y29.32 I-0.064 J-0.05
G3 X28.502 Y29.23 I0.072 J-0.04
G2 X30.502 Y25.85 I-13.502 J-10.269
G1 Z-4.537
G2 X31.917 Y20.216 I-15.502 J-6.889
X31.925 Y20. I-2.917 J-0.216
G1 Y14.15
Z-6. F333.3
Y1. F800.
G2 X29. Y-1.925 I-2.925
G1 X1.
G2 X-1.925 Y1. J2.925
G1 Y14.15
Z-4.537
Y20.
G2 X-1.917 Y20.216 I2.925
X-0.502 Y25.85 I16.917 J-1.255
G1 Z-6. F333.3
G2 X9.38 Y34.967 I15.502 J-6.889 F800.
G1 Z-4.537
G2 X21.08 Y34.798 I5.62 J-16.006
G1 Z-6. F333.3
G2 X28.502 Y29.23 I-6.08 J-15.836 F800.
G3 X29.322 Y29.119 I0.466 J0.354 F1000.
G1 X29.788 Y29.473
X29.861 Y29.528 Z-5.993
X29.932 Y29.582 Z-5.971
X29.999 Y29.634 Z-5.936
X30.061 Y29.681 Z-5.888
X30.117 Y29.723 Z-5.829
X30.164 Y29.759 Z-5.759
X30.203 Y29.788 Z-5.681
X30.231 Y29.81 Z-5.596
X30.248 Y29.823 Z-5.507
X30.253 Y29.827 Z-5.415
G0 Z15.
G91
G28 Z0.
M5
G28 X0. Y0.
M30
%
